; generated by Slic3r 1.2.9 on 2016-01-31 at 20:58:56

; external perimeters extrusion width = 0.40mm
; perimeters extrusion width = 0.67mm
; infill extrusion width = 0.67mm
; solid infill extrusion width = 0.67mm
; top infill extrusion width = 0.67mm

M107 ; disable fan
M104 S220 ; set temperature
M80 ; Power supply on
G28 ; home all axes

M109 S220 ; wait for temperature to be reached
G21 ; set units to millimeters
G90 ; use absolute coordinates
M82 ; use absolute distances for extrusion
G92 E0 ; reset extrusion distance
G1 E-1.00000 F480.00000 ; retract
G92 E0 ; reset extrusion distance
G1 Z0.200 F3600.000 ; move to next layer (0)
G1 X145.840 Y139.778 F3600.000 ; move to first skirt point
G1 E1.00000 F480.00000 ; unretract
G1 X146.840 Y138.778 E1.00569 F2100.000 ; skirt
G1 X148.660 Y137.519 E1.01460 ; skirt
G1 X151.203 Y136.970 E1.02508 ; skirt
G1 X165.223 Y136.970 E1.08153 ; skirt
G1 X186.344 Y137.037 E1.16657 F2100.000 ; skirt
G1 X188.520 Y137.440 E1.17548 ; skirt
G1 X190.688 Y138.844 E1.18588 ; skirt
G1 X191.689 Y139.845 E1.19158 ; skirt
G1 X192.947 Y141.665 E1.20049 ; skirt
G1 X193.486 Y144.551 E1.21231 ; skirt
G1 X192.837 Y156.202 E1.25929 ; skirt
G1 X192.320 Y158.354 E1.26820 ; skirt
G1 X191.039 Y160.222 E1.27733 ; skirt
G1 X190.039 Y161.222 E1.28302 ; skirt
G1 X188.219 Y162.481 E1.29193 ; skirt
G1 X185.675 Y163.030 E1.30241 ; skirt
G1 X149.675 Y163.030 E1.44736 ; skirt
G1 X147.498 Y162.633 E1.45627 ; skirt
G1 X145.312 Y161.222 E1.46674 ; skirt
G1 X144.311 Y160.222 E1.47244 ; skirt
G1 X143.053 Y158.402 E1.48135 ; skirt
G1 X142.517 Y156.255 E1.49026 ; skirt
G1 X142.556 Y155.061 E1.49507 ; skirt
G1 X144.084 Y143.343 E1.54265 ; skirt
G1 X144.759 Y141.236 E1.55156 ; skirt
G1 X145.804 Y139.826 E1.55863 ; skirt
G1 X145.849 Y139.859 F3600.000 ; move to first skirt point
G1 X146.880 Y138.818 E1.56453 F2100.000 ; skirt
G1 X148.693 Y137.567 E1.57339 ; skirt
G1 X151.203 Y137.027 E1.58373 ; skirt
G1 X165.223 Y137.027 E1.64018 ; skirt
G1 X186.344 Y137.094 E1.72522 F2100.000 ; skirt
G1 X188.509 Y137.498 E1.73409 ; skirt
G1 X190.648 Y138.885 E1.74436 ; skirt
G1 X191.648 Y139.885 E1.75005 ; skirt
G1 X192.900 Y141.698 E1.75892 ; skirt
G1 X193.429 Y144.548 E1.77059 ; skirt
G1 X192.780 Y156.199 E1.81758 ; skirt
G1 X192.264 Y158.340 E1.82644 ; skirt
G1 X190.999 Y160.182 E1.83544 ; skirt
G1 X189.999 Y161.182 E1.84114 ; skirt
G1 X188.186 Y162.433 E1.85000 ; skirt
G1 X185.675 Y162.973 E1.86034 ; skirt
G1 X149.675 Y162.973 E2.00529 ; skirt
G1 X147.509 Y162.576 E2.01416 ; skirt
G1 X145.352 Y161.182 E2.02450 ; skirt
G1 X144.352 Y160.182 E2.03020 ; skirt
G1 X143.100 Y158.369 E2.03907 ; skirt
G1 X142.573 Y156.231 E2.04794 ; skirt
G1 X142.613 Y155.068 E2.05262 ; skirt
G1 X144.141 Y143.351 E2.10020 ; skirt
G1 X144.814 Y141.254 E2.10907 ; skirt
G1 X145.814 Y139.908 E2.11582 ; skirt
G1 X145.859 Y139.941 F3600.000 ; move to first skirt point
G1 X145.920 Y139.858 E2.11623 F2100.000 ; skirt
G1 X146.920 Y138.858 E2.12193 ; skirt
G1 X148.726 Y137.614 E2.13075 ; skirt
G1 X151.203 Y137.084 E2.14096 ; skirt
G1 X165.223 Y137.084 E2.19740 ; skirt
G1 X186.344 Y137.151 E2.28244 F2100.000 ; skirt
G1 X188.498 Y137.555 E2.29127 ; skirt
G1 X190.608 Y138.925 E2.30140 ; skirt
G1 X191.608 Y139.925 E2.30709 ; skirt
G1 X192.852 Y141.731 E2.31592 ; skirt
G1 X193.372 Y144.545 E2.32744 ; skirt
G1 X192.723 Y156.196 E2.37443 ; skirt
G1 X192.207 Y158.326 E2.38325 ; skirt
G1 X190.958 Y160.142 E2.39213 ; skirt
G1 X189.958 Y161.142 E2.39782 ; skirt
G1 X188.153 Y162.386 E2.40665 ; skirt
G1 X185.675 Y162.916 E2.41685 ; skirt
G1 X149.675 Y162.916 E2.56180 ; skirt
G1 X147.519 Y162.519 E2.57062 ; skirt
G1 X145.392 Y161.142 E2.58083 ; skirt
G1 X144.392 Y160.141 E2.58652 ; skirt
G1 X143.148 Y158.336 E2.59535 ; skirt
G1 X142.628 Y156.206 E2.60418 ; skirt
G1 X142.669 Y155.075 E2.60873 ; skirt
G1 X144.197 Y143.358 E2.65631 ; skirt
G1 X144.869 Y141.272 E2.66514 ; skirt
G1 X145.823 Y139.989 E2.67157 ; skirt
G1 E1.67157 F480.00000 ; retract
G92 E0 ; reset extrusion distance
G1 X160.498 Y156.752 F3600.000 ; move to first perimeter point
G1 E1.00000 F480.00000 ; unretract
G1 X149.720 Y156.752 E1.04340 F1800.000 ; perimeter
G1 X148.934 Y155.966 E1.04787 ; perimeter
G1 X151.720 Y155.966 E1.05909 ; perimeter
G1 X153.934 Y153.752 E1.07170 ; perimeter
G1 X153.283 Y153.752 E1.07432 ; perimeter
G1 X153.283 Y152.474 E1.07946 ; perimeter
G1 X153.472 Y152.489 E1.08022 ; perimeter
G1 X153.760 Y152.559 E1.08142 ; perimeter
G1 X154.035 Y152.672 E1.08261 ; perimeter
G1 X154.288 Y152.827 E1.08381 ; perimeter
G1 X154.514 Y153.020 E1.08501 ; perimeter
G1 X154.707 Y153.246 E1.08620 ; perimeter
G1 X154.862 Y153.499 E1.08740 ; perimeter
G1 X154.975 Y153.774 E1.08859 ; perimeter
G1 X155.045 Y154.063 E1.08979 ; perimeter
G1 X155.065 Y154.318 E1.09082 ; perimeter
G1 X153.417 Y155.966 E1.10020 ; perimeter
G1 X159.934 Y155.966 E1.12644 ; perimeter
G1 X158.286 Y154.318 E1.13583 ; perimeter
G1 X158.306 Y154.063 E1.13686 ; perimeter
G1 X158.375 Y153.774 E1.13805 ; perimeter
G1 X158.489 Y153.499 E1.13925 ; perimeter
G1 X158.644 Y153.246 E1.14045 ; perimeter
G1 X158.837 Y153.020 E1.14164 ; perimeter
G1 X159.063 Y152.827 E1.14284 ; perimeter
G1 X159.316 Y152.672 E1.14403 ; perimeter
G1 X159.591 Y152.559 E1.14523 ; perimeter
G1 X159.879 Y152.489 E1.14642 ; perimeter
G1 X160.068 Y152.474 E1.14719 ; perimeter
G1 X160.068 Y153.752 E1.15233 ; perimeter
G1 X159.417 Y153.752 E1.15495 F1800.000 ; perimeter
G1 X161.631 Y155.966 E1.16756 ; perimeter
G1 X164.417 Y155.966 E1.17878 ; perimeter
G1 X163.631 Y156.752 E1.18325 ; perimeter
G1 X160.558 Y156.752 E1.19563 ; perimeter
G1 X160.558 Y156.809 F3600.000 ; move to first perimeter point
G1 X149.696 Y156.809 E1.23936 F900.000 ; perimeter
G1 X148.796 Y155.909 E1.24448 ; perimeter
G1 X151.696 Y155.909 E1.25616 ; perimeter
G1 X153.796 Y153.809 E1.26812 ; perimeter
G1 X153.225 Y153.809 E1.27042 ; perimeter
G1 X153.225 Y152.413 E1.27604 ; perimeter
G1 X153.480 Y152.433 E1.27707 ; perimeter
G1 X153.778 Y152.504 E1.27830 ; perimeter
G1 X154.061 Y152.621 E1.27953 ; perimeter
G1 X154.322 Y152.781 E1.28076 ; perimeter
G1 X154.554 Y152.980 E1.28199 ; perimeter
G1 X154.753 Y153.213 E1.28323 ; perimeter
G1 X154.913 Y153.473 E1.28446 ; perimeter
G1 X155.030 Y153.756 E1.28569 ; perimeter
G1 X155.101 Y154.054 E1.28692 ; perimeter
G1 X155.124 Y154.340 E1.28808 ; perimeter
G1 X153.555 Y155.909 E1.29701 ; perimeter
G1 X159.796 Y155.909 E1.32214 ; perimeter
G1 X158.227 Y154.340 E1.33108 ; perimeter
G1 X158.250 Y154.054 E1.33223 ; perimeter
G1 X158.321 Y153.756 E1.33346 ; perimeter
G1 X158.438 Y153.473 E1.33469 ; perimeter
G1 X158.598 Y153.213 E1.33593 ; perimeter
G1 X158.797 Y152.980 E1.33716 ; perimeter
G1 X159.029 Y152.781 E1.33839 ; perimeter
G1 X159.290 Y152.621 E1.33962 ; perimeter
G1 X159.573 Y152.504 E1.34085 ; perimeter
G1 X159.870 Y152.433 E1.34209 ; perimeter
G1 X160.125 Y152.413 E1.34312 ; perimeter
G1 X160.125 Y153.809 E1.34874 ; perimeter
G1 X159.555 Y153.809 E1.35103 F900.000 ; perimeter
G1 X161.655 Y155.909 E1.36299 ; perimeter
G1 X164.555 Y155.909 E1.37467 ; perimeter
G1 X163.655 Y156.809 E1.37979 ; perimeter
G1 X160.618 Y156.809 E1.39202 ; perimeter
G1 X160.358 Y156.462 F3600.000 ; move inwards before travel
G1 X160.641 Y156.735 F3600.000 ; move to first infill point
G1 X159.888 Y155.982 E1.39633 F1800.000 ; infill
G1 X159.969 Y155.982 F3600.000 ; move to first infill point
G1 X160.722 Y156.735 E1.40064 F1800.000 ; infill
G1 X160.803 Y156.735 F3600.000 ; move to first infill point
G1 X158.308 Y154.240 E1.41492 F1800.000 ; infill
G1 X158.314 Y154.165 F3600.000 ; move to first infill point
G1 X160.884 Y156.735 E1.42962 F1800.000 ; infill
G1 X160.965 Y156.735 F3600.000 ; move to first infill point
G1 X158.320 Y154.089 E1.44476 F1800.000 ; infill
G1 X158.331 Y154.020 F3600.000 ; move to first infill point
G1 X161.046 Y156.735 E1.46030 F1800.000 ; infill
G1 X161.127 Y156.735 F3600.000 ; move to first infill point
G1 X158.346 Y153.954 E1.47621 F1800.000 ; infill
G1 X158.362 Y153.889 F3600.000 ; move to first infill point
G1 X161.209 Y156.735 E1.49250 F1800.000 ; infill
G1 X161.290 Y156.735 F3600.000 ; move to first infill point
G1 X158.378 Y153.823 E1.50916 F1800.000 ; infill
G1 X158.395 Y153.759 F3600.000 ; move to first infill point
G1 X161.371 Y156.735 E1.52618 F1800.000 ; infill
G1 X161.452 Y156.735 F3600.000 ; move to first infill point
G1 X158.419 Y153.702 E1.54353 F1800.000 ; infill
G1 X158.443 Y153.645 F3600.000 ; move to first infill point
G1 X161.533 Y156.735 E1.56122 F1800.000 ; infill
G1 X161.614 Y156.735 F3600.000 ; move to first infill point
G1 X158.466 Y153.587 E1.57923 F1800.000 ; infill
G1 X158.490 Y153.530 F3600.000 ; move to first infill point
G1 X161.695 Y156.735 E1.59756 F1800.000 ; infill
G1 X161.776 Y156.735 F3600.000 ; move to first infill point
G1 X158.517 Y153.476 E1.61621 F1800.000 ; infill
G1 X158.548 Y153.426 F3600.000 ; move to first infill point
G1 X161.857 Y156.735 E1.63515 F1800.000 ; infill
G1 X161.939 Y156.735 F3600.000 ; move to first infill point
G1 X158.579 Y153.376 E1.65437 F1800.000 ; infill
G1 X158.610 Y153.325 F3600.000 ; move to first infill point
G1 X162.020 Y156.735 E1.67388 F1800.000 ; infill
G1 X162.101 Y156.735 F3600.000 ; move to first infill point
G1 X158.641 Y153.275 E1.69368 F1800.000 ; infill
G1 X158.675 Y153.228 F3600.000 ; move to first infill point
G1 X162.182 Y156.735 E1.71374 F1800.000 ; infill
G1 X162.263 Y156.735 F3600.000 ; move to first infill point
G1 X158.712 Y153.184 E1.73406 F1800.000 ; infill
G1 X158.750 Y153.141 F3600.000 ; move to first infill point
G1 X162.344 Y156.735 E1.75462 F1800.000 ; infill
G1 X162.425 Y156.735 F3600.000 ; move to first infill point
G1 X161.672 Y155.982 E1.75893 F1800.000 ; infill
G1 X161.753 Y155.982 F3600.000 ; move to first infill point
G1 X162.506 Y156.735 E1.76324 F1800.000 ; infill
G1 X162.587 Y156.735 F3600.000 ; move to first infill point
G1 X161.834 Y155.982 E1.76755 F1800.000 ; infill
G1 X161.916 Y155.982 F3600.000 ; move to first infill point
G1 X162.669 Y156.735 E1.77186 F1800.000 ; infill
G1 X162.750 Y156.735 F3600.000 ; move to first infill point
G1 X161.997 Y155.982 E1.77617 F1800.000 ; infill
G1 X162.078 Y155.982 F3600.000 ; move to first infill point
G1 X162.831 Y156.735 E1.78048 F1800.000 ; infill
G1 X162.912 Y156.735 F3600.000 ; move to first infill point
G1 X162.159 Y155.982 E1.78479 F1800.000 ; infill
G1 X162.240 Y155.982 F3600.000 ; move to first infill point
G1 X162.993 Y156.735 E1.78909 F1800.000 ; infill
G1 X163.074 Y156.735 F3600.000 ; move to first infill point
G1 X162.321 Y155.982 E1.79340 F1800.000 ; infill
G1 X162.402 Y155.982 F3600.000 ; move to first infill point
G1 X163.155 Y156.735 E1.79771 F1800.000 ; infill
G1 X163.236 Y156.735 F3600.000 ; move to first infill point
G1 X162.483 Y155.982 E1.80202 F1800.000 ; infill
G1 X162.564 Y155.982 F3600.000 ; move to first infill point
G1 X163.317 Y156.735 E1.80633 F1800.000 ; infill
G1 X163.399 Y156.735 F3600.000 ; move to first infill point
G1 X162.646 Y155.982 E1.81064 F1800.000 ; infill
G1 X162.727 Y155.982 F3600.000 ; move to first infill point
G1 X163.480 Y156.735 E1.81495 F1800.000 ; infill
G1 X163.561 Y156.735 F3600.000 ; move to first infill point
G1 X162.808 Y155.982 E1.81926 F1800.000 ; infill
G1 X162.889 Y155.982 F3600.000 ; move to first infill point
G1 X163.623 Y156.716 E1.82345 F1800.000 ; infill
G1 X163.619 Y155.982 F3600.000 ; move to first infill point
G1 X163.988 Y156.351 E1.82556 F1800.000 ; infill
G1 X164.028 Y156.310 E1.82579 ; infill
G1 X163.700 Y155.982 E1.82767 ; infill
G1 X163.781 Y155.982 F3600.000 ; move to first infill point
G1 X164.069 Y156.270 E1.82932 F1800.000 ; infill
G1 X164.109 Y156.229 E1.82955 ; infill
G1 X163.862 Y155.982 E1.83096 ; infill
G1 X163.943 Y155.982 F3600.000 ; move to first infill point
G1 X164.150 Y156.189 E1.83214 F1800.000 ; infill
G1 X164.190 Y156.148 E1.83238 ; infill
G1 X164.024 Y155.982 E1.83332 ; infill
G1 X164.106 Y155.982 F3600.000 ; move to first infill point
G1 X164.231 Y156.107 E1.83404 F1800.000 ; infill
G1 X164.271 Y156.067 E1.83427 ; infill
G1 X164.187 Y155.982 E1.83476 ; infill
G1 X164.268 Y155.982 F3600.000 ; move to first infill point
G1 X164.312 Y156.026 E1.83501 F1800.000 ; infill
G1 X163.538 Y155.982 F3600.000 ; move to first infill point
G1 X163.947 Y156.391 E1.83735 F1800.000 ; infill
G1 X163.906 Y156.432 E1.83759 ; infill
G1 X163.457 Y155.982 E1.84016 ; infill
G1 X163.376 Y155.982 F3600.000 ; move to first infill point
G1 X163.866 Y156.472 E1.84296 F1800.000 ; infill
G1 X163.825 Y156.513 E1.84320 ; infill
G1 X163.294 Y155.982 E1.84623 ; infill
G1 X163.213 Y155.982 F3600.000 ; move to first infill point
G1 X163.785 Y156.554 E1.84950 F1800.000 ; infill
G1 X163.744 Y156.594 E1.84974 ; infill
G1 X163.132 Y155.982 E1.85324 ; infill
G1 X163.051 Y155.982 F3600.000 ; move to first infill point
G1 X163.704 Y156.635 E1.85697 F1800.000 ; infill
G1 X163.663 Y156.675 E1.85720 ; infill
G1 X162.970 Y155.982 E1.86117 ; infill
G1 X160.560 Y156.735 F3600.000 ; move to first infill point
G1 X159.807 Y155.982 E1.86548 F1800.000 ; infill
G1 X159.726 Y155.982 F3600.000 ; move to first infill point
G1 X160.479 Y156.735 E1.86979 F1800.000 ; infill
G1 X160.397 Y156.735 F3600.000 ; move to first infill point
G1 X159.644 Y155.982 E1.87409 F1800.000 ; infill
G1 X159.563 Y155.982 F3600.000 ; move to first infill point
G1 X160.316 Y156.735 E1.87840 F1800.000 ; infill
G1 X160.235 Y156.735 F3600.000 ; move to first infill point
G1 X159.482 Y155.982 E1.88271 F1800.000 ; infill
G1 X159.401 Y155.982 F3600.000 ; move to first infill point
G1 X160.154 Y156.735 E1.88702 F1800.000 ; infill
G1 X160.073 Y156.735 F3600.000 ; move to first infill point
G1 X159.320 Y155.982 E1.89133 F1800.000 ; infill
G1 X159.239 Y155.982 F3600.000 ; move to first infill point
G1 X159.992 Y156.735 E1.89564 F1800.000 ; infill
G1 X159.911 Y156.735 F3600.000 ; move to first infill point
G1 X159.158 Y155.982 E1.89995 F1800.000 ; infill
G1 X159.077 Y155.982 F3600.000 ; move to first infill point
G1 X159.830 Y156.735 E1.90426 F1800.000 ; infill
G1 X159.749 Y156.735 F3600.000 ; move to first infill point
G1 X158.995 Y155.982 E1.90856 F1800.000 ; infill
G1 X158.914 Y155.982 F3600.000 ; move to first infill point
G1 X159.667 Y156.735 E1.91287 F1800.000 ; infill
G1 X159.586 Y156.735 F3600.000 ; move to first infill point
G1 X158.833 Y155.982 E1.91718 F1800.000 ; infill
G1 X158.752 Y155.982 F3600.000 ; move to first infill point
G1 X159.505 Y156.735 E1.92149 F1800.000 ; infill
G1 X159.424 Y156.735 F3600.000 ; move to first infill point
G1 X158.671 Y155.982 E1.92580 F1800.000 ; infill
G1 X158.590 Y155.982 F3600.000 ; move to first infill point
G1 X159.343 Y156.735 E1.93011 F1800.000 ; infill
G1 X159.262 Y156.735 F3600.000 ; move to first infill point
G1 X158.509 Y155.982 E1.93442 F1800.000 ; infill
G1 X158.428 Y155.982 F3600.000 ; move to first infill point
G1 X159.181 Y156.735 E1.93872 F1800.000 ; infill
G1 X159.100 Y156.735 F3600.000 ; move to first infill point
G1 X158.347 Y155.982 E1.94303 F1800.000 ; infill
G1 X158.265 Y155.982 F3600.000 ; move to first infill point
G1 X159.019 Y156.735 E1.94734 F1800.000 ; infill
G1 X158.937 Y156.735 F3600.000 ; move to first infill point
G1 X158.184 Y155.982 E1.95165 F1800.000 ; infill
G1 X158.103 Y155.982 F3600.000 ; move to first infill point
G1 X158.856 Y156.735 E1.95596 F1800.000 ; infill
G1 X158.775 Y156.735 F3600.000 ; move to first infill point
G1 X158.022 Y155.982 E1.96027 F1800.000 ; infill
G1 X157.941 Y155.982 F3600.000 ; move to first infill point
G1 X158.694 Y156.735 E1.96458 F1800.000 ; infill
G1 X158.613 Y156.735 F3600.000 ; move to first infill point
G1 X157.860 Y155.982 E1.96889 F1800.000 ; infill
G1 X157.779 Y155.982 F3600.000 ; move to first infill point
G1 X158.532 Y156.735 E1.97319 F1800.000 ; infill
G1 X158.451 Y156.735 F3600.000 ; move to first infill point
G1 X157.698 Y155.982 E1.97750 F1800.000 ; infill
G1 X157.617 Y155.982 F3600.000 ; move to first infill point
G1 X158.370 Y156.735 E1.98181 F1800.000 ; infill
