; generated by Slic3r 1.2.9 on 2016-01-20 at 23:00:27

; external perimeters extrusion width = 0.40mm
; perimeters extrusion width = 0.67mm
; infill extrusion width = 0.67mm
; solid infill extrusion width = 0.67mm
; top infill extrusion width = 0.67mm

M107 ; disable fan
M104 S220 ; set temperature
M80 ; Power supply on
G28 ; home all axes

M109 S220 ; wait for temperature to be reached
G21 ; set units to millimeters
G90 ; use absolute coordinates
M82 ; use absolute distances for extrusion
G92 E0 ; reset extrusion distance
G1 E-1.00000 F480.00000 ; retract
G92 E0 ; reset extrusion distance
G1 Z0.200 F3600.000 ; move to next layer (0)
G1 X126.865 Y89.176 F3600.000 ; move to first skirt point
G1 E1.00000 F480.00000 ; unretract
G1 X128.600 Y87.803 E1.00891 F2100.000 ; skirt
G1 X131.500 Y87.079 E1.02094 ; skirt
G1 X135.500 Y87.079 E1.03705 ; skirt
G1 X137.046 Y87.276 E1.04333 ; skirt
G1 X201.538 Y103.965 E1.31155 F2100.000 ; skirt
G1 X202.073 Y104.117 E1.31379 ; skirt
G1 X202.788 Y104.360 E1.31683 ; skirt
G1 X203.163 Y104.509 E1.31845 ; skirt
G1 X204.190 Y104.992 E1.32302 ; skirt
G1 X204.861 Y105.375 E1.32613 ; skirt
G1 X205.808 Y106.019 E1.33074 ; skirt
G1 X206.692 Y106.750 E1.33536 ; skirt
G1 X207.500 Y107.558 E1.33996 ; skirt
G1 X208.231 Y108.442 E1.34458 ; skirt
G1 X208.875 Y109.389 E1.34919 ; skirt
G1 X209.258 Y110.060 E1.35230 ; skirt
G1 X209.591 Y110.740 E1.35535 ; skirt
G1 X209.890 Y111.462 E1.35850 ; skirt
G1 X210.133 Y112.176 E1.36154 ; skirt
G1 X210.414 Y113.268 E1.36608 ; skirt
G1 X210.548 Y114.031 E1.36920 ; skirt
G1 X210.633 Y114.800 E1.37231 ; skirt
G1 X210.668 Y115.554 E1.37535 ; skirt
G1 X210.671 Y189.750 E1.67409 ; skirt
G1 X210.656 Y190.323 E1.67640 ; skirt
G1 X210.598 Y191.075 E1.67944 ; skirt
G1 X210.489 Y191.841 E1.68255 ; skirt
G1 X210.331 Y192.600 E1.68567 ; skirt
G1 X210.133 Y193.323 E1.68869 ; skirt
G1 X209.890 Y194.038 E1.69173 ; skirt
G1 X209.741 Y194.413 E1.69336 ; skirt
G1 X209.429 Y195.104 E1.69641 ; skirt
G1 X209.067 Y195.787 E1.69952 ; skirt
G1 X208.671 Y196.433 E1.70257 ; skirt
G1 X208.231 Y197.058 E1.70565 ; skirt
G1 X207.749 Y197.660 E1.70875 ; skirt
G1 X207.238 Y198.221 E1.71181 ; skirt
G1 X206.692 Y198.750 E1.71487 ; skirt
G1 X206.106 Y199.250 E1.71797 ; skirt
G1 X205.495 Y199.708 E1.72105 ; skirt
G1 X204.861 Y200.125 E1.72410 ; skirt
G1 X203.854 Y200.679 E1.72873 ; skirt
G1 X203.164 Y200.991 E1.73178 ; skirt
G1 X202.788 Y201.140 E1.73341 ; skirt
G1 X201.711 Y201.488 E1.73796 ; skirt
G1 X200.677 Y201.725 E1.74223 ; skirt
G1 X136.553 Y212.831 E2.00426 ; skirt
G1 X135.500 Y212.921 E2.00852 ; skirt
G1 X131.500 Y212.921 E2.02463 ; skirt
G1 X129.323 Y212.524 E2.03354 ; skirt
G1 X127.426 Y211.385 E2.04245 ; skirt
G1 X126.053 Y209.650 E2.05136 ; skirt
G1 X125.329 Y206.750 E2.06339 ; skirt
G1 X125.329 Y93.250 E2.52038 ; skirt
G1 X125.726 Y91.073 E2.52929 ; skirt
G1 X126.834 Y89.227 E2.53796 ; skirt
G1 X126.885 Y89.258 F3600.000 ; move to first skirt point
G1 X126.921 Y89.198 E2.53825 F2100.000 ; skirt
G1 X128.654 Y87.839 E2.54711 ; skirt
G1 X131.500 Y87.136 E2.55892 ; skirt
G1 X135.500 Y87.136 E2.57502 ; skirt
G1 X137.032 Y87.331 E2.58124 ; skirt
G1 X201.524 Y104.020 E2.84946 F2100.000 ; skirt
G1 X202.057 Y104.172 E2.85169 ; skirt
G1 X202.769 Y104.414 E2.85472 ; skirt
G1 X203.141 Y104.561 E2.85633 ; skirt
G1 X204.164 Y105.043 E2.86089 ; skirt
G1 X204.832 Y105.424 E2.86398 ; skirt
G1 X205.773 Y106.064 E2.86856 ; skirt
G1 X206.654 Y106.793 E2.87317 ; skirt
G1 X207.457 Y107.596 E2.87774 ; skirt
G1 X208.186 Y108.477 E2.88235 ; skirt
G1 X208.826 Y109.418 E2.88693 ; skirt
G1 X209.207 Y110.086 E2.89002 ; skirt
G1 X209.539 Y110.763 E2.89306 ; skirt
G1 X209.836 Y111.481 E2.89619 ; skirt
G1 X210.078 Y112.192 E2.89921 ; skirt
G1 X210.358 Y113.281 E2.90374 ; skirt
G1 X210.492 Y114.040 E2.90684 ; skirt
G1 X210.576 Y114.805 E2.90994 ; skirt
G1 X210.611 Y115.555 E2.91297 ; skirt
G1 X210.614 Y189.750 E3.21170 ; skirt
G1 X210.599 Y190.322 E3.21400 ; skirt
G1 X210.541 Y191.070 E3.21703 ; skirt
G1 X210.433 Y191.832 E3.22012 ; skirt
G1 X210.275 Y192.587 E3.22323 ; skirt
G1 X210.078 Y193.307 E3.22624 ; skirt
G1 X209.836 Y194.019 E3.22926 ; skirt
G1 X209.689 Y194.390 E3.23087 ; skirt
G1 X209.378 Y195.078 E3.23391 ; skirt
G1 X209.018 Y195.758 E3.23701 ; skirt
G1 X208.623 Y196.401 E3.24004 ; skirt
G1 X208.186 Y197.023 E3.24311 ; skirt
G1 X207.706 Y197.622 E3.24620 ; skirt
G1 X207.197 Y198.180 E3.24924 ; skirt
G1 X206.654 Y198.707 E3.25229 ; skirt
G1 X206.071 Y199.205 E3.25537 ; skirt
G1 X205.463 Y199.661 E3.25843 ; skirt
G1 X204.832 Y200.076 E3.26147 ; skirt
G1 X203.828 Y200.628 E3.26609 ; skirt
G1 X203.141 Y200.939 E3.26912 ; skirt
G1 X202.769 Y201.086 E3.27074 ; skirt
G1 X201.695 Y201.433 E3.27528 ; skirt
G1 X200.667 Y201.668 E3.27952 ; skirt
G1 X136.543 Y212.774 E3.54155 ; skirt
G1 X135.500 Y212.864 E3.54577 ; skirt
G1 X131.500 Y212.864 E3.56188 ; skirt
G1 X129.333 Y212.467 E3.57074 ; skirt
G1 X127.448 Y211.329 E3.57961 ; skirt
G1 X126.089 Y209.596 E3.58848 ; skirt
G1 X125.386 Y206.750 E3.60028 ; skirt
G1 X125.386 Y93.250 E4.05728 ; skirt
G1 X125.783 Y91.083 E4.06615 ; skirt
G1 X126.854 Y89.309 E4.07449 ; skirt
G1 X126.905 Y89.340 F3600.000 ; move to first skirt point
G1 X126.978 Y89.220 E4.07506 F2100.000 ; skirt
G1 X128.708 Y87.875 E4.08388 ; skirt
G1 X131.500 Y87.193 E4.09545 ; skirt
G1 X135.500 Y87.193 E4.11156 ; skirt
G1 X137.017 Y87.386 E4.11772 ; skirt
G1 X201.509 Y104.075 E4.38594 F2100.000 ; skirt
G1 X202.041 Y104.227 E4.38817 ; skirt
G1 X203.118 Y104.614 E4.39277 ; skirt
G1 X204.138 Y105.094 E4.39731 ; skirt
G1 X204.803 Y105.473 E4.40040 ; skirt
G1 X205.738 Y106.109 E4.40495 ; skirt
G1 X206.616 Y106.836 E4.40954 ; skirt
G1 X207.414 Y107.634 E4.41408 ; skirt
G1 X208.141 Y108.512 E4.41867 ; skirt
G1 X208.777 Y109.447 E4.42322 ; skirt
G1 X209.156 Y110.112 E4.42631 ; skirt
G1 X209.486 Y110.786 E4.42933 ; skirt
G1 X209.782 Y111.501 E4.43244 ; skirt
G1 X210.023 Y112.208 E4.43545 ; skirt
G1 X210.303 Y113.293 E4.43996 ; skirt
G1 X210.435 Y114.049 E4.44305 ; skirt
G1 X210.519 Y114.810 E4.44614 ; skirt
G1 X210.554 Y115.557 E4.44915 ; skirt
G1 X210.557 Y189.750 E4.74788 ; skirt
G1 X210.542 Y190.320 E4.75017 ; skirt
G1 X210.484 Y191.065 E4.75318 ; skirt
G1 X210.376 Y191.823 E4.75626 ; skirt
G1 X210.220 Y192.575 E4.75935 ; skirt
G1 X210.023 Y193.292 E4.76235 ; skirt
G1 X209.637 Y194.368 E4.76695 ; skirt
G1 X209.327 Y195.052 E4.76997 ; skirt
G1 X208.969 Y195.729 E4.77306 ; skirt
G1 X208.576 Y196.369 E4.77608 ; skirt
G1 X208.141 Y196.988 E4.77913 ; skirt
G1 X207.663 Y197.584 E4.78221 ; skirt
G1 X207.157 Y198.140 E4.78523 ; skirt
G1 X206.616 Y198.664 E4.78826 ; skirt
G1 X206.036 Y199.160 E4.79134 ; skirt
G1 X205.431 Y199.614 E4.79438 ; skirt
G1 X204.803 Y200.027 E4.79741 ; skirt
G1 X203.802 Y200.577 E4.80201 ; skirt
G1 X202.749 Y201.032 E4.80663 ; skirt
G1 X201.679 Y201.378 E4.81115 ; skirt
G1 X200.658 Y201.612 E4.81537 ; skirt
G1 X136.534 Y212.718 E5.07741 ; skirt
G1 X135.500 Y212.807 E5.08158 ; skirt
G1 X131.500 Y212.807 E5.09769 ; skirt
G1 X129.344 Y212.410 E5.10651 ; skirt
G1 X127.470 Y211.272 E5.11534 ; skirt
G1 X126.125 Y209.542 E5.12417 ; skirt
G1 X125.443 Y206.750 E5.13574 ; skirt
G1 X125.443 Y93.250 E5.59273 ; skirt
G1 X125.840 Y91.094 E5.60156 ; skirt
G1 X126.874 Y89.392 E5.60958 ; skirt
G1 E4.60958 F480.00000 ; retract
G92 E0 ; reset extrusion distance
G1 X149.908 Y188.928 F3600.000 ; move to first perimeter point
G1 E1.00000 F480.00000 ; unretract
G1 X150.500 Y188.834 E1.00241 F450.000 ; perimeter
G1 X151.092 Y188.928 E1.00483 ; perimeter
G1 X151.626 Y189.200 E1.00724 ; perimeter
G1 X152.050 Y189.624 E1.00966 ; perimeter
G1 X152.322 Y190.158 E1.01207 ; perimeter
G1 X152.416 Y190.750 E1.01448 ; perimeter
G1 X152.322 Y191.342 E1.01690 ; perimeter
G1 X152.050 Y191.876 E1.01931 ; perimeter
G1 X151.626 Y192.300 E1.02173 ; perimeter
G1 X151.092 Y192.572 E1.02414 ; perimeter
G1 X150.500 Y192.666 E1.02655 ; perimeter
G1 X149.908 Y192.572 E1.02897 ; perimeter
G1 X149.374 Y192.300 E1.03138 ; perimeter
G1 X148.950 Y191.876 E1.03379 ; perimeter
G1 X148.678 Y191.342 E1.03621 ; perimeter
G1 X148.584 Y190.750 E1.03862 ; perimeter
G1 X148.678 Y190.158 E1.04104 ; perimeter
G1 X148.950 Y189.624 E1.04345 ; perimeter
G1 X149.374 Y189.200 E1.04586 ; perimeter
G1 X149.854 Y188.955 E1.04804 ; perimeter
G1 X149.880 Y189.006 F3600.000 ; move to first perimeter point
G1 X149.926 Y188.983 E1.04824 F450.000 ; perimeter
G1 X150.500 Y188.892 E1.05058 F450.000 ; perimeter
G1 X151.074 Y188.983 E1.05292 ; perimeter
G1 X151.592 Y189.247 E1.05526 ; perimeter
G1 X152.003 Y189.658 E1.05761 ; perimeter
G1 X152.267 Y190.176 E1.05995 ; perimeter
G1 X152.358 Y190.750 E1.06229 ; perimeter
G1 X152.267 Y191.324 E1.06463 ; perimeter
G1 X152.003 Y191.842 E1.06697 ; perimeter
G1 X151.592 Y192.253 E1.06931 ; perimeter
G1 X151.074 Y192.517 E1.07165 ; perimeter
G1 X150.500 Y192.608 E1.07399 ; perimeter
G1 X149.926 Y192.517 E1.07633 ; perimeter
G1 X149.408 Y192.253 E1.07868 ; perimeter
G1 X148.997 Y191.842 E1.08102 ; perimeter
G1 X148.733 Y191.324 E1.08336 ; perimeter
G1 X148.642 Y190.750 E1.08570 ; perimeter
G1 X148.733 Y190.176 E1.08804 ; perimeter
G1 X148.997 Y189.658 E1.09038 ; perimeter
G1 X149.408 Y189.247 E1.09272 ; perimeter
G1 X149.827 Y189.033 E1.09462 ; perimeter
G1 X149.853 Y189.084 F3600.000 ; move to first perimeter point
G1 X149.944 Y189.038 E1.09503 F450.000 ; perimeter
G1 X150.500 Y188.949 E1.09730 F450.000 ; perimeter
G1 X151.056 Y189.038 E1.09956 ; perimeter
G1 X151.558 Y189.293 E1.10183 ; perimeter
G1 X151.957 Y189.692 E1.10410 ; perimeter
G1 X152.212 Y190.194 E1.10637 ; perimeter
G1 X152.301 Y190.750 E1.10864 ; perimeter
G1 X152.212 Y191.306 E1.11091 ; perimeter
G1 X151.957 Y191.808 E1.11317 ; perimeter
G1 X151.558 Y192.207 E1.11544 ; perimeter
G1 X151.056 Y192.462 E1.11771 ; perimeter
G1 X150.500 Y192.551 E1.11998 ; perimeter
G1 X149.944 Y192.462 E1.12225 ; perimeter
G1 X149.442 Y192.207 E1.12451 ; perimeter
G1 X149.043 Y191.808 E1.12678 ; perimeter
G1 X148.787 Y191.306 E1.12905 ; perimeter
G1 X148.699 Y190.750 E1.13132 ; perimeter
G1 X148.788 Y190.194 E1.13359 ; perimeter
G1 X149.043 Y189.692 E1.13586 ; perimeter
G1 X149.442 Y189.293 E1.13812 ; perimeter
G1 X149.799 Y189.111 E1.13974 ; perimeter
G1 X149.858 Y188.982 F3600.000 ; move inwards before travel
G1 X159.834 Y183.914 F3600.000 ; move to first perimeter point
G1 X161.448 Y180.183 E1.15611 F900.000 ; perimeter
G1 X168.012 Y167.300 E1.21433 ; perimeter
G1 X175.373 Y154.854 E1.27255 ; perimeter
G1 X175.700 Y154.373 E1.27489 F900.000 ; perimeter
G1 X177.537 Y157.479 E1.28942 ; perimeter
G1 X184.386 Y170.922 E1.35016 ; perimeter
G1 X190.008 Y183.914 E1.40716 ; perimeter
G1 X159.894 Y183.914 E1.52842 ; perimeter
G1 X159.920 Y183.857 F3600.000 ; move to first perimeter point
G1 X161.500 Y180.207 E1.54443 F900.000 ; perimeter
G1 X168.062 Y167.327 E1.60263 ; perimeter
G1 X175.422 Y154.885 E1.66084 ; perimeter
G1 X175.697 Y154.480 E1.66281 F900.000 ; perimeter
G1 X177.487 Y157.506 E1.67697 ; perimeter
G1 X184.334 Y170.946 E1.73770 ; perimeter
G1 X189.921 Y183.857 E1.79434 ; perimeter
G1 X159.980 Y183.857 E1.91489 ; perimeter
G1 X160.007 Y183.800 F3600.000 ; move to first perimeter point
G1 X161.552 Y180.232 E1.93055 F450.000 ; perimeter
G1 X168.112 Y167.355 E1.98874 ; perimeter
G1 X175.470 Y154.915 E2.04693 ; perimeter
G1 X175.693 Y154.586 E2.04853 F450.000 ; perimeter
G1 X177.437 Y157.534 E2.06232 ; perimeter
G1 X184.282 Y170.971 E2.12304 ; perimeter
G1 X189.834 Y183.800 E2.17932 ; perimeter
G1 X160.067 Y183.800 E2.29918 ; perimeter
G1 X159.622 Y183.692 F3600.000 ; move inwards before travel
G1 E1.29918 F480.00000 ; retract
G92 E0 ; reset extrusion distance
G1 X175.539 Y148.413 F3600.000 ; move to first perimeter point
G1 E1.00000 F480.00000 ; unretract
G1 X171.463 Y141.521 E1.03224 F900.000 ; perimeter
G1 X164.614 Y128.078 E1.09298 ; perimeter
G1 X161.156 Y120.086 E1.12805 ; perimeter
G1 X190.249 Y120.086 E1.24519 F900.000 ; perimeter
G1 X187.552 Y126.317 E1.27252 ; perimeter
G1 X180.988 Y139.200 E1.33074 ; perimeter
G1 X175.570 Y148.361 E1.37360 ; perimeter
G1 X175.539 Y148.301 F3600.000 ; move to first perimeter point
G1 X171.513 Y141.494 E1.40544 F900.000 ; perimeter
G1 X164.666 Y128.054 E1.46617 ; perimeter
G1 X161.243 Y120.143 E1.50088 ; perimeter
G1 X190.162 Y120.143 E1.61731 F900.000 ; perimeter
G1 X187.500 Y126.293 E1.64430 ; perimeter
G1 X180.938 Y139.173 E1.70250 ; perimeter
G1 X175.570 Y148.249 E1.74496 ; perimeter
G1 X175.539 Y148.189 F3600.000 ; move to first perimeter point
G1 X171.563 Y141.466 E1.77640 F450.000 ; perimeter
G1 X164.718 Y128.029 E1.83712 ; perimeter
G1 X161.330 Y120.200 E1.87147 ; perimeter
G1 X190.075 Y120.200 E1.98721 F450.000 ; perimeter
G1 X187.448 Y126.268 E2.01383 ; perimeter
G1 X180.888 Y139.145 E2.07202 ; perimeter
G1 X175.570 Y148.137 E2.11408 ; perimeter
G1 X175.233 Y148.447 F3600.000 ; move inwards before travel
G1 E1.11408 F480.00000 ; retract
G92 E0 ; reset extrusion distance
G1 X151.626 Y110.800 F3600.000 ; move to first perimeter point
G1 E1.00000 F480.00000 ; unretract
G1 X151.092 Y111.072 E1.00241 F450.000 ; perimeter
G1 X150.500 Y111.166 E1.00483 ; perimeter
G1 X149.908 Y111.072 E1.00724 ; perimeter
G1 X149.374 Y110.800 E1.00966 ; perimeter
G1 X148.950 Y110.376 E1.01207 ; perimeter
G1 X148.678 Y109.842 E1.01448 ; perimeter
G1 X148.584 Y109.250 E1.01690 ; perimeter
G1 X148.678 Y108.658 E1.01931 ; perimeter
G1 X148.950 Y108.124 E1.02172 ; perimeter
G1 X149.374 Y107.700 E1.02414 ; perimeter
G1 X149.908 Y107.428 E1.02655 ; perimeter
G1 X150.500 Y107.334 E1.02897 F450.000 ; perimeter
G1 X151.092 Y107.428 E1.03138 ; perimeter
G1 X151.626 Y107.700 E1.03379 ; perimeter
G1 X152.050 Y108.124 E1.03621 ; perimeter
G1 X152.322 Y108.658 E1.03862 ; perimeter
G1 X152.416 Y109.250 E1.04104 ; perimeter
G1 X152.322 Y109.842 E1.04345 ; perimeter
G1 X152.050 Y110.376 E1.04586 ; perimeter
G1 X151.669 Y110.758 E1.04804 ; perimeter
G1 X151.628 Y110.717 F3600.000 ; move to first perimeter point
G1 X151.592 Y110.754 E1.04824 F450.000 ; perimeter
G1 X151.074 Y111.017 E1.05058 ; perimeter
G1 X150.500 Y111.108 E1.05292 ; perimeter
G1 X149.926 Y111.017 E1.05526 ; perimeter
G1 X149.408 Y110.754 E1.05761 ; perimeter
G1 X148.997 Y110.342 E1.05995 ; perimeter
G1 X148.733 Y109.824 E1.06229 ; perimeter
G1 X148.642 Y109.250 E1.06463 ; perimeter
G1 X148.733 Y108.676 E1.06697 ; perimeter
G1 X148.997 Y108.158 E1.06931 ; perimeter
G1 X149.408 Y107.746 E1.07165 ; perimeter
G1 X149.926 Y107.483 E1.07399 ; perimeter
G1 X150.500 Y107.392 E1.07633 F450.000 ; perimeter
G1 X151.074 Y107.483 E1.07868 ; perimeter
G1 X151.592 Y107.746 E1.08102 ; perimeter
G1 X152.003 Y108.158 E1.08336 ; perimeter
G1 X152.267 Y108.676 E1.08570 ; perimeter
G1 X152.358 Y109.250 E1.08804 ; perimeter
G1 X152.267 Y109.824 E1.09038 ; perimeter
G1 X152.003 Y110.342 E1.09272 ; perimeter
G1 X151.671 Y110.675 E1.09462 ; perimeter
G1 X151.630 Y110.635 F3600.000 ; move to first perimeter point
G1 X151.558 Y110.707 E1.09503 F450.000 ; perimeter
G1 X151.056 Y110.962 E1.09729 ; perimeter
G1 X150.500 Y111.051 E1.09956 ; perimeter
G1 X149.944 Y110.962 E1.10183 ; perimeter
G1 X149.442 Y110.707 E1.10410 ; perimeter
G1 X149.043 Y110.308 E1.10637 ; perimeter
G1 X148.787 Y109.806 E1.10864 ; perimeter
G1 X148.699 Y109.250 E1.11090 ; perimeter
G1 X148.787 Y108.694 E1.11317 ; perimeter
G1 X149.043 Y108.192 E1.11544 ; perimeter
G1 X149.442 Y107.793 E1.11771 ; perimeter
G1 X149.944 Y107.538 E1.11998 ; perimeter
G1 X150.500 Y107.449 E1.12225 F450.000 ; perimeter
G1 X151.056 Y107.538 E1.12451 ; perimeter
G1 X151.558 Y107.793 E1.12678 ; perimeter
G1 X151.957 Y108.192 E1.12905 ; perimeter
G1 X152.212 Y108.694 E1.13132 ; perimeter
G1 X152.301 Y109.250 E1.13359 ; perimeter
G1 X152.212 Y109.806 E1.13586 ; perimeter
G1 X151.957 Y110.308 E1.13812 ; perimeter
G1 X151.673 Y110.592 E1.13974 ; perimeter
G1 X151.657 Y110.733 F3600.000 ; move inwards before travel
G1 X151.673 Y120.086 F3600.000 ; move to first perimeter point
G1 X152.124 Y120.086 E1.14156 F900.000 ; perimeter
G1 X161.376 Y132.014 E1.20234 ; perimeter
