; generated by Slic3r 1.2.9 on 2016-03-28 at 15:43:09

; external perimeters extrusion width = 0.40mm
; perimeters extrusion width = 0.67mm
; infill extrusion width = 0.67mm
; solid infill extrusion width = 0.67mm
; top infill extrusion width = 0.67mm

M107 ; disable fan
M104 S220 ; set temperature
M80 ; Power supply on
G28 ; home all axes

M109 S220 ; wait for temperature to be reached
G21 ; set units to millimeters
G90 ; use absolute coordinates
M82 ; use absolute distances for extrusion
G92 E0 ; reset extrusion distance
G1 E-1.00000 F480.00000 ; retract
G92 E0 ; reset extrusion distance
G1 Z0.200 F6600.000 ; move to next layer (0)
G1 X196.443 Y106.196 F6600.000 ; move to first skirt point
G1 E1.00000 F480.00000 ; unretract
G1 X197.869 Y104.303 E1.05970 F2100.000 ; skirt
G1 X199.840 Y102.987 E1.11939 ; skirt
G1 X202.724 Y102.372 E1.19367 ; skirt
G1 X222.740 Y102.372 E1.69783 ; skirt
G1 X273.791 Y102.485 E2.98372 F2100.000 ; skirt
G1 X274.693 Y102.545 E3.00648 ; skirt
G1 X274.828 Y102.563 E3.00992 ; skirt
G1 X276.611 Y103.040 E3.05641 ; skirt
G1 X276.732 Y103.090 E3.05970 ; skirt
G1 X278.330 Y104.013 E3.10620 ; skirt
G1 X278.434 Y104.093 E3.10949 ; skirt
G1 X279.739 Y105.398 E3.15597 ; skirt
G1 X279.819 Y105.502 E3.15927 ; skirt
G1 X280.742 Y107.100 E3.20576 ; skirt
G1 X280.792 Y107.221 E3.20905 ; skirt
G1 X281.269 Y109.004 E3.25555 ; skirt
G1 X281.347 Y110.056 E3.28213 ; skirt
G1 X281.347 Y122.556 E3.59698 ; skirt
G1 X281.306 Y123.313 E3.61606 ; skirt
G1 X268.277 Y215.546 E5.96233 ; skirt
G1 X267.557 Y217.804 E6.02202 ; skirt
G1 X266.131 Y219.697 E6.08172 ; skirt
G1 X264.160 Y221.013 E6.14142 ; skirt
G1 X261.276 Y221.628 E6.21569 ; skirt
G1 X241.260 Y221.628 E6.71985 ; skirt
G1 X190.209 Y221.515 E8.00575 ; skirt
G1 X189.172 Y221.437 E8.03194 ; skirt
G1 X187.390 Y220.960 E8.07840 ; skirt
G1 X187.269 Y220.910 E8.08171 ; skirt
G1 X185.670 Y219.986 E8.12822 ; skirt
G1 X185.566 Y219.907 E8.13151 ; skirt
G1 X184.261 Y218.603 E8.17797 ; skirt
G1 X184.181 Y218.498 E8.18129 ; skirt
G1 X183.258 Y216.900 E8.22778 ; skirt
G1 X183.208 Y216.779 E8.23107 ; skirt
G1 X182.731 Y214.996 E8.27757 ; skirt
G1 X182.713 Y214.861 E8.28101 ; skirt
G1 X182.653 Y213.944 E8.30415 ; skirt
G1 X182.653 Y201.444 E8.61901 ; skirt
G1 X182.694 Y200.686 E8.63811 ; skirt
G1 X195.723 Y108.454 E10.98435 ; skirt
G1 X196.425 Y106.253 E11.04253 ; skirt
G1 X196.769 Y106.365 F6600.000 ; move to first skirt point
G1 X196.788 Y106.307 E11.04405 F2100.000 ; skirt
G1 X198.201 Y104.482 E11.10221 ; skirt
G1 X200.150 Y103.243 E11.16037 ; skirt
G1 X202.724 Y102.729 E11.22650 ; skirt
G1 X222.739 Y102.729 E11.73063 ; skirt
G1 X273.790 Y102.842 E13.01653 F2100.000 ; skirt
G1 X274.646 Y102.899 E13.03813 ; skirt
G1 X274.781 Y102.917 E13.04157 ; skirt
G1 X276.474 Y103.370 E13.08571 ; skirt
G1 X276.595 Y103.420 E13.08900 ; skirt
G1 X278.113 Y104.297 E13.13315 ; skirt
G1 X278.217 Y104.376 E13.13644 ; skirt
G1 X279.456 Y105.615 E13.18058 ; skirt
G1 X279.535 Y105.719 E13.18387 ; skirt
G1 X280.412 Y107.237 E13.22802 ; skirt
G1 X280.462 Y107.358 E13.23131 ; skirt
G1 X280.915 Y109.051 E13.27546 ; skirt
G1 X280.990 Y110.056 E13.30086 ; skirt
G1 X280.990 Y122.556 E13.61572 ; skirt
G1 X280.951 Y123.275 E13.63383 ; skirt
G1 X267.924 Y215.496 E15.97980 ; skirt
G1 X267.212 Y217.693 E16.03795 ; skirt
G1 X265.799 Y219.518 E16.09611 ; skirt
G1 X263.850 Y220.757 E16.15427 ; skirt
G1 X261.276 Y221.271 E16.22040 ; skirt
G1 X241.261 Y221.271 E16.72453 ; skirt
G1 X190.210 Y221.158 E18.01043 ; skirt
G1 X189.218 Y221.083 E18.03547 ; skirt
G1 X187.527 Y220.630 E18.07958 ; skirt
G1 X187.405 Y220.580 E18.08289 ; skirt
G1 X185.887 Y219.703 E18.12705 ; skirt
G1 X185.783 Y219.624 E18.13034 ; skirt
G1 X184.545 Y218.385 E18.17446 ; skirt
G1 X184.465 Y218.281 E18.17777 ; skirt
G1 X183.588 Y216.763 E18.22192 ; skirt
G1 X183.538 Y216.642 E18.22521 ; skirt
G1 X183.085 Y214.949 E18.26935 ; skirt
G1 X183.067 Y214.814 E18.27279 ; skirt
G1 X183.010 Y213.944 E18.29476 ; skirt
G1 X183.010 Y201.444 E18.60962 ; skirt
G1 X183.049 Y200.724 E18.62776 ; skirt
G1 X196.076 Y108.504 E20.97370 ; skirt
G1 X196.751 Y106.422 E21.02882 ; skirt
G1 X197.095 Y106.535 F6600.000 ; move to first skirt point
G1 X197.132 Y106.420 E21.03186 F2100.000 ; skirt
G1 X198.533 Y104.664 E21.08844 ; skirt
G1 X200.457 Y103.505 E21.14502 ; skirt
G1 X202.724 Y103.087 E21.20310 ; skirt
G1 X222.738 Y103.087 E21.70722 ; skirt
G1 X273.790 Y103.199 E22.99311 F2100.000 ; skirt
G1 X274.600 Y103.253 E23.01357 ; skirt
G1 X274.735 Y103.271 E23.01700 ; skirt
G1 X276.338 Y103.700 E23.05879 ; skirt
G1 X276.458 Y103.750 E23.06208 ; skirt
G1 X277.896 Y104.580 E23.10389 ; skirt
G1 X277.999 Y104.659 E23.10717 ; skirt
G1 X279.175 Y105.837 E23.14909 ; skirt
G1 X279.252 Y105.936 E23.15226 ; skirt
G1 X280.082 Y107.374 E23.19406 ; skirt
G1 X280.132 Y107.494 E23.19735 ; skirt
G1 X280.561 Y109.097 E23.23915 ; skirt
G1 X280.633 Y110.056 E23.26338 ; skirt
G1 X280.633 Y122.556 E23.57823 ; skirt
G1 X280.596 Y123.237 E23.59538 ; skirt
G1 X267.570 Y215.446 E25.94104 ; skirt
G1 X266.868 Y217.580 E25.99762 ; skirt
G1 X265.467 Y219.336 E26.05420 ; skirt
G1 X263.543 Y220.495 E26.11078 ; skirt
G1 X261.276 Y220.913 E26.16886 ; skirt
G1 X241.262 Y220.913 E26.67298 ; skirt
G1 X190.210 Y220.801 E27.95887 ; skirt
G1 X189.265 Y220.729 E27.98276 ; skirt
G1 X187.663 Y220.300 E28.02452 ; skirt
G1 X187.542 Y220.250 E28.02783 ; skirt
G1 X186.104 Y219.420 E28.06964 ; skirt
G1 X186.001 Y219.340 E28.07293 ; skirt
G1 X184.828 Y218.168 E28.11470 ; skirt
G1 X184.748 Y218.064 E28.11801 ; skirt
G1 X183.918 Y216.626 E28.15981 ; skirt
G1 X183.868 Y216.506 E28.16310 ; skirt
G1 X183.439 Y214.903 E28.20490 ; skirt
G1 X183.421 Y214.768 E28.20833 ; skirt
G1 X183.367 Y213.944 E28.22914 ; skirt
G1 X183.367 Y201.444 E28.54399 ; skirt
G1 X183.404 Y200.763 E28.56117 ; skirt
G1 X196.430 Y108.554 E30.90681 ; skirt
G1 X197.076 Y106.592 E30.95883 ; skirt
G1 E29.95883 F480.00000 ; retract
G92 E0 ; reset extrusion distance
G1 X260.719 Y138.715 F6600.000 ; move to first perimeter point
G1 E1.00000 F480.00000 ; unretract
G1 X260.719 Y213.999 E2.89627 F1800.000 ; perimeter
G1 X256.083 Y213.999 E3.01304 ; perimeter
G1 X256.083 Y201.999 E3.31530 ; perimeter
G1 X246.469 Y201.999 E3.55746 ; perimeter
G1 X246.469 Y213.999 E3.85972 ; perimeter
G1 X241.833 Y213.999 E3.97649 ; perimeter
G1 X241.832 Y126.514 E6.18009 ; perimeter
G1 X241.748 Y125.886 E6.19605 ; perimeter
G1 X241.492 Y125.273 E6.21279 ; perimeter
G1 X241.093 Y124.753 E6.22930 ; perimeter
G1 X240.560 Y124.340 E6.24629 ; perimeter
G1 X239.939 Y124.082 E6.26322 ; perimeter
G1 X239.312 Y123.999 E6.27916 ; perimeter
G1 X230.312 Y123.999 E6.50585 ; perimeter
G1 X229.903 Y123.946 E6.51623 ; perimeter
G1 X229.557 Y123.802 E6.52569 ; perimeter
G1 X229.259 Y123.573 E6.53514 ; perimeter
G1 X229.030 Y123.275 E6.54460 ; perimeter
G1 X228.886 Y122.929 E6.55406 ; perimeter
G1 X228.833 Y122.520 E6.56444 ; perimeter
G1 X228.833 Y110.113 E6.87694 ; perimeter
G1 X230.719 Y110.113 E6.92444 ; perimeter
G1 X230.719 Y120.113 E7.17632 ; perimeter
G1 X271.833 Y120.113 E8.21191 F1800.000 ; perimeter
G1 X271.833 Y110.113 E8.46380 ; perimeter
G1 X273.719 Y110.113 E8.51130 ; perimeter
G1 X273.719 Y122.520 E8.82379 ; perimeter
G1 X273.665 Y122.929 E8.83418 ; perimeter
G1 X273.521 Y123.275 E8.84363 ; perimeter
G1 X273.293 Y123.573 E8.85306 ; perimeter
G1 X272.989 Y123.804 E8.86270 ; perimeter
G1 X272.648 Y123.946 E8.87200 ; perimeter
G1 X272.239 Y123.999 E8.88238 ; perimeter
G1 X263.239 Y123.999 E9.10907 ; perimeter
G1 X262.612 Y124.082 E9.12501 ; perimeter
G1 X261.991 Y124.340 E9.14194 ; perimeter
G1 X261.458 Y124.753 E9.15893 ; perimeter
G1 X261.059 Y125.273 E9.17544 ; perimeter
G1 X260.803 Y125.886 E9.19218 ; perimeter
G1 X260.719 Y126.514 E9.20814 ; perimeter
G1 X260.719 Y138.655 E9.51396 ; perimeter
G1 X261.076 Y138.655 F6600.000 ; move to first perimeter point
G1 X261.076 Y214.356 E11.42073 F900.000 ; perimeter
G1 X255.726 Y214.356 E11.55549 ; perimeter
G1 X255.726 Y202.356 E11.85775 ; perimeter
G1 X246.826 Y202.356 E12.08192 ; perimeter
G1 X246.826 Y214.356 E12.38418 ; perimeter
G1 X241.476 Y214.356 E12.51894 ; perimeter
G1 X241.475 Y126.538 E14.73093 ; perimeter
G1 X241.400 Y125.980 E14.74511 ; perimeter
G1 X241.181 Y125.453 E14.75949 ; perimeter
G1 X240.838 Y125.007 E14.77366 ; perimeter
G1 X240.379 Y124.651 E14.78829 ; perimeter
G1 X239.846 Y124.430 E14.80283 ; perimeter
G1 X239.289 Y124.356 E14.81699 ; perimeter
G1 X230.289 Y124.356 E15.04368 ; perimeter
G1 X229.810 Y124.293 E15.05584 ; perimeter
G1 X229.376 Y124.114 E15.06767 ; perimeter
G1 X229.004 Y123.828 E15.07949 ; perimeter
G1 X228.718 Y123.456 E15.09131 ; perimeter
G1 X228.539 Y123.022 E15.10314 ; perimeter
G1 X228.476 Y122.543 E15.11530 ; perimeter
G1 X228.476 Y110.070 E15.42949 ; perimeter
G1 X228.517 Y109.907 E15.43371 ; perimeter
G1 X228.565 Y109.846 E15.43567 ; perimeter
G1 X228.698 Y109.768 E15.43956 ; perimeter
G1 X231.076 Y109.756 E15.49944 ; perimeter
G1 X231.076 Y119.756 E15.75132 ; perimeter
G1 X271.476 Y119.756 E16.76892 F900.000 ; perimeter
G1 X271.476 Y109.756 E17.02081 ; perimeter
G1 X273.762 Y109.756 E17.07841 ; perimeter
G1 X273.925 Y109.798 E17.08263 ; perimeter
G1 X274.034 Y109.907 E17.08652 ; perimeter
G1 X274.076 Y110.070 E17.09074 ; perimeter
G1 X274.076 Y122.543 E17.40493 ; perimeter
G1 X274.013 Y123.022 E17.41709 ; perimeter
G1 X273.833 Y123.456 E17.42891 ; perimeter
G1 X273.547 Y123.828 E17.44073 ; perimeter
G1 X273.168 Y124.116 E17.45273 ; perimeter
G1 X272.741 Y124.293 E17.46438 ; perimeter
G1 X272.262 Y124.356 E17.47654 ; perimeter
G1 X263.263 Y124.356 E17.70323 ; perimeter
G1 X262.705 Y124.430 E17.71739 ; perimeter
G1 X262.172 Y124.651 E17.73193 ; perimeter
G1 X261.713 Y125.007 E17.74656 ; perimeter
G1 X261.370 Y125.453 E17.76073 ; perimeter
G1 X261.151 Y125.980 E17.77511 ; perimeter
G1 X261.076 Y126.538 E17.78929 ; perimeter
G1 X261.076 Y138.595 E18.09299 ; perimeter
G1 X260.729 Y138.855 F6600.000 ; move inwards before travel
G1 E17.09299 F480.00000 ; retract
G92 E0 ; reset extrusion distance
G1 X271.685 Y120.321 F6600.000 ; move to first infill point
G1 E1.00000 F480.00000 ; unretract
G1 X273.511 Y122.147 E1.06516 F1800.000 ; infill
G1 X273.502 Y122.644 E1.07771 ; infill
G1 X271.179 Y120.321 E1.16060 ; infill
G1 X270.673 Y120.321 E1.17337 ; infill
G1 X273.411 Y123.059 E1.27107 ; infill
G1 X273.221 Y123.375 E1.28037 ; infill
G1 X270.167 Y120.321 E1.38935 ; infill
G1 X269.661 Y120.321 E1.40211 ; infill
G1 X272.950 Y123.611 E1.51948 ; infill
G1 X272.587 Y123.753 E1.52933 ; infill
G1 X269.155 Y120.321 E1.65179 ; infill
G1 X268.649 Y120.321 E1.66456 ; infill
G1 X272.120 Y123.792 E1.78839 ; infill
G1 X271.614 Y123.792 E1.80115 ; infill
G1 X268.144 Y120.321 E1.92498 ; infill
G1 X267.638 Y120.321 E1.93775 ; infill
G1 X271.108 Y123.792 E2.06158 ; infill
G1 X270.602 Y123.792 E2.07434 ; infill
G1 X267.132 Y120.321 E2.19818 ; infill
G1 X266.626 Y120.321 E2.21094 ; infill
G1 X270.096 Y123.792 E2.33477 ; infill
G1 X269.590 Y123.792 E2.34753 ; infill
G1 X266.120 Y120.321 E2.47137 ; infill
G1 X265.614 Y120.321 E2.48413 ; infill
G1 X269.085 Y123.792 E2.60796 ; infill
G1 X268.579 Y123.792 E2.62073 ; infill
G1 X265.108 Y120.321 E2.74456 ; infill
G1 X264.603 Y120.321 E2.75732 ; infill
G1 X268.073 Y123.792 E2.88115 ; infill
G1 X267.567 Y123.792 E2.89392 ; infill
G1 X264.097 Y120.321 E3.01775 ; infill
G1 X263.591 Y120.321 E3.03051 ; infill
G1 X267.061 Y123.792 E3.15434 ; infill
G1 X266.555 Y123.792 E3.16711 ; infill
G1 X263.085 Y120.321 E3.29094 ; infill
G1 X262.579 Y120.321 E3.30370 ; infill
G1 X266.049 Y123.792 E3.42754 ; infill
G1 X265.544 Y123.792 E3.44030 ; infill
G1 X262.073 Y120.321 E3.56413 ; infill
G1 X261.567 Y120.321 E3.57690 ; infill
G1 X265.038 Y123.792 E3.70073 ; infill
G1 X264.532 Y123.792 E3.71349 ; infill
G1 X261.062 Y120.321 E3.83732 ; infill
G1 X260.556 Y120.321 E3.85009 ; infill
G1 X264.026 Y123.792 E3.97392 ; infill
G1 X263.520 Y123.792 E3.98668 ; infill
G1 X260.050 Y120.321 E4.11051 ; infill
G1 X259.544 Y120.321 E4.12328 ; infill
G1 X263.047 Y123.824 E4.24828 ; infill
G1 X262.603 Y123.886 E4.25960 ; infill
G1 X259.038 Y120.321 E4.38679 ; infill
G1 X258.532 Y120.321 E4.39955 ; infill
G1 X262.245 Y124.034 E4.53205 ; infill
G1 X261.895 Y124.190 E4.54172 ; infill
G1 X258.026 Y120.321 E4.67976 ; infill
G1 X257.521 Y120.321 E4.69253 ; infill
G1 X261.610 Y124.411 E4.83845 ; infill
G1 X261.326 Y124.633 E4.84754 ; infill
G1 X257.015 Y120.321 E5.00139 ; infill
G1 X256.509 Y120.321 E5.01415 ; infill
G1 X261.107 Y124.919 E5.17821 ; infill
G1 X260.887 Y125.205 E5.18732 ; infill
G1 X256.003 Y120.321 E5.36159 ; infill
G1 X255.497 Y120.321 E5.37436 ; infill
G1 X260.738 Y125.562 E5.56138 ; infill
G1 X260.598 Y125.928 E5.57125 ; infill
G1 X254.991 Y120.321 E5.77131 ; infill
G1 X254.485 Y120.321 E5.78407 ; infill
G1 X260.538 Y126.373 E6.00003 ; infill
G1 X260.511 Y126.853 E6.01214 ; infill
G1 X253.980 Y120.321 E6.24520 ; infill
G1 X253.474 Y120.321 E6.25796 ; infill
G1 X260.511 Y127.359 E6.50908 ; infill
G1 X260.511 Y127.864 E6.52184 ; infill
G1 X252.968 Y120.321 E6.79100 ; infill
G1 X252.462 Y120.321 E6.80376 ; infill
G1 X260.511 Y128.370 E7.09098 ; infill
G1 X260.511 Y128.876 E7.10374 ; infill
G1 X251.956 Y120.321 E7.40900 ; infill
G1 X251.450 Y120.321 E7.42177 ; infill
G1 X260.511 Y129.382 E7.74508 ; infill
G1 X260.511 Y129.888 E7.75784 ; infill
G1 X250.944 Y120.321 E8.09920 ; infill
G1 X250.439 Y120.321 E8.11197 ; infill
G1 X260.511 Y130.394 E8.47138 ; infill
G1 X260.511 Y130.900 E8.48415 ; infill
G1 X249.933 Y120.321 E8.86161 ; infill
G1 X249.427 Y120.321 E8.87437 ; infill
G1 X260.511 Y131.405 E9.26989 ; infill
G1 X260.511 Y131.911 E9.28265 ; infill
G1 X248.921 Y120.321 E9.69622 ; infill
G1 X248.415 Y120.321 E9.70898 ; infill
G1 X260.511 Y132.417 E10.14059 ; infill
G1 X260.511 Y132.923 E10.15336 ; infill
G1 X247.909 Y120.321 E10.60302 ; infill
G1 X247.403 Y120.321 E10.61579 ; infill
G1 X260.511 Y133.429 E11.08350 ; infill
G1 X260.511 Y133.935 E11.09627 ; infill
G1 X246.898 Y120.321 E11.58203 ; infill
G1 X246.392 Y120.321 E11.59480 ; infill
G1 X260.511 Y134.441 E12.09861 ; infill
G1 X260.511 Y134.946 E12.11138 ; infill
G1 X245.886 Y120.321 E12.63325 ; infill
G1 X245.380 Y120.321 E12.64601 ; infill
G1 X260.511 Y135.452 E13.18593 ; infill
G1 X260.511 Y135.958 E13.19869 ; infill
G1 X244.874 Y120.321 E13.75666 ; infill
G1 X244.368 Y120.321 E13.76942 ; infill
G1 X260.511 Y136.464 E14.34544 ; infill
G1 X260.511 Y136.970 E14.35820 ; infill
G1 X243.862 Y120.321 E14.95227 ; infill
G1 X243.357 Y120.321 E14.96504 ; infill
G1 X260.511 Y137.476 E15.57716 ; infill
G1 X260.511 Y137.981 E15.58992 ; infill
G1 X242.851 Y120.321 E16.22009 ; infill
G1 X242.345 Y120.321 E16.23285 ; infill
G1 X260.511 Y138.487 E16.88107 ; infill
G1 X260.511 Y138.993 E16.89384 ; infill
G1 X241.839 Y120.321 E17.56011 ; infill
G1 X241.333 Y120.321 E17.57287 ; infill
G1 X260.511 Y139.499 E18.25719 ; infill
G1 X260.511 Y140.005 E18.26996 ; infill
G1 X240.827 Y120.321 E18.97233 ; infill
G1 X240.321 Y120.321 E18.98509 ; infill
G1 X260.511 Y140.511 E19.70551 ; infill
G1 X260.511 Y141.017 E19.71828 ; infill
G1 X239.816 Y120.321 E20.45675 ; infill
G1 X239.310 Y120.321 E20.46951 ; infill
G1 X260.511 Y141.522 E21.22603 ; infill
G1 X260.511 Y142.028 E21.23880 ; infill
G1 X238.804 Y120.321 E22.01337 ; infill
G1 X238.298 Y120.321 E22.02613 ; infill
G1 X260.511 Y142.534 E22.81876 ; infill
G1 X260.511 Y143.040 E22.83152 ; infill
G1 X237.792 Y120.321 E23.64219 ; infill
G1 X237.286 Y120.321 E23.65496 ; infill
G1 X260.511 Y143.546 E24.48368 ; infill
G1 X260.511 Y144.052 E24.49645 ; infill
G1 X241.772 Y125.313 E25.16511 ; infill
G1 X241.988 Y126.035 E25.18413 ; infill
G1 X260.511 Y144.558 E25.84507 ; infill
G1 X260.511 Y145.063 E25.85783 ; infill
G1 X242.040 Y126.593 E26.51693 ; infill
G1 X242.040 Y127.099 E26.52969 ; infill
G1 X260.511 Y145.569 E27.18878 ; infill
G1 X260.511 Y146.075 E27.20154 ; infill
G1 X242.040 Y127.604 E27.86064 ; infill
G1 X242.040 Y128.110 E27.87340 ; infill
G1 X260.511 Y146.581 E28.53249 ; infill
