; generated by Slic3r 1.2.9 on 2016-02-15 at 18:15:53

; external perimeters extrusion width = 0.40mm
; perimeters extrusion width = 0.67mm
; infill extrusion width = 0.67mm
; solid infill extrusion width = 0.67mm
; top infill extrusion width = 0.67mm

M107 ; disable fan
M104 S220 ; set temperature
M80 ; Power supply on
G28 ; home all axes

M109 S220 ; wait for temperature to be reached
G21 ; set units to millimeters
G90 ; use absolute coordinates
M82 ; use absolute distances for extrusion
G92 E0 ; reset extrusion distance
G1 E-1.00000 F480.00000 ; retract
G92 E0 ; reset extrusion distance
G1 Z0.200 F6600.000 ; move to next layer (0)
G1 X170.324 Y109.287 F6600.000 ; move to first skirt point
G1 E1.00000 F480.00000 ; unretract
G1 X171.620 Y107.303 E1.07037 F2100.000 ; skirt
G1 X173.499 Y105.859 E1.14074 ; skirt
G1 X176.807 Y105.038 E1.24193 ; skirt
G1 X187.289 Y105.038 E1.55314 ; skirt
G1 X189.625 Y105.435 E1.62351 ; skirt
G1 X191.699 Y106.582 E1.69388 F2100.000 ; skirt
G1 X193.278 Y108.349 E1.76425 ; skirt
G1 X194.184 Y110.539 E1.83462 ; skirt
G1 X194.360 Y112.109 E1.88150 ; skirt
G1 X194.360 Y115.109 E1.97058 ; skirt
G1 X194.042 Y117.205 E2.03351 ; skirt
G1 X185.375 Y145.114 E2.90121 ; skirt
G1 X184.472 Y147.753 E2.98402 ; skirt
G1 X183.501 Y150.367 E3.06683 ; skirt
G1 X182.461 Y152.955 E3.14964 ; skirt
G1 X181.353 Y155.515 E3.23245 ; skirt
G1 X180.179 Y158.044 E3.31526 ; skirt
G1 X178.938 Y160.542 E3.39807 ; skirt
G1 X177.633 Y163.007 E3.48088 ; skirt
G1 X176.263 Y165.436 E3.56369 ; skirt
G1 X174.888 Y167.734 E3.64321 ; skirt
G1 X161.819 Y189.070 E4.38609 ; skirt
G1 X161.116 Y190.124 E4.42370 ; skirt
G1 X160.559 Y190.807 E4.44987 ; skirt
G1 X159.986 Y191.421 E4.47479 ; skirt
G1 X159.200 Y192.147 E4.50656 ; skirt
G1 X158.493 Y192.690 E4.53304 ; skirt
G1 X158.081 Y192.978 E4.54797 ; skirt
G1 X157.311 Y193.440 E4.57463 ; skirt
G1 X156.860 Y193.683 E4.58984 ; skirt
G1 X156.049 Y194.047 E4.61623 ; skirt
G1 X155.263 Y194.340 E4.64115 ; skirt
G1 X154.260 Y194.631 E4.67216 ; skirt
G1 X153.359 Y194.806 E4.69940 ; skirt
G1 X152.871 Y194.879 E4.71406 ; skirt
G1 X151.966 Y194.947 E4.74099 ; skirt
G1 X151.127 Y194.953 E4.76592 ; skirt
G1 X150.103 Y194.887 E4.79638 ; skirt
G1 X149.178 Y194.742 E4.82416 ; skirt
G1 X148.713 Y194.648 E4.83826 ; skirt
G1 X147.821 Y194.399 E4.86576 ; skirt
G1 X147.390 Y194.259 E4.87922 ; skirt
G1 X146.513 Y193.901 E4.90735 ; skirt
G1 X146.106 Y193.714 E4.92063 ; skirt
G1 X145.271 Y193.255 E4.94894 ; skirt
G1 X144.894 Y193.026 E4.96203 ; skirt
G1 X144.112 Y192.469 E4.99053 ; skirt
G1 X143.756 Y192.191 E5.00395 ; skirt
G1 X143.052 Y191.554 E5.03212 ; skirt
G1 X142.470 Y190.949 E5.05705 ; skirt
G1 X141.828 Y190.179 E5.08682 ; skirt
G1 X141.063 Y189.038 E5.12762 ; skirt
G1 X140.423 Y187.798 E5.16904 ; skirt
G1 X140.062 Y186.875 E5.19847 ; skirt
G1 X139.812 Y186.074 E5.22339 ; skirt
G1 X139.592 Y185.140 E5.25188 ; skirt
G1 X139.522 Y184.704 E5.26498 ; skirt
G1 X139.410 Y183.738 E5.29385 ; skirt
G1 X139.392 Y183.310 E5.30658 ; skirt
G1 X139.393 Y182.344 E5.33527 ; skirt
G1 X139.425 Y181.910 E5.34817 ; skirt
G1 X139.537 Y180.957 E5.37668 ; skirt
G1 X139.620 Y180.524 E5.38976 ; skirt
G1 X139.834 Y179.614 E5.41753 ; skirt
G1 X140.159 Y178.640 E5.44801 ; skirt
G1 X140.356 Y178.138 E5.46402 ; skirt
G1 X170.300 Y109.342 E7.69176 ; skirt
G1 X170.627 Y109.484 F6600.000 ; move to first skirt point
G1 X171.923 Y107.502 E7.76208 F2100.000 ; skirt
G1 X173.772 Y106.120 E7.83063 ; skirt
G1 X176.807 Y105.395 E7.92328 ; skirt
G1 X187.289 Y105.395 E8.23449 ; skirt
G1 X189.563 Y105.792 E8.30305 ; skirt
G1 X191.569 Y106.936 E8.37160 F2100.000 ; skirt
G1 X193.068 Y108.692 E8.44016 ; skirt
G1 X193.884 Y110.852 E8.50872 ; skirt
G1 X194.003 Y112.109 E8.54621 ; skirt
G1 X194.003 Y115.109 E8.63528 ; skirt
G1 X193.701 Y117.099 E8.69504 ; skirt
G1 X185.037 Y144.998 E9.56245 ; skirt
G1 X184.137 Y147.629 E9.64498 ; skirt
G1 X183.169 Y150.234 E9.72751 ; skirt
G1 X182.133 Y152.813 E9.81004 ; skirt
G1 X181.029 Y155.364 E9.89257 ; skirt
G1 X179.859 Y157.886 E9.97510 ; skirt
G1 X178.623 Y160.375 E10.05763 ; skirt
G1 X177.321 Y162.831 E10.14016 ; skirt
G1 X175.956 Y165.253 E10.22269 ; skirt
G1 X174.583 Y167.548 E10.30210 ; skirt
G1 X161.515 Y188.884 E11.04498 ; skirt
G1 X161.115 Y189.504 E11.06689 ; skirt
G1 X160.642 Y190.147 E11.09059 ; skirt
G1 X159.960 Y190.942 E11.12170 ; skirt
G1 X159.334 Y191.550 E11.14761 ; skirt
G1 X158.958 Y191.883 E11.16251 ; skirt
G1 X158.278 Y192.405 E11.18797 ; skirt
G1 X157.614 Y192.848 E11.21166 ; skirt
G1 X156.718 Y193.354 E11.24222 ; skirt
G1 X155.906 Y193.721 E11.26869 ; skirt
G1 X155.456 Y193.899 E11.28304 ; skirt
G1 X154.622 Y194.164 E11.30904 ; skirt
G1 X153.846 Y194.353 E11.33274 ; skirt
G1 X152.849 Y194.522 E11.36278 ; skirt
G1 X151.943 Y194.591 E11.38975 ; skirt
G1 X151.145 Y194.597 E11.41345 ; skirt
G1 X150.144 Y194.532 E11.44321 ; skirt
G1 X149.237 Y194.390 E11.47047 ; skirt
G1 X148.795 Y194.300 E11.48388 ; skirt
G1 X147.511 Y193.923 E11.52360 ; skirt
G1 X146.265 Y193.395 E11.56379 ; skirt
G1 X145.089 Y192.727 E11.60395 ; skirt
G1 X144.322 Y192.180 E11.63189 ; skirt
G1 X143.984 Y191.916 E11.64465 ; skirt
G1 X143.295 Y191.292 E11.67225 ; skirt
G1 X142.741 Y190.717 E11.69595 ; skirt
G1 X142.113 Y189.963 E11.72508 ; skirt
G1 X141.370 Y188.856 E11.76466 ; skirt
G1 X140.749 Y187.653 E11.80486 ; skirt
G1 X140.396 Y186.749 E11.83367 ; skirt
G1 X140.159 Y185.987 E11.85737 ; skirt
G1 X139.943 Y185.073 E11.88525 ; skirt
G1 X139.876 Y184.659 E11.89773 ; skirt
G1 X139.766 Y183.713 E11.92600 ; skirt
G1 X139.750 Y182.359 E11.96619 ; skirt
G1 X139.889 Y181.013 E12.00637 ; skirt
G1 X140.178 Y179.710 E12.04599 ; skirt
G1 X140.496 Y178.758 E12.07580 ; skirt
G1 X140.684 Y178.280 E12.09104 ; skirt
G1 X170.603 Y109.539 E14.31700 ; skirt
G1 X170.930 Y109.682 F6600.000 ; move to first skirt point
G1 X170.978 Y109.572 E14.32056 F2100.000 ; skirt
G1 X172.225 Y107.703 E14.38726 ; skirt
G1 X174.043 Y106.384 E14.45395 ; skirt
G1 X176.807 Y105.752 E14.53815 ; skirt
G1 X187.289 Y105.752 E14.84935 ; skirt
G1 X189.500 Y106.149 E14.91605 ; skirt
G1 X191.434 Y107.290 E14.98274 F2100.000 ; skirt
G1 X192.852 Y109.032 E15.04944 ; skirt
G1 X193.646 Y112.109 E15.14378 ; skirt
G1 X193.646 Y115.109 E15.23285 ; skirt
G1 X193.360 Y116.993 E15.28943 ; skirt
G1 X184.699 Y144.883 E16.15654 ; skirt
G1 X183.803 Y147.504 E16.23880 ; skirt
G1 X182.898 Y149.945 E16.31609 ; skirt
G1 X182.645 Y150.583 E16.33646 ; skirt
G1 X181.805 Y152.672 E16.40330 ; skirt
G1 X180.774 Y155.062 E16.48059 ; skirt
G1 X179.611 Y157.576 E16.56284 ; skirt
G1 X178.383 Y160.060 E16.64509 ; skirt
G1 X177.090 Y162.510 E16.72734 ; skirt
G1 X175.733 Y164.925 E16.80960 ; skirt
G1 X174.314 Y167.304 E16.89185 ; skirt
G1 X161.210 Y188.697 E17.63673 ; skirt
G1 X160.547 Y189.692 E17.67223 ; skirt
G1 X160.009 Y190.351 E17.69750 ; skirt
G1 X159.493 Y190.905 E17.71996 ; skirt
G1 X158.745 Y191.596 E17.75019 ; skirt
G1 X158.063 Y192.120 E17.77574 ; skirt
G1 X157.677 Y192.390 E17.78972 ; skirt
G1 X156.949 Y192.824 E17.81487 ; skirt
G1 X156.275 Y193.168 E17.83735 ; skirt
G1 X155.353 Y193.557 E17.86706 ; skirt
G1 X154.517 Y193.822 E17.89312 ; skirt
G1 X153.782 Y194.002 E17.91559 ; skirt
G1 X152.808 Y194.167 E17.94492 ; skirt
G1 X151.497 Y194.248 E17.98391 ; skirt
G1 X150.602 Y194.212 E18.01050 ; skirt
G1 X150.167 Y194.175 E18.02348 ; skirt
G1 X149.297 Y194.037 E18.04963 ; skirt
G1 X148.559 Y193.869 E18.07210 ; skirt
G1 X147.615 Y193.580 E18.10142 ; skirt
G1 X146.424 Y193.075 E18.13982 ; skirt
G1 X145.283 Y192.427 E18.17877 ; skirt
G1 X144.533 Y191.892 E18.20613 ; skirt
G1 X144.211 Y191.641 E18.21825 ; skirt
G1 X143.537 Y191.030 E18.24526 ; skirt
G1 X143.012 Y190.485 E18.26773 ; skirt
G1 X142.398 Y189.748 E18.29623 ; skirt
G1 X141.668 Y188.659 E18.33515 ; skirt
G1 X141.076 Y187.509 E18.37356 ; skirt
G1 X140.730 Y186.624 E18.40176 ; skirt
G1 X140.505 Y185.901 E18.42423 ; skirt
G1 X140.293 Y185.007 E18.45152 ; skirt
G1 X140.230 Y184.613 E18.46335 ; skirt
G1 X140.123 Y183.687 E18.49104 ; skirt
G1 X140.106 Y182.375 E18.53001 ; skirt
G1 X140.242 Y181.069 E18.56897 ; skirt
G1 X140.522 Y179.807 E18.60737 ; skirt
G1 X140.833 Y178.876 E18.63651 ; skirt
G1 X141.011 Y178.423 E18.65097 ; skirt
G1 X170.907 Y109.737 E20.87515 ; skirt
G1 E19.87515 F480.00000 ; retract
G92 E0 ; reset extrusion distance
G1 X152.243 Y179.679 F6600.000 ; move to first perimeter point
G1 E1.00000 F480.00000 ; unretract
G1 X152.737 Y179.843 E1.01545 F900.000 ; perimeter
G1 X153.199 Y180.082 E1.03090 ; perimeter
G1 X153.616 Y180.389 E1.04629 ; perimeter
G1 X153.954 Y180.726 E1.06045 ; perimeter
G1 X154.261 Y181.144 E1.07584 ; perimeter
G1 X154.500 Y181.606 E1.09129 ; perimeter
G1 X154.664 Y182.100 E1.10674 ; perimeter
G1 X154.749 Y182.615 E1.12223 ; perimeter
G1 X154.749 Y183.149 E1.13810 ; perimeter
G1 X154.673 Y183.648 E1.15309 ; perimeter
G1 X154.514 Y184.144 E1.16854 ; perimeter
G1 X154.280 Y184.609 E1.18399 ; perimeter
G1 X153.976 Y185.031 E1.19945 ; perimeter
G1 X153.609 Y185.400 E1.21490 ; perimeter
G1 X153.189 Y185.707 E1.23035 ; perimeter
G1 X152.726 Y185.945 E1.24580 ; perimeter
G1 X152.231 Y186.107 E1.26125 ; perimeter
G1 X151.718 Y186.190 E1.27670 ; perimeter
G1 X151.197 Y186.190 E1.29216 ; perimeter
G1 X150.683 Y186.110 E1.30761 ; perimeter
G1 X150.188 Y185.949 E1.32306 ; perimeter
G1 X149.724 Y185.714 E1.33851 ; perimeter
G1 X149.303 Y185.408 E1.35396 ; perimeter
G1 X148.935 Y185.040 E1.36941 ; perimeter
G1 X148.629 Y184.619 E1.38486 ; perimeter
G1 X148.393 Y184.155 E1.40032 ; perimeter
G1 X148.233 Y183.660 E1.41577 ; perimeter
G1 X148.152 Y183.146 E1.43122 ; perimeter
G1 X148.153 Y182.632 E1.44648 ; perimeter
G1 X148.217 Y182.169 E1.46034 ; perimeter
G1 X148.398 Y181.617 E1.47760 ; perimeter
G1 X148.636 Y181.154 E1.49305 ; perimeter
G1 X148.943 Y180.734 E1.50850 ; perimeter
G1 X149.312 Y180.367 E1.52395 ; perimeter
G1 X149.734 Y180.063 E1.53940 ; perimeter
G1 X150.200 Y179.828 E1.55490 ; perimeter
G1 X150.710 Y179.668 E1.57077 ; perimeter
G1 X151.209 Y179.591 E1.58575 F900.000 ; perimeter
G1 X151.730 Y179.594 E1.60120 ; perimeter
G1 X152.184 Y179.669 E1.61487 ; perimeter
G1 X152.126 Y180.021 F6600.000 ; move to first perimeter point
G1 X152.598 Y180.173 E1.62959 F900.000 ; perimeter
G1 X153.010 Y180.386 E1.64337 ; perimeter
G1 X153.383 Y180.661 E1.65712 ; perimeter
G1 X153.682 Y180.960 E1.66968 ; perimeter
G1 X153.957 Y181.333 E1.68344 ; perimeter
G1 X154.170 Y181.745 E1.69722 ; perimeter
G1 X154.316 Y182.185 E1.71100 ; perimeter
G1 X154.392 Y182.644 E1.72479 ; perimeter
G1 X154.392 Y183.122 E1.73899 ; perimeter
G1 X154.324 Y183.566 E1.75233 ; perimeter
G1 X154.183 Y184.008 E1.76611 ; perimeter
G1 X153.974 Y184.423 E1.77988 ; perimeter
G1 X153.702 Y184.799 E1.79366 ; perimeter
G1 X153.375 Y185.128 E1.80744 ; perimeter
G1 X153.001 Y185.402 E1.82122 ; perimeter
G1 X152.588 Y185.614 E1.83500 ; perimeter
G1 X152.147 Y185.759 E1.84878 ; perimeter
G1 X151.689 Y185.832 E1.86256 ; perimeter
G1 X151.225 Y185.833 E1.87634 ; perimeter
G1 X150.766 Y185.761 E1.89012 ; perimeter
G1 X150.325 Y185.618 E1.90389 ; perimeter
G1 X149.911 Y185.408 E1.91767 ; perimeter
G1 X149.536 Y185.135 E1.93145 ; perimeter
G1 X149.207 Y184.807 E1.94523 ; perimeter
G1 X148.935 Y184.432 E1.95901 ; perimeter
G1 X148.724 Y184.018 E1.97279 ; perimeter
G1 X148.582 Y183.577 E1.98657 ; perimeter
G1 X148.510 Y183.118 E2.00035 ; perimeter
G1 X148.510 Y182.656 E2.01406 ; perimeter
G1 X148.566 Y182.250 E2.02624 ; perimeter
G1 X148.729 Y181.755 E2.04171 ; perimeter
G1 X148.940 Y181.342 E2.05549 ; perimeter
G1 X149.214 Y180.967 E2.06926 ; perimeter
G1 X149.544 Y180.640 E2.08304 ; perimeter
G1 X149.920 Y180.369 E2.09682 ; perimeter
G1 X150.335 Y180.160 E2.11062 ; perimeter
G1 X150.791 Y180.017 E2.12481 ; perimeter
G1 X151.235 Y179.949 E2.13815 F900.000 ; perimeter
G1 X151.699 Y179.951 E2.15193 ; perimeter
G1 X152.067 Y180.012 E2.16298 ; perimeter
G1 X152.409 Y179.738 F6600.000 ; move inwards before travel
G1 E1.16298 F480.00000 ; retract
G92 E0 ; reset extrusion distance
G1 X177.106 Y139.510 F6600.000 ; move to first perimeter point
G1 E1.00000 F480.00000 ; unretract
G1 X177.368 Y138.636 E1.02709 F1800.000 ; perimeter
G1 X178.039 Y136.166 E1.10308 ; perimeter
G1 X178.644 Y133.679 E1.17906 ; perimeter
G1 X179.183 Y131.177 E1.25505 ; perimeter
G1 X179.655 Y128.660 E1.33109 ; perimeter
G1 X180.127 Y125.633 E1.42205 ; perimeter
G1 X180.398 Y123.598 E1.48301 ; perimeter
G1 X180.669 Y121.053 E1.55899 ; perimeter
G1 X180.873 Y118.502 E1.63498 ; perimeter
G1 X181.008 Y115.945 E1.71103 ; perimeter
G1 X181.036 Y114.552 E1.75240 ; perimeter
G1 X177.364 Y114.552 E1.86140 ; perimeter
G1 X177.364 Y112.666 E1.91739 ; perimeter
G1 X186.732 Y112.666 E2.19552 ; perimeter
G1 X186.732 Y114.552 E2.25151 ; perimeter
G1 X182.983 Y114.552 E2.36281 F1800.000 ; perimeter
G1 X182.875 Y117.283 E2.44399 ; perimeter
G1 X182.705 Y119.866 E2.52084 ; perimeter
G1 X182.467 Y122.444 E2.59770 ; perimeter
G1 X182.162 Y125.014 E2.67455 ; perimeter
G1 X181.789 Y127.576 E2.75141 ; perimeter
G1 X181.349 Y130.127 E2.82826 ; perimeter
G1 X180.842 Y132.665 E2.90512 ; perimeter
G1 X180.268 Y135.189 E2.98197 ; perimeter
G1 X179.628 Y137.697 E3.05883 ; perimeter
G1 X178.923 Y140.188 E3.13568 ; perimeter
G1 X178.152 Y142.659 E3.21254 ; perimeter
G1 X177.317 Y145.109 E3.28939 ; perimeter
G1 X176.417 Y147.536 E3.36625 ; perimeter
G1 X175.454 Y149.938 E3.44310 ; perimeter
G1 X174.428 Y152.315 E3.51996 ; perimeter
G1 X173.340 Y154.664 E3.59681 ; perimeter
G1 X172.191 Y156.983 E3.67367 ; perimeter
G1 X170.981 Y159.271 E3.75052 ; perimeter
G1 X169.712 Y161.527 E3.82738 ; perimeter
G1 X168.383 Y163.749 E3.90423 ; perimeter
G1 X166.997 Y165.935 E3.98109 ; perimeter
G1 X165.553 Y168.083 E4.05795 ; perimeter
G1 X164.054 Y170.193 E4.13480 ; perimeter
G1 X162.500 Y172.263 E4.21166 ; perimeter
G1 X160.892 Y174.291 E4.28851 ; perimeter
G1 X159.231 Y176.277 E4.36537 ; perimeter
G1 X157.516 Y178.220 E4.44232 ; perimeter
G1 X156.488 Y179.353 E4.48772 ; perimeter
G1 X156.302 Y179.599 E4.49690 ; perimeter
G1 X156.157 Y179.916 E4.50724 ; perimeter
G1 X155.964 Y180.463 E4.52447 ; perimeter
G1 X155.845 Y180.975 E4.54009 ; perimeter
G1 X155.797 Y181.400 E4.55276 ; perimeter
G1 X155.791 Y181.775 E4.56390 ; perimeter
G1 X155.885 Y182.623 E4.58926 ; perimeter
G1 X155.887 Y183.122 E4.60406 ; perimeter
G1 X155.827 Y183.653 E4.61993 ; perimeter
G1 X155.715 Y184.137 E4.63468 ; perimeter
G1 X155.542 Y184.623 E4.64999 ; perimeter
G1 X155.314 Y185.084 E4.66527 ; perimeter
G1 X155.023 Y185.532 E4.68112 ; perimeter
G1 X154.706 Y185.915 E4.69588 ; perimeter
G1 X154.334 Y186.271 E4.71119 ; perimeter
G1 X153.923 Y186.582 E4.72647 ; perimeter
G1 X153.463 Y186.852 E4.74232 ; perimeter
G1 X153.008 Y187.052 E4.75708 ; perimeter
G1 X152.515 Y187.204 E4.77237 ; perimeter
G1 X151.990 Y187.300 E4.78822 ; perimeter
G1 X151.495 Y187.333 E4.80297 ; perimeter
G1 X150.979 Y187.308 E4.81829 ; perimeter
G1 X150.471 Y187.224 E4.83359 ; perimeter
G1 X149.977 Y187.081 E4.84887 ; perimeter
G1 X149.485 Y186.874 E4.86472 ; perimeter
G1 X149.052 Y186.629 E4.87947 ; perimeter
G1 X148.635 Y186.326 E4.89478 ; perimeter
G1 X148.256 Y185.977 E4.91008 ; perimeter
G1 X147.920 Y185.586 E4.92538 ; perimeter
G1 X147.632 Y185.159 E4.94068 ; perimeter
G1 X147.395 Y184.702 E4.95597 ; perimeter
G1 X147.208 Y184.203 E4.97180 ; perimeter
G1 X147.085 Y183.703 E4.98708 ; perimeter
G1 X147.020 Y183.192 E5.00238 ; perimeter
G1 X147.015 Y182.676 E5.01769 ; perimeter
G1 X147.067 Y182.182 E5.03245 ; perimeter
G1 X147.184 Y181.661 E5.04829 ; perimeter
G1 X147.355 Y181.175 E5.06358 ; perimeter
G1 X147.581 Y180.712 E5.07888 ; perimeter
G1 X147.860 Y180.279 E5.09419 ; perimeter
G1 X148.174 Y179.894 E5.10894 ; perimeter
G1 X148.557 Y179.522 E5.12479 ; perimeter
G1 X148.967 Y179.210 E5.14009 ; perimeter
G1 X149.394 Y178.955 E5.15484 ; perimeter
G1 X149.881 Y178.737 E5.17069 ; perimeter
G1 X150.372 Y178.583 E5.18597 ; perimeter
G1 X150.878 Y178.487 E5.20128 ; perimeter
G1 X151.374 Y178.451 E5.21604 ; perimeter
G1 X151.910 Y178.473 E5.23196 ; perimeter
