; generated by Slic3r 1.2.9 on 2016-02-15 at 22:58:55

; external perimeters extrusion width = 0.40mm
; perimeters extrusion width = 0.67mm
; infill extrusion width = 0.67mm
; solid infill extrusion width = 0.67mm
; top infill extrusion width = 0.67mm

M107 ; disable fan
M104 S220 ; set temperature
M80 ; Power supply on
G28 ; home all axes

M109 S220 ; wait for temperature to be reached
G21 ; set units to millimeters
G90 ; use absolute coordinates
M82 ; use absolute distances for extrusion
G92 E0 ; reset extrusion distance
G1 E-1.00000 F480.00000 ; retract
G92 E0 ; reset extrusion distance
G1 Z0.200 F6600.000 ; move to next layer (0)
G1 X160.581 Y108.445 F6600.000 ; move to first skirt point
G1 E1.00000 F480.00000 ; unretract
G1 X161.067 Y107.782 E1.02442 F2100.000 ; skirt
G1 X161.365 Y107.421 E1.03832 ; skirt
G1 X161.925 Y106.819 E1.06274 ; skirt
G1 X162.264 Y106.495 E1.07664 ; skirt
G1 X162.889 Y105.962 E1.10106 ; skirt
G1 X163.263 Y105.679 E1.11496 ; skirt
G1 X163.947 Y105.222 E1.13938 ; skirt
G1 X164.351 Y104.985 E1.15328 ; skirt
G1 X165.083 Y104.611 E1.17770 ; skirt
G1 X165.511 Y104.422 E1.19161 ; skirt
G1 X166.282 Y104.135 E1.21602 ; skirt
G1 X166.730 Y103.997 E1.22993 ; skirt
G1 X167.528 Y103.802 E1.25434 ; skirt
G1 X167.917 Y103.730 E1.26607 ; skirt
G1 X168.805 Y103.616 E1.29266 ; skirt
G1 X169.272 Y103.585 E1.30657 ; skirt
G1 X170.094 Y103.579 E1.33098 ; skirt
G1 X170.562 Y103.603 E1.34488 ; skirt
G1 X171.380 Y103.692 E1.36930 F2100.000 ; skirt
G1 X171.942 Y103.788 E1.38624 ; skirt
G1 X198.576 Y108.678 E2.19025 ; skirt
G1 X200.802 Y109.491 E2.26062 ; skirt
G1 X202.635 Y110.993 E2.33098 ; skirt
G1 X203.868 Y113.017 E2.40135 ; skirt
G1 X204.370 Y115.633 E2.48044 ; skirt
G1 X204.370 Y118.633 E2.56951 ; skirt
G1 X204.244 Y119.963 E2.60917 ; skirt
G1 X201.349 Y135.083 E3.06627 ; skirt
G1 X200.828 Y137.691 E3.14524 ; skirt
G1 X200.169 Y140.592 E3.23357 ; skirt
G1 X199.477 Y143.294 E3.31638 ; skirt
G1 X198.715 Y145.977 E3.39919 ; skirt
G1 X197.939 Y148.462 E3.47648 ; skirt
G1 X197.042 Y151.103 E3.55929 ; skirt
G1 X196.008 Y153.892 E3.64762 ; skirt
G1 X194.968 Y156.480 E3.73043 ; skirt
G1 X193.936 Y158.870 E3.80773 ; skirt
G1 X192.766 Y161.402 E3.89054 ; skirt
G1 X191.530 Y163.902 E3.97335 ; skirt
G1 X190.229 Y166.369 E4.05616 ; skirt
G1 X188.769 Y168.961 E4.14449 ; skirt
G1 X187.433 Y171.196 E4.22178 ; skirt
G1 X185.942 Y173.552 E4.30459 ; skirt
G1 X184.388 Y175.869 E4.38741 ; skirt
G1 X182.775 Y178.144 E4.47022 ; skirt
G1 X181.001 Y180.506 E4.55794 ; skirt
G1 X179.254 Y182.707 E4.64136 ; skirt
G1 X177.583 Y184.703 E4.71865 ; skirt
G1 X175.740 Y186.796 E4.80146 ; skirt
G1 X170.297 Y192.688 E5.03962 ; skirt
G1 X169.733 Y193.254 E5.06333 ; skirt
G1 X169.115 Y193.796 E5.08775 ; skirt
G1 X168.746 Y194.084 E5.10165 ; skirt
G1 X168.069 Y194.550 E5.12607 ; skirt
G1 X167.668 Y194.793 E5.13998 ; skirt
G1 X166.942 Y195.178 E5.16439 ; skirt
G1 X166.516 Y195.373 E5.17829 ; skirt
G1 X165.749 Y195.671 E5.20271 ; skirt
G1 X165.304 Y195.815 E5.21661 ; skirt
G1 X164.508 Y196.022 E5.24103 ; skirt
G1 X164.048 Y196.113 E5.25494 ; skirt
G1 X163.234 Y196.226 E5.27935 ; skirt
G1 X162.767 Y196.264 E5.29326 ; skirt
G1 X161.998 Y196.283 E5.31609 ; skirt
G1 X145.256 Y195.798 E5.81341 ; skirt
G1 X142.932 Y195.333 E5.88378 ; skirt
G1 X140.460 Y193.730 E5.97124 ; skirt
G1 X133.041 Y186.310 E6.28278 ; skirt
G1 X131.670 Y184.377 E6.35315 ; skirt
G1 X131.014 Y182.100 E6.42352 ; skirt
G1 X131.500 Y178.624 E6.52773 ; skirt
G1 X159.515 Y110.414 E8.71713 ; skirt
G1 X159.921 Y109.554 E8.74537 ; skirt
G1 X160.326 Y108.839 E8.76979 ; skirt
G1 X160.548 Y108.496 E8.78191 ; skirt
G1 X160.848 Y108.690 F6600.000 ; move to first skirt point
G1 X161.342 Y108.010 E8.80687 F2100.000 ; skirt
G1 X161.641 Y107.649 E8.82078 ; skirt
G1 X162.172 Y107.077 E8.84396 ; skirt
G1 X162.510 Y106.753 E8.85787 ; skirt
G1 X163.105 Y106.247 E8.88105 ; skirt
G1 X163.478 Y105.964 E8.89495 ; skirt
G1 X164.128 Y105.530 E8.91814 ; skirt
G1 X164.531 Y105.293 E8.93204 ; skirt
G1 X165.227 Y104.938 E8.95523 ; skirt
G1 X165.655 Y104.749 E8.96913 ; skirt
G1 X166.387 Y104.476 E8.99231 ; skirt
G1 X166.835 Y104.339 E9.00622 ; skirt
G1 X167.593 Y104.153 E9.02940 ; skirt
G1 X167.981 Y104.082 E9.04113 ; skirt
G1 X168.828 Y103.972 E9.06649 ; skirt
G1 X169.296 Y103.941 E9.08039 ; skirt
G1 X170.076 Y103.936 E9.10357 ; skirt
G1 X170.544 Y103.959 E9.11748 ; skirt
G1 X171.320 Y104.044 E9.14066 F2100.000 ; skirt
G1 X171.878 Y104.139 E9.15745 ; skirt
G1 X198.511 Y109.029 E9.96146 ; skirt
G1 X200.677 Y109.830 E10.03001 ; skirt
G1 X202.443 Y111.318 E10.09857 ; skirt
G1 X203.600 Y113.316 E10.16712 ; skirt
G1 X204.013 Y115.633 E10.23701 ; skirt
G1 X204.013 Y118.633 E10.32608 ; skirt
G1 X203.893 Y119.896 E10.36374 ; skirt
G1 X200.998 Y135.016 E10.82083 ; skirt
G1 X200.478 Y137.621 E10.89972 ; skirt
G1 X199.823 Y140.504 E10.98749 ; skirt
G1 X199.133 Y143.197 E11.07002 ; skirt
G1 X198.374 Y145.871 E11.15255 ; skirt
G1 X197.599 Y148.356 E11.22985 ; skirt
G1 X196.704 Y150.987 E11.31238 ; skirt
G1 X195.740 Y153.595 E11.39491 ; skirt
G1 X194.640 Y156.339 E11.48268 ; skirt
G1 X193.608 Y158.729 E11.55998 ; skirt
G1 X192.442 Y161.252 E11.64251 ; skirt
G1 X191.210 Y163.744 E11.72504 ; skirt
G1 X189.913 Y166.202 E11.80757 ; skirt
G1 X188.463 Y168.778 E11.89535 ; skirt
G1 X187.034 Y171.163 E11.97788 ; skirt
G1 X185.640 Y173.361 E12.05517 ; skirt
G1 X184.092 Y175.670 E12.13770 ; skirt
G1 X182.484 Y177.937 E12.22024 ; skirt
G1 X180.721 Y180.285 E12.30740 ; skirt
G1 X178.980 Y182.477 E12.39054 ; skirt
G1 X177.309 Y184.474 E12.46783 ; skirt
G1 X175.472 Y186.560 E12.55037 ; skirt
G1 X170.035 Y192.445 E12.78828 ; skirt
G1 X169.483 Y193.000 E12.81150 ; skirt
G1 X168.896 Y193.514 E12.83468 ; skirt
G1 X168.526 Y193.802 E12.84858 ; skirt
G1 X167.883 Y194.245 E12.87176 ; skirt
G1 X167.483 Y194.488 E12.88568 ; skirt
G1 X166.793 Y194.853 E12.90885 ; skirt
G1 X166.367 Y195.048 E12.92276 ; skirt
G1 X165.639 Y195.331 E12.94594 ; skirt
G1 X165.194 Y195.475 E12.95985 ; skirt
G1 X164.438 Y195.672 E12.98303 ; skirt
G1 X163.979 Y195.763 E12.99694 ; skirt
G1 X163.205 Y195.870 E13.02012 ; skirt
G1 X162.739 Y195.908 E13.03402 ; skirt
G1 X162.008 Y195.926 E13.05571 ; skirt
G1 X145.266 Y195.441 E13.55302 ; skirt
G1 X143.004 Y194.978 E13.62158 ; skirt
G1 X140.713 Y193.477 E13.70290 ; skirt
G1 X133.293 Y186.058 E14.01444 ; skirt
G1 X131.966 Y184.169 E14.08300 ; skirt
G1 X131.357 Y181.942 E14.15155 ; skirt
G1 X131.830 Y178.760 E14.24707 ; skirt
G1 X159.845 Y110.550 E16.43648 ; skirt
G1 X160.241 Y109.712 E16.46399 ; skirt
G1 X160.626 Y109.033 E16.48717 ; skirt
G1 X160.815 Y108.740 E16.49752 ; skirt
G1 X161.115 Y108.934 F6600.000 ; move to first skirt point
G1 X161.617 Y108.237 E16.52302 F2100.000 ; skirt
G1 X161.916 Y107.876 E16.53693 ; skirt
G1 X162.419 Y107.335 E16.55888 ; skirt
G1 X162.757 Y107.011 E16.57279 ; skirt
G1 X163.320 Y106.531 E16.59473 ; skirt
G1 X163.694 Y106.249 E16.60864 ; skirt
G1 X164.308 Y105.838 E16.63059 ; skirt
G1 X164.712 Y105.601 E16.64450 ; skirt
G1 X165.370 Y105.264 E16.66644 ; skirt
G1 X165.799 Y105.076 E16.68035 ; skirt
G1 X166.492 Y104.818 E16.70230 ; skirt
G1 X166.939 Y104.680 E16.71621 ; skirt
G1 X167.657 Y104.504 E16.73815 ; skirt
G1 X168.046 Y104.433 E16.74988 ; skirt
G1 X168.852 Y104.328 E16.77401 ; skirt
G1 X169.319 Y104.298 E16.78791 ; skirt
G1 X170.058 Y104.292 E16.80986 ; skirt
G1 X170.526 Y104.316 E16.82376 ; skirt
G1 X171.261 Y104.396 E16.84572 F2100.000 ; skirt
G1 X171.813 Y104.490 E16.86235 ; skirt
G1 X198.447 Y109.380 E17.66636 ; skirt
G1 X200.550 Y110.170 E17.73305 ; skirt
G1 X202.247 Y111.642 E17.79974 ; skirt
G1 X203.326 Y113.612 E17.86644 ; skirt
G1 X203.656 Y115.633 E17.92725 ; skirt
G1 X203.656 Y118.633 E18.01632 ; skirt
G1 X203.542 Y119.828 E18.05198 ; skirt
G1 X200.647 Y134.949 E18.50907 ; skirt
G1 X200.128 Y137.551 E18.58787 ; skirt
G1 X199.516 Y140.253 E18.67012 ; skirt
G1 X198.790 Y143.099 E18.75734 ; skirt
G1 X198.033 Y145.764 E18.83959 ; skirt
G1 X197.258 Y148.249 E18.91688 ; skirt
G1 X196.366 Y150.872 E18.99914 ; skirt
G1 X195.405 Y153.471 E19.08139 ; skirt
G1 X194.312 Y156.197 E19.16861 ; skirt
G1 X193.281 Y158.587 E19.24590 ; skirt
G1 X192.118 Y161.102 E19.32815 ; skirt
G1 X190.890 Y163.585 E19.41041 ; skirt
G1 X189.597 Y166.035 E19.49266 ; skirt
G1 X188.156 Y168.595 E19.57988 ; skirt
G1 X186.820 Y170.829 E19.65717 ; skirt
G1 X185.339 Y173.170 E19.73942 ; skirt
G1 X183.796 Y175.471 E19.82168 ; skirt
G1 X182.193 Y177.730 E19.90393 ; skirt
G1 X180.441 Y180.063 E19.99054 ; skirt
G1 X178.706 Y182.248 E20.07340 ; skirt
G1 X177.036 Y184.245 E20.15069 ; skirt
G1 X175.204 Y186.324 E20.23295 ; skirt
G1 X169.773 Y192.203 E20.47061 ; skirt
G1 X169.232 Y192.745 E20.49333 ; skirt
G1 X168.676 Y193.233 E20.51528 ; skirt
G1 X168.307 Y193.520 E20.52919 ; skirt
G1 X167.698 Y193.940 E20.55114 ; skirt
G1 X167.298 Y194.183 E20.56505 ; skirt
G1 X166.644 Y194.529 E20.58699 ; skirt
G1 X166.219 Y194.723 E20.60090 ; skirt
G1 X165.530 Y194.991 E20.62285 ; skirt
G1 X165.084 Y195.135 E20.63675 ; skirt
G1 X164.368 Y195.321 E20.65870 ; skirt
G1 X163.909 Y195.413 E20.67261 ; skirt
G1 X163.177 Y195.514 E20.69456 ; skirt
G1 X162.710 Y195.552 E20.70846 ; skirt
G1 X162.019 Y195.569 E20.72900 ; skirt
G1 X145.276 Y195.084 E21.22631 ; skirt
G1 X143.078 Y194.623 E21.29300 ; skirt
G1 X140.965 Y193.225 E21.36823 ; skirt
G1 X133.546 Y185.806 E21.67977 ; skirt
G1 X132.263 Y183.962 E21.74646 ; skirt
G1 X131.702 Y181.787 E21.81315 ; skirt
G1 X132.161 Y178.895 E21.90007 ; skirt
G1 X160.175 Y110.685 E24.08948 ; skirt
G1 X160.561 Y109.870 E24.11627 ; skirt
G1 X161.083 Y108.985 E24.14677 ; skirt
G1 E23.14677 F480.00000 ; retract
G92 E0 ; reset extrusion distance
G1 X162.107 Y182.239 F6600.000 ; move to first perimeter point
G1 E1.00000 F480.00000 ; unretract
G1 X162.577 Y182.274 E1.01400 F900.000 ; perimeter
G1 X163.027 Y182.382 E1.02776 ; perimeter
G1 X163.455 Y182.560 E1.04150 ; perimeter
G1 X163.842 Y182.797 E1.05499 ; perimeter
G1 X164.202 Y183.102 E1.06899 ; perimeter
G1 X164.503 Y183.454 E1.08274 ; perimeter
G1 X164.745 Y183.849 E1.09649 ; perimeter
G1 X164.918 Y184.269 E1.10997 ; perimeter
G1 X165.030 Y184.727 E1.12397 ; perimeter
G1 X165.066 Y185.189 E1.13773 ; perimeter
G1 X165.030 Y185.650 E1.15148 ; perimeter
G1 X164.922 Y186.100 E1.16522 ; perimeter
G1 X164.745 Y186.528 E1.17897 ; perimeter
G1 X164.503 Y186.923 E1.19272 ; perimeter
G1 X164.202 Y187.275 E1.20646 ; perimeter
G1 X163.850 Y187.576 E1.22021 ; perimeter
G1 X163.455 Y187.818 E1.23396 ; perimeter
G1 X163.027 Y187.995 E1.24771 ; perimeter
G1 X162.577 Y188.103 E1.26145 ; perimeter
G1 X162.116 Y188.139 E1.27520 ; perimeter
G1 X161.654 Y188.103 E1.28895 ; perimeter
G1 X161.212 Y187.997 E1.30243 ; perimeter
G1 X160.776 Y187.818 E1.31643 ; perimeter
G1 X160.381 Y187.576 E1.33019 ; perimeter
G1 X160.029 Y187.275 E1.34393 ; perimeter
G1 X159.728 Y186.923 E1.35768 ; perimeter
G1 X159.487 Y186.528 E1.37143 ; perimeter
G1 X159.309 Y186.100 E1.38518 ; perimeter
G1 X159.201 Y185.650 E1.39892 ; perimeter
G1 X159.165 Y185.189 E1.41267 ; perimeter
G1 X159.201 Y184.727 E1.42642 ; perimeter
G1 X159.309 Y184.277 E1.44016 ; perimeter
G1 X159.487 Y183.849 E1.45391 ; perimeter
G1 X159.728 Y183.454 E1.46766 ; perimeter
G1 X160.029 Y183.102 E1.48141 ; perimeter
G1 X160.381 Y182.802 E1.49515 ; perimeter
G1 X160.776 Y182.560 E1.50890 ; perimeter
G1 X161.204 Y182.382 E1.52265 ; perimeter
G1 X161.654 Y182.274 E1.53640 ; perimeter
G1 X162.047 Y182.243 E1.54810 F900.000 ; perimeter
G1 X162.315 Y181.897 F6600.000 ; move inwards before travel
G1 X192.126 Y141.255 F6600.000 ; move to first perimeter point
G1 X191.430 Y143.713 E1.62394 F1800.000 ; perimeter
G1 X190.659 Y146.184 E1.70080 ; perimeter
G1 X189.824 Y148.633 E1.77762 ; perimeter
G1 X188.722 Y151.565 E1.87062 ; perimeter
G1 X187.961 Y153.464 E1.93137 ; perimeter
G1 X186.935 Y155.840 E2.00822 ; perimeter
G1 X185.847 Y158.189 E2.08508 ; perimeter
G1 X184.698 Y160.509 E2.16194 ; perimeter
G1 X183.488 Y162.797 E2.23879 ; perimeter
G1 X182.219 Y165.053 E2.31565 ; perimeter
G1 X180.890 Y167.274 E2.39251 ; perimeter
G1 X179.504 Y169.460 E2.46937 ; perimeter
G1 X178.060 Y171.609 E2.54622 ; perimeter
G1 X176.561 Y173.719 E2.62308 ; perimeter
G1 X175.019 Y175.773 E2.69935 ; perimeter
G1 X173.398 Y177.817 E2.77680 ; perimeter
G1 X171.737 Y179.803 E2.85365 ; perimeter
G1 X170.025 Y181.744 E2.93051 ; perimeter
G1 X168.261 Y183.640 E3.00740 ; perimeter
G1 X167.070 Y184.863 E3.05808 ; perimeter
G1 X165.509 Y183.302 E3.12361 ; perimeter
G1 X165.555 Y184.559 E3.16096 ; perimeter
G1 X165.363 Y184.586 E3.16671 ; perimeter
G1 X165.259 Y184.157 E3.17979 ; perimeter
G1 X165.064 Y183.686 E3.19493 ; perimeter
G1 X164.792 Y183.244 E3.21034 ; perimeter
G1 X164.455 Y182.848 E3.22578 ; perimeter
G1 X164.052 Y182.507 E3.24145 ; perimeter
G1 X163.618 Y182.240 E3.25659 ; perimeter
G1 X163.138 Y182.042 E3.27200 ; perimeter
G1 X162.704 Y181.937 E3.28527 ; perimeter
G1 X162.730 Y181.745 E3.29103 ; perimeter
G1 X163.999 Y181.792 E3.32873 ; perimeter
G1 X162.167 Y179.960 E3.40564 ; perimeter
G1 X164.152 Y177.892 E3.49074 ; perimeter
G1 X165.820 Y176.044 E3.56466 ; perimeter
G1 X167.438 Y174.151 E3.63858 ; perimeter
G1 X169.003 Y172.215 E3.71250 ; perimeter
G1 X170.515 Y170.238 E3.78642 ; perimeter
G1 X171.973 Y168.220 E3.86034 ; perimeter
G1 X173.376 Y166.163 E3.93426 ; perimeter
G1 X174.722 Y164.068 E4.00819 ; perimeter
G1 X176.010 Y161.938 E4.08211 ; perimeter
G1 X177.241 Y159.772 E4.15607 ; perimeter
G1 X178.641 Y157.115 E4.24526 ; perimeter
G1 X179.522 Y155.348 E4.30386 ; perimeter
G1 X180.571 Y153.090 E4.37778 ; perimeter
G1 X181.559 Y150.805 E4.45170 ; perimeter
G1 X182.484 Y148.494 E4.52563 ; perimeter
G1 X183.347 Y146.158 E4.59955 ; perimeter
G1 X184.145 Y143.800 E4.67347 ; perimeter
G1 X184.879 Y141.421 E4.74739 ; perimeter
G1 X185.548 Y139.023 E4.82131 ; perimeter
G1 X186.151 Y136.607 E4.89523 ; perimeter
G1 X186.688 Y134.177 E4.96915 ; perimeter
G1 X187.160 Y131.732 E5.04307 ; perimeter
G1 X187.564 Y129.275 E5.11699 ; perimeter
G1 X187.902 Y126.809 E5.19091 ; perimeter
G1 X188.172 Y124.334 E5.26483 ; perimeter
G1 X188.375 Y121.852 E5.33875 ; perimeter
G1 X188.510 Y119.364 E5.41273 ; perimeter
G1 X188.536 Y118.076 E5.45100 ; perimeter
G1 X187.363 Y118.076 E5.48582 ; perimeter
G1 X187.363 Y116.190 E5.54182 ; perimeter
G1 X196.742 Y116.190 E5.82027 ; perimeter
G1 X196.742 Y118.076 E5.87627 ; perimeter
G1 X195.490 Y118.076 E5.91342 F1800.000 ; perimeter
G1 X195.383 Y120.808 E5.99460 ; perimeter
G1 X195.213 Y123.391 E6.07146 ; perimeter
G1 X194.975 Y125.968 E6.14831 ; perimeter
G1 X194.669 Y128.539 E6.22517 ; perimeter
G1 X194.296 Y131.100 E6.30203 ; perimeter
G1 X193.856 Y133.651 E6.37889 ; perimeter
G1 X193.349 Y136.190 E6.45574 ; perimeter
G1 X192.775 Y138.714 E6.53260 ; perimeter
G1 X192.142 Y141.197 E6.60869 ; perimeter
G1 X192.488 Y141.285 F6600.000 ; move to first perimeter point
G1 X191.772 Y143.814 E6.68673 F900.000 ; perimeter
G1 X190.999 Y146.295 E6.76387 ; perimeter
G1 X190.160 Y148.753 E6.84099 ; perimeter
G1 X189.055 Y151.694 E6.93427 ; perimeter
G1 X188.291 Y153.601 E6.99527 ; perimeter
G1 X187.261 Y155.986 E7.07241 ; perimeter
G1 X186.170 Y158.343 E7.14955 ; perimeter
G1 X185.016 Y160.671 E7.22668 ; perimeter
G1 X183.802 Y162.968 E7.30382 ; perimeter
G1 X182.527 Y165.232 E7.38095 ; perimeter
G1 X181.194 Y167.462 E7.45809 ; perimeter
G1 X179.803 Y169.655 E7.53523 ; perimeter
G1 X178.354 Y171.812 E7.61236 ; perimeter
G1 X176.849 Y173.930 E7.68950 ; perimeter
G1 X175.301 Y175.991 E7.76605 ; perimeter
G1 X173.675 Y178.043 E7.84377 ; perimeter
G1 X172.008 Y180.035 E7.92091 ; perimeter
G1 X170.289 Y181.984 E7.99804 ; perimeter
G1 X168.520 Y183.886 E8.07519 ; perimeter
G1 X167.073 Y185.371 E8.13674 ; perimeter
G1 X165.899 Y184.197 E8.18605 ; perimeter
G1 X165.940 Y185.330 E8.21972 ; perimeter
G1 X165.898 Y185.771 E8.23289 ; perimeter
G1 X165.805 Y186.206 E8.24610 ; perimeter
G1 X165.662 Y186.628 E8.25932 ; perimeter
G1 X165.470 Y187.030 E8.27253 ; perimeter
G1 X165.234 Y187.407 E8.28574 ; perimeter
