; generated by Slic3r 1.2.9 on 2016-02-15 at 14:08:21

; external perimeters extrusion width = 0.40mm
; perimeters extrusion width = 0.67mm
; infill extrusion width = 0.67mm
; solid infill extrusion width = 0.67mm
; top infill extrusion width = 0.67mm

M107 ; disable fan
M104 S220 ; set temperature
M80 ; Power supply on
G28 ; home all axes

M109 S220 ; wait for temperature to be reached
G21 ; set units to millimeters
G90 ; use absolute coordinates
M82 ; use absolute distances for extrusion
G92 E0 ; reset extrusion distance
G1 E-1.00000 F480.00000 ; retract
G92 E0 ; reset extrusion distance
G1 Z0.200 F6600.000 ; move to next layer (0)
G1 X158.278 Y127.139 F6600.000 ; move to first skirt point
G1 E1.00000 F480.00000 ; unretract
G1 X159.931 Y125.622 E1.05651 F2100.000 ; skirt
G1 X160.735 Y124.981 E1.08242 ; skirt
G1 X163.120 Y123.861 E1.14879 ; skirt
G1 X163.973 Y123.684 E1.17074 ; skirt
G1 X164.806 Y123.606 E1.19181 ; skirt
G1 X181.809 Y123.028 E1.62034 ; skirt
G1 X187.309 Y123.028 E1.75888 ; skirt
G1 X189.646 Y123.425 E1.81857 ; skirt
G1 X191.720 Y124.572 E1.87827 F2100.000 ; skirt
G1 X193.299 Y126.339 E1.93797 ; skirt
G1 X194.204 Y128.530 E1.99766 ; skirt
G1 X194.381 Y130.099 E2.03744 ; skirt
G1 X194.381 Y133.099 E2.11300 ; skirt
G1 X194.161 Y134.850 E2.15745 ; skirt
G1 X191.610 Y144.822 E2.41673 ; skirt
G1 X191.158 Y146.402 E2.45812 ; skirt
G1 X190.726 Y147.774 E2.49434 ; skirt
G1 X190.189 Y149.327 E2.53574 ; skirt
G1 X189.532 Y151.055 E2.58232 ; skirt
G1 X188.900 Y152.573 E2.62371 ; skirt
G1 X188.224 Y154.071 E2.66511 ; skirt
G1 X180.273 Y170.227 E3.11866 ; skirt
G1 X179.847 Y171.016 E3.14125 ; skirt
G1 X179.388 Y171.738 E3.16280 ; skirt
G1 X179.054 Y172.201 E3.17719 ; skirt
G1 X178.564 Y172.804 E3.19675 ; skirt
G1 X178.211 Y173.195 E3.21002 ; skirt
G1 X177.806 Y173.603 E3.22451 ; skirt
G1 X177.269 Y174.090 E3.24277 ; skirt
G1 X176.721 Y174.529 E3.26044 ; skirt
G1 X175.813 Y175.152 E3.28818 ; skirt
G1 X175.141 Y175.541 E3.30775 ; skirt
G1 X174.657 Y175.787 E3.32142 ; skirt
G1 X174.147 Y176.017 E3.33551 ; skirt
G1 X173.452 Y176.287 E3.35428 ; skirt
G1 X172.803 Y176.494 E3.37144 ; skirt
G1 X172.260 Y176.638 E3.38560 ; skirt
G1 X171.733 Y176.753 E3.39919 ; skirt
G1 X170.966 Y176.876 E3.41876 ; skirt
G1 X170.211 Y176.948 E3.43785 ; skirt
G1 X169.554 Y176.972 E3.45442 ; skirt
G1 X151.104 Y176.968 E3.91913 ; skirt
G1 X150.350 Y176.921 E3.93817 ; skirt
G1 X149.690 Y176.842 E3.95490 ; skirt
G1 X148.910 Y176.705 E3.97485 ; skirt
G1 X148.173 Y176.519 E3.99401 ; skirt
G1 X147.538 Y176.322 E4.01074 ; skirt
G1 X146.785 Y176.039 E4.03101 ; skirt
G1 X145.798 Y175.573 E4.05850 ; skirt
G1 X145.135 Y175.192 E4.07777 ; skirt
G1 X144.578 Y174.829 E4.09450 ; skirt
G1 X143.948 Y174.366 E4.11421 ; skirt
G1 X143.361 Y173.867 E4.13360 ; skirt
G1 X142.880 Y173.409 E4.15034 ; skirt
G1 X142.348 Y172.842 E4.16993 ; skirt
G1 X141.859 Y172.240 E4.18944 ; skirt
G1 X141.470 Y171.702 E4.20618 ; skirt
G1 X141.045 Y171.038 E4.22606 ; skirt
G1 X140.533 Y170.074 E4.25355 ; skirt
G1 X140.224 Y169.357 E4.27320 ; skirt
G1 X139.996 Y168.733 E4.28994 ; skirt
G1 X139.769 Y167.984 E4.30965 ; skirt
G1 X139.536 Y166.902 E4.33752 ; skirt
G1 X139.404 Y165.819 E4.36501 ; skirt
G1 X139.370 Y164.713 E4.39288 ; skirt
G1 X139.411 Y163.923 E4.41280 ; skirt
G1 X139.484 Y163.263 E4.42953 ; skirt
G1 X139.607 Y162.516 E4.44861 ; skirt
G1 X139.684 Y162.173 E4.45745 ; skirt
G1 X139.875 Y161.442 E4.47648 ; skirt
G1 X139.984 Y161.106 E4.48537 ; skirt
G1 X140.241 Y160.398 E4.50435 ; skirt
G1 X140.381 Y160.071 E4.51330 ; skirt
G1 X140.754 Y159.288 E4.53515 ; skirt
G1 X156.814 Y129.033 E5.39793 ; skirt
G1 X158.241 Y127.187 E5.45671 ; skirt
G1 X158.519 Y127.402 F6600.000 ; move to first skirt point
G1 X160.172 Y125.885 E5.51323 F2100.000 ; skirt
G1 X160.944 Y125.271 E5.53809 ; skirt
G1 X163.209 Y124.207 E5.60111 ; skirt
G1 X164.028 Y124.037 E5.62217 ; skirt
G1 X164.818 Y123.963 E5.64218 ; skirt
G1 X181.809 Y123.385 E6.07039 ; skirt
G1 X187.309 Y123.385 E6.20893 ; skirt
G1 X189.584 Y123.782 E6.26709 ; skirt
G1 X191.590 Y124.926 E6.32525 F2100.000 ; skirt
G1 X193.089 Y126.682 E6.38341 ; skirt
G1 X193.905 Y128.842 E6.44157 ; skirt
G1 X194.024 Y130.099 E6.47337 ; skirt
G1 X194.024 Y133.099 E6.54894 ; skirt
G1 X193.815 Y134.761 E6.59114 ; skirt
G1 X191.266 Y144.725 E6.85018 ; skirt
G1 X190.818 Y146.295 E6.89132 ; skirt
G1 X190.324 Y147.852 E6.93245 ; skirt
G1 X189.852 Y149.210 E6.96867 ; skirt
G1 X189.202 Y150.919 E7.01472 ; skirt
G1 X188.574 Y152.426 E7.05586 ; skirt
G1 X187.903 Y153.915 E7.09700 ; skirt
G1 X179.953 Y170.069 E7.55048 ; skirt
G1 X179.537 Y170.838 E7.57251 ; skirt
G1 X179.096 Y171.533 E7.59324 ; skirt
G1 X178.771 Y171.982 E7.60721 ; skirt
G1 X178.292 Y172.573 E7.62637 ; skirt
G1 X177.555 Y173.348 E7.65329 ; skirt
G1 X177.038 Y173.817 E7.67089 ; skirt
G1 X176.508 Y174.242 E7.68799 ; skirt
G1 X175.628 Y174.848 E7.71491 ; skirt
G1 X174.969 Y175.228 E7.73407 ; skirt
G1 X174.500 Y175.466 E7.74732 ; skirt
G1 X174.005 Y175.689 E7.76100 ; skirt
G1 X173.334 Y175.949 E7.77911 ; skirt
G1 X172.707 Y176.150 E7.79570 ; skirt
G1 X172.180 Y176.290 E7.80945 ; skirt
G1 X171.668 Y176.401 E7.82263 ; skirt
G1 X170.917 Y176.522 E7.84179 ; skirt
G1 X170.189 Y176.592 E7.86021 ; skirt
G1 X169.554 Y176.615 E7.87623 ; skirt
G1 X151.115 Y176.611 E8.34066 ; skirt
G1 X150.376 Y176.565 E8.35933 ; skirt
G1 X149.748 Y176.490 E8.37524 ; skirt
G1 X148.986 Y176.356 E8.39474 ; skirt
G1 X148.263 Y176.174 E8.41351 ; skirt
G1 X147.660 Y175.986 E8.42942 ; skirt
G1 X146.923 Y175.710 E8.44925 ; skirt
G1 X145.966 Y175.258 E8.47591 ; skirt
G1 X145.316 Y174.884 E8.49479 ; skirt
G1 X144.787 Y174.539 E8.51070 ; skirt
G1 X144.170 Y174.087 E8.52998 ; skirt
G1 X143.595 Y173.598 E8.54898 ; skirt
G1 X143.138 Y173.162 E8.56489 ; skirt
G1 X142.617 Y172.607 E8.58406 ; skirt
G1 X142.139 Y172.018 E8.60317 ; skirt
G1 X141.769 Y171.506 E8.61908 ; skirt
G1 X141.352 Y170.856 E8.63853 ; skirt
G1 X140.856 Y169.921 E8.66520 ; skirt
G1 X140.554 Y169.219 E8.68445 ; skirt
G1 X140.337 Y168.626 E8.70036 ; skirt
G1 X140.114 Y167.892 E8.71966 ; skirt
G1 X139.888 Y166.843 E8.74671 ; skirt
G1 X139.760 Y165.792 E8.77337 ; skirt
G1 X139.727 Y164.719 E8.80042 ; skirt
G1 X139.768 Y163.946 E8.81991 ; skirt
G1 X139.836 Y163.318 E8.83582 ; skirt
G1 X139.957 Y162.586 E8.85450 ; skirt
G1 X140.031 Y162.260 E8.86292 ; skirt
G1 X140.217 Y161.544 E8.88155 ; skirt
G1 X140.321 Y161.225 E8.89001 ; skirt
G1 X140.572 Y160.531 E8.90860 ; skirt
G1 X140.705 Y160.220 E8.91711 ; skirt
G1 X141.069 Y159.456 E8.93844 ; skirt
G1 X157.129 Y129.201 E9.80122 ; skirt
G1 X158.482 Y127.450 E9.85696 ; skirt
G1 X158.761 Y127.665 F6600.000 ; move to first skirt point
G1 X160.413 Y126.148 E9.91348 F2100.000 ; skirt
G1 X161.154 Y125.560 E9.93729 ; skirt
G1 X163.298 Y124.553 E9.99696 ; skirt
G1 X164.082 Y124.390 E10.01713 ; skirt
G1 X164.831 Y124.320 E10.03608 ; skirt
G1 X181.809 Y123.742 E10.46398 ; skirt
G1 X187.309 Y123.742 E10.60252 ; skirt
G1 X189.520 Y124.139 E10.65910 ; skirt
G1 X191.455 Y125.280 E10.71568 F2100.000 ; skirt
G1 X192.873 Y127.022 E10.77226 ; skirt
G1 X193.667 Y130.099 E10.85229 ; skirt
G1 X193.667 Y133.099 E10.92786 ; skirt
G1 X193.469 Y134.673 E10.96781 ; skirt
G1 X190.966 Y144.467 E11.22243 ; skirt
G1 X190.477 Y146.188 E11.26749 ; skirt
G1 X189.987 Y147.734 E11.30837 ; skirt
G1 X189.515 Y149.093 E11.34458 ; skirt
G1 X188.872 Y150.782 E11.39012 ; skirt
G1 X188.248 Y152.280 E11.43099 ; skirt
G1 X187.582 Y153.760 E11.47187 ; skirt
G1 X179.633 Y169.911 E11.92528 ; skirt
G1 X179.227 Y170.661 E11.94676 ; skirt
G1 X178.803 Y171.327 E11.96666 ; skirt
G1 X178.489 Y171.764 E11.98022 ; skirt
G1 X178.019 Y172.342 E11.99897 ; skirt
G1 X177.305 Y173.093 E12.02507 ; skirt
G1 X176.807 Y173.545 E12.04201 ; skirt
G1 X176.296 Y173.955 E12.05853 ; skirt
G1 X175.442 Y174.543 E12.08463 ; skirt
G1 X174.797 Y174.915 E12.10338 ; skirt
G1 X174.343 Y175.145 E12.11622 ; skirt
G1 X173.862 Y175.362 E12.12949 ; skirt
G1 X173.217 Y175.612 E12.14693 ; skirt
G1 X172.611 Y175.806 E12.16295 ; skirt
G1 X172.099 Y175.942 E12.17629 ; skirt
G1 X171.378 Y176.091 E12.19484 ; skirt
G1 X170.869 Y176.168 E12.20781 ; skirt
G1 X170.167 Y176.235 E12.22556 ; skirt
G1 X169.554 Y176.258 E12.24103 ; skirt
G1 X151.126 Y176.254 E12.70519 ; skirt
G1 X150.401 Y176.208 E12.72348 ; skirt
G1 X149.807 Y176.138 E12.73856 ; skirt
G1 X149.061 Y176.007 E12.75763 ; skirt
G1 X148.353 Y175.828 E12.77601 ; skirt
G1 X147.782 Y175.650 E12.79110 ; skirt
G1 X147.061 Y175.380 E12.81048 ; skirt
G1 X146.133 Y174.943 E12.83633 ; skirt
G1 X145.497 Y174.576 E12.85482 ; skirt
G1 X144.995 Y174.250 E12.86990 ; skirt
G1 X144.392 Y173.807 E12.88874 ; skirt
G1 X143.830 Y173.328 E12.90735 ; skirt
G1 X143.396 Y172.915 E12.92243 ; skirt
G1 X142.886 Y172.373 E12.94118 ; skirt
G1 X142.418 Y171.796 E12.95989 ; skirt
G1 X142.067 Y171.311 E12.97497 ; skirt
G1 X141.659 Y170.674 E12.99401 ; skirt
G1 X141.178 Y169.768 E13.01985 ; skirt
G1 X140.883 Y169.081 E13.03869 ; skirt
G1 X140.677 Y168.519 E13.05377 ; skirt
G1 X140.459 Y167.801 E13.07266 ; skirt
G1 X140.240 Y166.783 E13.09889 ; skirt
G1 X140.116 Y165.765 E13.12473 ; skirt
G1 X140.084 Y164.724 E13.15095 ; skirt
G1 X140.124 Y163.968 E13.17002 ; skirt
G1 X140.189 Y163.373 E13.18511 ; skirt
G1 X140.307 Y162.657 E13.20338 ; skirt
G1 X140.377 Y162.347 E13.21138 ; skirt
G1 X140.560 Y161.647 E13.22962 ; skirt
G1 X140.658 Y161.343 E13.23765 ; skirt
G1 X140.903 Y160.664 E13.25584 ; skirt
G1 X141.030 Y160.369 E13.26392 ; skirt
G1 X141.384 Y159.623 E13.28473 ; skirt
G1 X157.444 Y129.368 E14.14751 ; skirt
G1 X158.724 Y127.713 E14.20020 ; skirt
G1 E13.20020 F480.00000 ; retract
G92 E0 ; reset extrusion distance
G1 X168.541 Y161.718 F6600.000 ; move to first perimeter point
G1 E1.00000 F480.00000 ; unretract
G1 X168.939 Y161.632 E1.01024 F900.000 ; perimeter
G1 X169.332 Y161.596 E1.02021 F900.000 ; perimeter
G1 X169.751 Y161.608 E1.03076 ; perimeter
G1 X170.154 Y161.672 E1.04102 ; perimeter
G1 X170.534 Y161.780 E1.05098 ; perimeter
G1 X170.920 Y161.943 E1.06154 ; perimeter
G1 X171.272 Y162.148 E1.07180 ; perimeter
G1 X171.588 Y162.386 E1.08176 ; perimeter
G1 X171.889 Y162.678 E1.09231 ; perimeter
G1 X172.144 Y162.996 E1.10259 ; perimeter
G1 X172.357 Y163.343 E1.11285 ; perimeter
G1 X172.527 Y163.713 E1.12309 ; perimeter
G1 X172.647 Y164.090 E1.13306 ; perimeter
G1 X172.724 Y164.501 E1.14361 ; perimeter
G1 X172.748 Y164.908 E1.15387 ; perimeter
G1 X172.723 Y165.303 E1.16383 ; perimeter
G1 X172.647 Y165.715 E1.17438 ; perimeter
G1 X172.522 Y166.103 E1.18466 ; perimeter
G1 X172.351 Y166.472 E1.19490 ; perimeter
G1 X172.143 Y166.808 E1.20485 ; perimeter
G1 X171.889 Y167.126 E1.21511 ; perimeter
G1 X171.587 Y167.418 E1.22568 ; perimeter
G1 X171.262 Y167.663 E1.23595 ; perimeter
G1 X170.908 Y167.866 E1.24621 ; perimeter
G1 X170.534 Y168.024 E1.25645 ; perimeter
G1 X170.153 Y168.132 E1.26642 ; perimeter
G1 X169.739 Y168.196 E1.27697 ; perimeter
G1 X169.332 Y168.208 E1.28723 ; perimeter
G1 X168.938 Y168.171 E1.29720 ; perimeter
G1 X168.529 Y168.082 E1.30773 ; perimeter
G1 X168.156 Y167.950 E1.31770 ; perimeter
G1 X167.791 Y167.770 E1.32796 ; perimeter
G1 X167.441 Y167.538 E1.33852 ; perimeter
G1 X167.132 Y167.272 E1.34880 ; perimeter
G1 X166.859 Y166.970 E1.35906 ; perimeter
G1 X166.624 Y166.638 E1.36930 ; perimeter
G1 X166.437 Y166.289 E1.37927 ; perimeter
G1 X166.286 Y165.899 E1.38982 ; perimeter
G1 X166.187 Y165.504 E1.40008 ; perimeter
G1 X166.139 Y165.111 E1.41004 ; perimeter
G1 X166.139 Y164.692 E1.42059 ; perimeter
G1 X166.190 Y164.287 E1.43087 ; perimeter
G1 X166.290 Y163.893 E1.44113 ; perimeter
G1 X166.437 Y163.514 E1.45137 ; perimeter
G1 X166.624 Y163.165 E1.46134 ; perimeter
G1 X166.867 Y162.823 E1.47189 ; perimeter
G1 X167.142 Y162.523 E1.48215 ; perimeter
G1 X167.442 Y162.265 E1.49211 ; perimeter
G1 X167.791 Y162.034 E1.50266 ; perimeter
G1 X168.157 Y161.853 E1.51294 ; perimeter
G1 X168.484 Y161.738 E1.52169 ; perimeter
G1 X168.602 Y162.075 F6600.000 ; move to first perimeter point
G1 X168.993 Y161.986 E1.53178 F900.000 ; perimeter
G1 X169.343 Y161.953 E1.54064 F900.000 ; perimeter
G1 X169.718 Y161.965 E1.55008 ; perimeter
G1 X170.077 Y162.021 E1.55923 ; perimeter
G1 X170.415 Y162.117 E1.56809 ; perimeter
G1 X170.760 Y162.263 E1.57753 ; perimeter
G1 X171.074 Y162.446 E1.58667 ; perimeter
G1 X171.355 Y162.658 E1.59554 ; perimeter
G1 X171.624 Y162.919 E1.60497 ; perimeter
G1 X171.851 Y163.202 E1.61413 ; perimeter
G1 X172.042 Y163.511 E1.62328 ; perimeter
G1 X172.193 Y163.841 E1.63242 ; perimeter
G1 X172.300 Y164.177 E1.64128 ; perimeter
G1 X172.368 Y164.545 E1.65072 ; perimeter
G1 X172.390 Y164.908 E1.65987 ; perimeter
G1 X172.368 Y165.259 E1.66873 ; perimeter
G1 X172.300 Y165.627 E1.67817 ; perimeter
G1 X172.189 Y165.973 E1.68732 ; perimeter
G1 X172.036 Y166.303 E1.69647 ; perimeter
G1 X171.851 Y166.602 E1.70532 ; perimeter
G1 X171.624 Y166.885 E1.71447 ; perimeter
G1 X171.355 Y167.146 E1.72391 ; perimeter
G1 X171.065 Y167.364 E1.73307 ; perimeter
G1 X170.750 Y167.545 E1.74222 ; perimeter
G1 X170.415 Y167.686 E1.75136 ; perimeter
G1 X170.077 Y167.783 E1.76023 ; perimeter
G1 X169.706 Y167.840 E1.76966 ; perimeter
G1 X169.343 Y167.850 E1.77881 ; perimeter
G1 X168.993 Y167.818 E1.78767 ; perimeter
G1 X168.627 Y167.738 E1.79710 ; perimeter
G1 X168.295 Y167.621 E1.80597 ; perimeter
G1 X167.970 Y167.460 E1.81512 ; perimeter
G1 X167.657 Y167.253 E1.82456 ; perimeter
G1 X167.382 Y167.016 E1.83371 ; perimeter
G1 X167.138 Y166.747 E1.84286 ; perimeter
G1 X166.929 Y166.450 E1.85200 ; perimeter
G1 X166.762 Y166.140 E1.86087 ; perimeter
G1 X166.627 Y165.791 E1.87030 ; perimeter
G1 X166.539 Y165.438 E1.87945 ; perimeter
G1 X166.496 Y165.089 E1.88831 ; perimeter
G1 X166.496 Y164.714 E1.89775 ; perimeter
G1 X166.541 Y164.354 E1.90690 ; perimeter
G1 X166.630 Y164.002 E1.91605 ; perimeter
G1 X166.762 Y163.663 E1.92520 ; perimeter
G1 X166.929 Y163.353 E1.93406 ; perimeter
G1 X167.145 Y163.048 E1.94350 ; perimeter
G1 X167.390 Y162.780 E1.95265 ; perimeter
G1 X167.658 Y162.551 E1.96151 ; perimeter
G1 X167.970 Y162.344 E1.97094 ; perimeter
G1 X168.295 Y162.183 E1.98010 ; perimeter
G1 X168.546 Y162.095 E1.98678 ; perimeter
G1 X168.706 Y161.689 F6600.000 ; move inwards before travel
G1 E0.98678 F480.00000 ; retract
G92 E0 ; reset extrusion distance
G1 X182.297 Y148.588 F6600.000 ; move to first perimeter point
G1 E1.00000 F480.00000 ; unretract
G1 X181.937 Y149.457 E1.02371 F1800.000 ; perimeter
G1 X181.381 Y150.695 E1.05788 ; perimeter
G1 X180.735 Y152.034 E1.09533 ; perimeter
G1 X180.079 Y153.295 E1.13113 ; perimeter
G1 X179.386 Y154.536 E1.16694 ; perimeter
G1 X178.657 Y155.757 E1.20275 ; perimeter
G1 X177.894 Y156.956 E1.23856 ; perimeter
G1 X177.095 Y158.132 E1.27437 ; perimeter
G1 X176.263 Y159.285 E1.31018 ; perimeter
G1 X175.399 Y160.411 E1.34593 ; perimeter
G1 X174.158 Y161.912 E1.39498 ; perimeter
G1 X173.973 Y162.228 E1.40420 ; perimeter
G1 X173.804 Y162.711 E1.41711 ; perimeter
G1 X173.729 Y163.093 E1.42691 ; perimeter
G1 X173.710 Y163.340 E1.43315 ; perimeter
G1 X173.725 Y163.660 E1.44121 ; perimeter
G1 X173.832 Y164.236 E1.45598 ; perimeter
G1 X173.875 Y164.645 E1.46633 ; perimeter
G1 X173.880 Y165.053 E1.47661 ; perimeter
G1 X173.847 Y165.460 E1.48688 ; perimeter
G1 X173.777 Y165.861 E1.49715 ; perimeter
G1 X173.671 Y166.255 E1.50743 ; perimeter
G1 X173.529 Y166.637 E1.51769 ; perimeter
G1 X173.346 Y167.018 E1.52833 ; perimeter
G1 X173.143 Y167.355 E1.53824 ; perimeter
G1 X172.902 Y167.685 E1.54852 ; perimeter
G1 X172.633 Y167.990 E1.55878 ; perimeter
G1 X172.330 Y168.275 E1.56925 ; perimeter
G1 X171.828 Y168.647 E1.58499 ; perimeter
G1 X171.484 Y168.846 E1.59501 ; perimeter
G1 X171.117 Y169.016 E1.60520 ; perimeter
G1 X170.736 Y169.151 E1.61538 ; perimeter
G1 X170.350 Y169.250 E1.62540 ; perimeter
G1 X169.732 Y169.334 E1.64113 ; perimeter
G1 X169.330 Y169.343 E1.65124 ; perimeter
G1 X168.923 Y169.314 E1.66151 ; perimeter
G1 X168.521 Y169.248 E1.67177 ; perimeter
G1 X168.118 Y169.142 E1.68228 ; perimeter
G1 X167.573 Y168.933 E1.69699 ; perimeter
G1 X167.219 Y168.749 E1.70704 ; perimeter
