; generated by Slic3r 1.2.9 on 2016-01-31 at 12:58:36

; external perimeters extrusion width = 0.40mm
; perimeters extrusion width = 0.67mm
; infill extrusion width = 0.67mm
; solid infill extrusion width = 0.67mm
; top infill extrusion width = 0.67mm

M107 ; disable fan
M104 S220 ; set temperature
M80 ; Power supply on
G28 ; home all axes

M109 S220 ; wait for temperature to be reached
G21 ; set units to millimeters
G90 ; use absolute coordinates
M82 ; use absolute distances for extrusion
G92 E0 ; reset extrusion distance
G1 E-1.00000 F480.00000 ; retract
G92 E0 ; reset extrusion distance
G1 Z0.200 F3600.000 ; move to next layer (0)
G1 X154.726 Y34.323 F3600.000 ; move to first skirt point
G1 E1.00000 F480.00000 ; unretract
G1 X155.865 Y32.426 E1.00891 F2100.000 ; skirt
G1 X157.600 Y31.053 E1.01782 ; skirt
G1 X160.500 Y30.329 E1.02985 ; skirt
G1 X175.500 Y30.329 E1.09025 ; skirt
G1 X177.677 Y30.726 E1.09916 ; skirt
G1 X179.574 Y31.865 E1.10807 F2100.000 ; skirt
G1 X180.947 Y33.600 E1.11698 ; skirt
G1 X181.671 Y36.500 E1.12901 ; skirt
G1 X181.671 Y263.500 E2.04300 ; skirt
G1 X181.274 Y265.677 E2.05191 ; skirt
G1 X180.135 Y267.574 E2.06082 ; skirt
G1 X178.400 Y268.947 E2.06973 ; skirt
G1 X175.500 Y269.671 E2.08177 ; skirt
G1 X160.500 Y269.671 E2.14216 ; skirt
G1 X158.323 Y269.274 E2.15107 ; skirt
G1 X156.426 Y268.135 E2.15998 ; skirt
G1 X155.053 Y266.400 E2.16889 ; skirt
G1 X154.329 Y263.500 E2.18093 ; skirt
G1 X154.329 Y36.500 E3.09491 ; skirt
G1 X154.715 Y34.382 E3.10358 ; skirt
G1 X154.772 Y34.392 F3600.000 ; move to first skirt point
G1 X154.783 Y34.333 E3.10382 F2100.000 ; skirt
G1 X155.921 Y32.448 E3.11269 ; skirt
G1 X157.654 Y31.089 E3.12156 ; skirt
G1 X160.500 Y30.386 E3.13336 ; skirt
G1 X175.500 Y30.386 E3.19376 ; skirt
G1 X177.667 Y30.783 E3.20263 ; skirt
G1 X179.552 Y31.921 E3.21149 F2100.000 ; skirt
G1 X180.911 Y33.654 E3.22036 ; skirt
G1 X181.614 Y36.500 E3.23217 ; skirt
G1 X181.614 Y263.500 E4.14615 ; skirt
G1 X181.217 Y265.667 E4.15502 ; skirt
G1 X180.079 Y267.552 E4.16389 ; skirt
G1 X178.346 Y268.911 E4.17276 ; skirt
G1 X175.500 Y269.614 E4.18456 ; skirt
G1 X160.500 Y269.614 E4.24496 ; skirt
G1 X158.333 Y269.217 E4.25382 ; skirt
G1 X156.448 Y268.079 E4.26269 ; skirt
G1 X155.089 Y266.346 E4.27156 ; skirt
G1 X154.386 Y263.500 E4.28336 ; skirt
G1 X154.386 Y36.500 E5.19735 ; skirt
G1 X154.761 Y34.451 E5.20574 ; skirt
G1 X154.818 Y34.462 F3600.000 ; move to first skirt point
G1 X154.840 Y34.344 E5.20622 F2100.000 ; skirt
G1 X155.978 Y32.470 E5.21504 ; skirt
G1 X157.708 Y31.125 E5.22387 ; skirt
G1 X160.500 Y30.443 E5.23544 ; skirt
G1 X175.500 Y30.443 E5.29584 ; skirt
G1 X177.656 Y30.840 E5.30466 ; skirt
G1 X179.530 Y31.978 E5.31349 F2100.000 ; skirt
G1 X180.875 Y33.708 E5.32232 ; skirt
G1 X181.557 Y36.500 E5.33389 ; skirt
G1 X181.557 Y263.500 E6.24788 ; skirt
G1 X181.160 Y265.656 E6.25670 ; skirt
G1 X180.022 Y267.530 E6.26553 ; skirt
G1 X178.292 Y268.875 E6.27436 ; skirt
G1 X175.500 Y269.557 E6.28593 ; skirt
G1 X160.500 Y269.557 E6.34632 ; skirt
G1 X158.344 Y269.160 E6.35515 ; skirt
G1 X156.470 Y268.022 E6.36397 ; skirt
G1 X155.125 Y266.292 E6.37280 ; skirt
G1 X154.443 Y263.500 E6.38437 ; skirt
G1 X154.443 Y36.500 E7.29836 ; skirt
G1 X154.807 Y34.521 E7.30646 ; skirt
G1 E6.30646 F480.00000 ; retract
G92 E0 ; reset extrusion distance
G1 X167.491 Y92.942 F3600.000 ; move to first perimeter point
G1 E1.00000 F480.00000 ; unretract
G1 X167.993 Y92.893 E1.00203 F1800.000 ; perimeter
G1 X168.509 Y92.942 E1.00412 ; perimeter
G1 X168.998 Y93.091 E1.00617 ; perimeter
G1 X169.449 Y93.332 E1.00823 ; perimeter
G1 X169.844 Y93.656 E1.01029 ; perimeter
G1 X170.168 Y94.051 E1.01235 ; perimeter
G1 X170.409 Y94.502 E1.01441 ; perimeter
G1 X170.557 Y94.991 E1.01646 ; perimeter
G1 X170.607 Y95.495 E1.01850 ; perimeter
G1 X170.607 Y255.505 E1.66276 ; perimeter
G1 X170.557 Y256.009 E1.66480 ; perimeter
G1 X170.409 Y256.498 E1.66686 ; perimeter
G1 X170.168 Y256.949 E1.66892 ; perimeter
G1 X169.844 Y257.344 E1.67098 ; perimeter
G1 X169.449 Y257.668 E1.67303 ; perimeter
G1 X168.998 Y257.909 E1.67509 ; perimeter
G1 X168.509 Y258.057 E1.67715 ; perimeter
G1 X168.000 Y258.108 E1.67921 ; perimeter
G1 X167.491 Y258.057 E1.68127 ; perimeter
G1 X167.002 Y257.909 E1.68333 ; perimeter
G1 X166.551 Y257.668 E1.68538 ; perimeter
G1 X166.156 Y257.344 E1.68744 ; perimeter
G1 X165.832 Y256.949 E1.68950 ; perimeter
G1 X165.591 Y256.498 E1.69156 ; perimeter
G1 X165.443 Y256.009 E1.69362 ; perimeter
G1 X165.393 Y255.505 E1.69565 ; perimeter
G1 X165.393 Y95.495 E2.33992 ; perimeter
G1 X165.443 Y94.991 E2.34195 ; perimeter
G1 X165.591 Y94.502 E2.34401 ; perimeter
G1 X165.832 Y94.051 E2.34607 ; perimeter
G1 X166.156 Y93.656 E2.34813 ; perimeter
G1 X166.551 Y93.332 E2.35019 ; perimeter
G1 X167.002 Y93.091 E2.35224 ; perimeter
G1 X167.434 Y92.960 E2.35406 ; perimeter
G1 X167.450 Y93.014 F3600.000 ; move to first perimeter point
G1 X167.502 Y92.999 E2.35428 F900.000 ; perimeter
G1 X167.993 Y92.950 E2.35626 F900.000 ; perimeter
G1 X168.497 Y92.999 E2.35830 ; perimeter
G1 X168.976 Y93.144 E2.36032 ; perimeter
G1 X169.417 Y93.379 E2.36233 ; perimeter
G1 X169.803 Y93.696 E2.36434 ; perimeter
G1 X170.120 Y94.083 E2.36636 ; perimeter
G1 X170.356 Y94.524 E2.36837 ; perimeter
G1 X170.501 Y95.002 E2.37038 ; perimeter
G1 X170.550 Y95.498 E2.37239 ; perimeter
G1 X170.550 Y255.502 E3.01663 ; perimeter
G1 X170.501 Y255.998 E3.01863 ; perimeter
G1 X170.356 Y256.476 E3.02064 ; perimeter
G1 X170.120 Y256.917 E3.02265 ; perimeter
G1 X169.803 Y257.303 E3.02467 ; perimeter
G1 X169.417 Y257.620 E3.02668 ; perimeter
G1 X168.976 Y257.856 E3.02869 ; perimeter
G1 X168.498 Y258.001 E3.03071 ; perimeter
G1 X168.000 Y258.050 E3.03272 ; perimeter
G1 X167.502 Y258.001 E3.03473 ; perimeter
G1 X167.024 Y257.856 E3.03675 ; perimeter
G1 X166.583 Y257.620 E3.03876 ; perimeter
G1 X166.197 Y257.303 E3.04077 ; perimeter
G1 X165.880 Y256.917 E3.04278 ; perimeter
G1 X165.644 Y256.476 E3.04480 ; perimeter
G1 X165.499 Y255.998 E3.04681 ; perimeter
G1 X165.450 Y255.502 E3.04881 ; perimeter
G1 X165.450 Y95.498 E3.69305 ; perimeter
G1 X165.499 Y95.002 E3.69506 ; perimeter
G1 X165.644 Y94.524 E3.69707 ; perimeter
G1 X165.880 Y94.083 E3.69908 ; perimeter
G1 X166.197 Y93.696 E3.70110 ; perimeter
G1 X166.583 Y93.379 E3.70311 ; perimeter
G1 X167.024 Y93.144 E3.70512 ; perimeter
G1 X167.393 Y93.032 E3.70667 ; perimeter
G1 X167.463 Y92.962 F3600.000 ; move inwards before travel
G1 E2.70667 F480.00000 ; retract
G92 E0 ; reset extrusion distance
G1 X175.393 Y144.824 F3600.000 ; move to first perimeter point
G1 E1.00000 F480.00000 ; unretract
G1 X175.393 Y263.393 E1.47740 F1800.000 ; perimeter
G1 X160.607 Y263.393 E1.53694 F1800.000 ; perimeter
G1 X160.607 Y36.607 E2.45006 ; perimeter
G1 X175.393 Y36.607 E2.50959 ; perimeter
G1 X175.393 Y144.764 E2.94507 ; perimeter
G1 X175.450 Y144.764 F3600.000 ; move to first perimeter point
G1 X175.450 Y263.450 E3.42295 F900.000 ; perimeter
G1 X160.550 Y263.450 E3.48294 F900.000 ; perimeter
G1 X160.550 Y36.550 E4.39653 ; perimeter
G1 X175.450 Y36.550 E4.45652 ; perimeter
G1 X175.450 Y144.704 E4.89199 ; perimeter
G1 X175.104 Y144.964 F3600.000 ; move inwards before travel
G1 X175.377 Y144.703 F3600.000 ; move to first infill point
G1 X170.623 Y139.950 E4.91905 F1800.000 ; infill
G1 X170.623 Y139.870 F3600.000 ; move to first infill point
G1 X175.377 Y144.623 E4.94612 F1800.000 ; infill
G1 X175.377 Y144.542 F3600.000 ; move to first infill point
G1 X170.623 Y139.789 E4.97319 F1800.000 ; infill
G1 X170.623 Y139.708 F3600.000 ; move to first infill point
G1 X175.377 Y144.461 E5.00025 F1800.000 ; infill
G1 X175.377 Y144.380 F3600.000 ; move to first infill point
G1 X170.623 Y139.627 E5.02732 F1800.000 ; infill
G1 X170.623 Y139.547 F3600.000 ; move to first infill point
G1 X175.377 Y144.300 E5.05439 F1800.000 ; infill
G1 X175.377 Y144.219 F3600.000 ; move to first infill point
G1 X170.623 Y139.466 E5.08145 F1800.000 ; infill
G1 X170.623 Y139.385 F3600.000 ; move to first infill point
G1 X175.377 Y144.138 E5.10852 F1800.000 ; infill
G1 X175.377 Y144.058 F3600.000 ; move to first infill point
G1 X170.623 Y139.304 E5.13559 F1800.000 ; infill
G1 X170.623 Y139.224 F3600.000 ; move to first infill point
G1 X175.377 Y143.977 E5.16266 F1800.000 ; infill
G1 X175.377 Y143.896 F3600.000 ; move to first infill point
G1 X170.623 Y139.143 E5.18972 F1800.000 ; infill
G1 X170.623 Y139.062 F3600.000 ; move to first infill point
G1 X175.377 Y143.815 E5.21679 F1800.000 ; infill
G1 X175.377 Y143.735 F3600.000 ; move to first infill point
G1 X170.623 Y138.982 E5.24386 F1800.000 ; infill
G1 X170.623 Y138.901 F3600.000 ; move to first infill point
G1 X175.377 Y143.654 E5.27092 F1800.000 ; infill
G1 X175.377 Y143.573 F3600.000 ; move to first infill point
G1 X170.623 Y138.820 E5.29799 F1800.000 ; infill
G1 X170.623 Y138.739 F3600.000 ; move to first infill point
G1 X175.377 Y143.492 E5.32506 F1800.000 ; infill
G1 X175.377 Y143.412 F3600.000 ; move to first infill point
G1 X170.623 Y138.659 E5.35212 F1800.000 ; infill
G1 X170.623 Y138.578 F3600.000 ; move to first infill point
G1 X175.377 Y143.331 E5.37919 F1800.000 ; infill
G1 X175.377 Y143.250 F3600.000 ; move to first infill point
G1 X170.623 Y138.497 E5.40626 F1800.000 ; infill
G1 X170.623 Y138.416 F3600.000 ; move to first infill point
G1 X175.377 Y143.170 E5.43332 F1800.000 ; infill
G1 X175.377 Y143.089 F3600.000 ; move to first infill point
G1 X170.623 Y138.336 E5.46039 F1800.000 ; infill
G1 X170.623 Y138.255 F3600.000 ; move to first infill point
G1 X175.377 Y143.008 E5.48746 F1800.000 ; infill
G1 X175.377 Y142.927 F3600.000 ; move to first infill point
G1 X170.623 Y138.174 E5.51452 F1800.000 ; infill
G1 X170.623 Y138.094 F3600.000 ; move to first infill point
G1 X175.377 Y142.847 E5.54159 F1800.000 ; infill
G1 X175.377 Y142.766 F3600.000 ; move to first infill point
G1 X170.623 Y138.013 E5.56866 F1800.000 ; infill
G1 X170.623 Y137.932 F3600.000 ; move to first infill point
G1 X175.377 Y142.685 E5.59572 F1800.000 ; infill
G1 X175.377 Y142.604 F3600.000 ; move to first infill point
G1 X170.623 Y137.851 E5.62279 F1800.000 ; infill
G1 X170.623 Y137.771 F3600.000 ; move to first infill point
G1 X175.377 Y142.524 E5.64986 F1800.000 ; infill
G1 X175.377 Y142.443 F3600.000 ; move to first infill point
G1 X170.623 Y137.690 E5.67692 F1800.000 ; infill
G1 X170.623 Y137.609 F3600.000 ; move to first infill point
G1 X175.377 Y142.362 E5.70399 F1800.000 ; infill
G1 X175.377 Y142.282 F3600.000 ; move to first infill point
G1 X170.623 Y137.528 E5.73106 F1800.000 ; infill
G1 X170.623 Y137.448 F3600.000 ; move to first infill point
G1 X175.377 Y142.201 E5.75813 F1800.000 ; infill
G1 X175.377 Y142.120 F3600.000 ; move to first infill point
G1 X170.623 Y137.367 E5.78519 F1800.000 ; infill
G1 X170.623 Y137.286 F3600.000 ; move to first infill point
G1 X175.377 Y142.039 E5.81226 F1800.000 ; infill
G1 X175.377 Y141.959 F3600.000 ; move to first infill point
G1 X170.623 Y137.206 E5.83933 F1800.000 ; infill
G1 X170.623 Y137.125 F3600.000 ; move to first infill point
G1 X175.377 Y141.878 E5.86639 F1800.000 ; infill
G1 X175.377 Y141.797 F3600.000 ; move to first infill point
G1 X170.623 Y137.044 E5.89346 F1800.000 ; infill
G1 X170.623 Y136.963 F3600.000 ; move to first infill point
G1 X175.377 Y141.716 E5.92053 F1800.000 ; infill
G1 X175.377 Y141.636 F3600.000 ; move to first infill point
G1 X170.623 Y136.883 E5.94759 F1800.000 ; infill
G1 X170.623 Y136.802 F3600.000 ; move to first infill point
G1 X175.377 Y141.555 E5.97466 F1800.000 ; infill
G1 X175.377 Y141.474 F3600.000 ; move to first infill point
G1 X170.623 Y136.721 E6.00173 F1800.000 ; infill
G1 X170.623 Y136.640 F3600.000 ; move to first infill point
G1 X175.377 Y141.393 E6.02879 F1800.000 ; infill
G1 X175.377 Y141.313 F3600.000 ; move to first infill point
G1 X170.623 Y136.560 E6.05586 F1800.000 ; infill
G1 X170.623 Y136.479 F3600.000 ; move to first infill point
G1 X175.377 Y141.232 E6.08293 F1800.000 ; infill
G1 X175.377 Y141.151 F3600.000 ; move to first infill point
G1 X170.623 Y136.398 E6.10999 F1800.000 ; infill
G1 X170.623 Y136.318 F3600.000 ; move to first infill point
G1 X175.377 Y141.071 E6.13706 F1800.000 ; infill
G1 X175.377 Y140.990 F3600.000 ; move to first infill point
G1 X170.623 Y136.237 E6.16413 F1800.000 ; infill
G1 X170.623 Y136.156 F3600.000 ; move to first infill point
G1 X175.377 Y140.909 E6.19119 F1800.000 ; infill
G1 X175.377 Y140.828 F3600.000 ; move to first infill point
G1 X170.623 Y136.075 E6.21826 F1800.000 ; infill
G1 X170.623 Y135.995 F3600.000 ; move to first infill point
G1 X175.377 Y140.748 E6.24533 F1800.000 ; infill
G1 X175.377 Y140.667 F3600.000 ; move to first infill point
G1 X170.623 Y135.914 E6.27239 F1800.000 ; infill
G1 X170.623 Y135.833 F3600.000 ; move to first infill point
G1 X175.377 Y140.586 E6.29946 F1800.000 ; infill
G1 X175.377 Y140.505 F3600.000 ; move to first infill point
G1 X170.623 Y135.752 E6.32653 F1800.000 ; infill
G1 X170.623 Y135.672 F3600.000 ; move to first infill point
G1 X175.377 Y140.425 E6.35359 F1800.000 ; infill
G1 X175.377 Y140.344 F3600.000 ; move to first infill point
G1 X170.623 Y135.591 E6.38066 F1800.000 ; infill
G1 X170.623 Y135.510 F3600.000 ; move to first infill point
G1 X175.377 Y140.263 E6.40773 F1800.000 ; infill
G1 X175.377 Y140.183 F3600.000 ; move to first infill point
G1 X170.623 Y135.429 E6.43480 F1800.000 ; infill
G1 X170.623 Y135.349 F3600.000 ; move to first infill point
G1 X175.377 Y140.102 E6.46186 F1800.000 ; infill
G1 X175.377 Y140.021 F3600.000 ; move to first infill point
G1 X170.623 Y135.268 E6.48893 F1800.000 ; infill
G1 X170.623 Y135.187 F3600.000 ; move to first infill point
G1 X175.377 Y139.940 E6.51600 F1800.000 ; infill
G1 X175.377 Y139.860 F3600.000 ; move to first infill point
G1 X170.623 Y135.107 E6.54306 F1800.000 ; infill
G1 X170.623 Y135.026 F3600.000 ; move to first infill point
G1 X175.377 Y139.779 E6.57013 F1800.000 ; infill
G1 X175.377 Y139.698 F3600.000 ; move to first infill point
G1 X170.623 Y134.945 E6.59720 F1800.000 ; infill
G1 X170.623 Y134.864 F3600.000 ; move to first infill point
G1 X175.377 Y139.617 E6.62426 F1800.000 ; infill
G1 X175.377 Y139.537 F3600.000 ; move to first infill point
G1 X170.623 Y134.784 E6.65133 F1800.000 ; infill
G1 X170.623 Y134.703 F3600.000 ; move to first infill point
G1 X175.377 Y139.456 E6.67840 F1800.000 ; infill
G1 X175.377 Y139.375 F3600.000 ; move to first infill point
G1 X170.623 Y134.622 E6.70546 F1800.000 ; infill
G1 X170.623 Y134.541 F3600.000 ; move to first infill point
G1 X175.377 Y139.295 E6.73253 F1800.000 ; infill
G1 X175.377 Y139.214 F3600.000 ; move to first infill point
G1 X170.623 Y134.461 E6.75960 F1800.000 ; infill
G1 X170.623 Y134.380 F3600.000 ; move to first infill point
G1 X175.377 Y139.133 E6.78666 F1800.000 ; infill
G1 X175.377 Y139.052 F3600.000 ; move to first infill point
G1 X170.623 Y134.299 E6.81373 F1800.000 ; infill
G1 X170.623 Y134.219 F3600.000 ; move to first infill point
G1 X175.377 Y138.972 E6.84080 F1800.000 ; infill
G1 X175.377 Y138.891 F3600.000 ; move to first infill point
G1 X170.623 Y134.138 E6.86786 F1800.000 ; infill
G1 X170.623 Y134.057 F3600.000 ; move to first infill point
G1 X175.377 Y138.810 E6.89493 F1800.000 ; infill
G1 X175.377 Y138.729 F3600.000 ; move to first infill point
G1 X170.623 Y133.976 E6.92200 F1800.000 ; infill
G1 X170.623 Y133.896 F3600.000 ; move to first infill point
G1 X175.377 Y138.649 E6.94906 F1800.000 ; infill
G1 X175.377 Y138.568 F3600.000 ; move to first infill point
G1 X170.623 Y133.815 E6.97613 F1800.000 ; infill
G1 X170.623 Y133.734 F3600.000 ; move to first infill point
G1 X175.377 Y138.487 E7.00320 F1800.000 ; infill
G1 X175.377 Y138.406 F3600.000 ; move to first infill point
G1 X170.623 Y133.653 E7.03027 F1800.000 ; infill
G1 X170.623 Y133.573 F3600.000 ; move to first infill point
G1 X175.377 Y138.326 E7.05733 F1800.000 ; infill
G1 X175.377 Y138.245 F3600.000 ; move to first infill point
G1 X170.623 Y133.492 E7.08440 F1800.000 ; infill
