; generated by Slic3r 1.2.9 on 2016-01-18 at 21:44:13

; external perimeters extrusion width = 0.40mm
; perimeters extrusion width = 0.67mm
; infill extrusion width = 0.67mm
; solid infill extrusion width = 0.67mm
; top infill extrusion width = 0.67mm

M107 ; disable fan
M104 S220 ; set temperature
M80 ; Power supply on
G28 ; home all axes

M109 S220 ; wait for temperature to be reached
G21 ; set units to millimeters
G90 ; use absolute coordinates
M82 ; use absolute distances for extrusion
G92 E0 ; reset extrusion distance
G1 E-1.00000 F480.00000 ; retract
G92 E0 ; reset extrusion distance
G1 Z0.200 F3600.000 ; move to next layer (0)
G1 X151.865 Y124.426 F3600.000 ; move to first skirt point
G1 E1.00000 F480.00000 ; unretract
G1 X153.600 Y123.053 E1.00891 F2100.000 ; skirt
G1 X156.500 Y122.329 E1.02094 ; skirt
G1 X179.500 Y122.329 E1.11355 ; skirt
G1 X181.677 Y122.726 E1.12246 ; skirt
G1 X183.574 Y123.865 E1.13137 F2100.000 ; skirt
G1 X184.947 Y125.600 E1.14028 ; skirt
G1 X185.671 Y128.500 E1.15232 ; skirt
G1 X185.671 Y171.500 E1.32545 ; skirt
G1 X185.274 Y173.677 E1.33436 ; skirt
G1 X184.135 Y175.574 E1.34327 ; skirt
G1 X182.400 Y176.947 E1.35218 ; skirt
G1 X179.500 Y177.671 E1.36421 ; skirt
G1 X156.500 Y177.671 E1.45682 ; skirt
G1 X154.323 Y177.274 E1.46573 ; skirt
G1 X152.426 Y176.135 E1.47464 ; skirt
G1 X151.053 Y174.400 E1.48355 ; skirt
G1 X150.329 Y171.500 E1.49559 ; skirt
G1 X150.329 Y128.500 E1.66872 ; skirt
G1 X150.726 Y126.323 E1.67763 ; skirt
G1 X151.834 Y124.477 E1.68630 ; skirt
G1 X151.885 Y124.508 F3600.000 ; move to first skirt point
G1 X151.921 Y124.448 E1.68658 F2100.000 ; skirt
G1 X153.654 Y123.089 E1.69545 ; skirt
G1 X156.500 Y122.386 E1.70725 ; skirt
G1 X179.500 Y122.386 E1.79986 ; skirt
G1 X181.667 Y122.783 E1.80873 ; skirt
G1 X183.552 Y123.921 E1.81759 F2100.000 ; skirt
G1 X184.911 Y125.654 E1.82646 ; skirt
G1 X185.614 Y128.500 E1.83827 ; skirt
G1 X185.614 Y171.500 E2.01140 ; skirt
G1 X185.217 Y173.667 E2.02027 ; skirt
G1 X184.079 Y175.552 E2.02914 ; skirt
G1 X182.346 Y176.911 E2.03800 ; skirt
G1 X179.500 Y177.614 E2.04981 ; skirt
G1 X156.500 Y177.614 E2.14241 ; skirt
G1 X154.333 Y177.217 E2.15128 ; skirt
G1 X152.448 Y176.079 E2.16015 ; skirt
G1 X151.089 Y174.346 E2.16902 ; skirt
G1 X150.386 Y171.500 E2.18082 ; skirt
G1 X150.386 Y128.500 E2.35396 ; skirt
G1 X150.783 Y126.333 E2.36282 ; skirt
G1 X151.854 Y124.559 E2.37117 ; skirt
G1 X151.905 Y124.590 F3600.000 ; move to first skirt point
G1 X151.978 Y124.470 E2.37173 F2100.000 ; skirt
G1 X153.708 Y123.125 E2.38056 ; skirt
G1 X156.500 Y122.443 E2.39213 ; skirt
G1 X179.500 Y122.443 E2.48474 ; skirt
G1 X181.656 Y122.840 E2.49356 ; skirt
G1 X183.530 Y123.978 E2.50239 F2100.000 ; skirt
G1 X184.875 Y125.708 E2.51122 ; skirt
G1 X185.557 Y128.500 E2.52279 ; skirt
G1 X185.557 Y171.500 E2.69592 ; skirt
G1 X185.160 Y173.656 E2.70475 ; skirt
G1 X184.022 Y175.530 E2.71358 ; skirt
G1 X182.292 Y176.875 E2.72240 ; skirt
G1 X179.500 Y177.557 E2.73397 ; skirt
G1 X156.500 Y177.557 E2.82658 ; skirt
G1 X154.344 Y177.160 E2.83541 ; skirt
G1 X152.470 Y176.022 E2.84423 ; skirt
G1 X151.125 Y174.292 E2.85306 ; skirt
G1 X150.443 Y171.500 E2.86463 ; skirt
G1 X150.443 Y128.500 E3.03776 ; skirt
G1 X150.840 Y126.344 E3.04659 ; skirt
G1 X151.874 Y124.642 E3.05461 ; skirt
G1 E2.05461 F480.00000 ; retract
G92 E0 ; reset extrusion distance
G1 X166.789 Y162.076 F3600.000 ; move to first perimeter point
G1 E1.00000 F480.00000 ; unretract
G1 X167.390 Y161.895 E1.00253 F450.000 ; perimeter
G1 X168.000 Y161.835 E1.00499 F450.000 ; perimeter
G1 X168.617 Y161.896 E1.00749 ; perimeter
G1 X169.211 Y162.076 E1.00999 ; perimeter
G1 X169.758 Y162.368 E1.01249 ; perimeter
G1 X170.238 Y162.762 E1.01499 ; perimeter
G1 X170.632 Y163.242 E1.01749 ; perimeter
G1 X170.924 Y163.789 E1.01998 ; perimeter
G1 X171.104 Y164.383 E1.02248 ; perimeter
G1 X171.165 Y165.000 E1.02498 ; perimeter
G1 X171.104 Y165.617 E1.02748 ; perimeter
G1 X170.924 Y166.211 E1.02998 ; perimeter
G1 X170.632 Y166.758 E1.03247 ; perimeter
G1 X170.238 Y167.238 E1.03497 ; perimeter
G1 X169.758 Y167.632 E1.03747 ; perimeter
G1 X169.211 Y167.924 E1.03997 ; perimeter
G1 X168.617 Y168.104 E1.04247 ; perimeter
G1 X168.000 Y168.165 E1.04496 ; perimeter
G1 X167.383 Y168.104 E1.04746 ; perimeter
G1 X166.789 Y167.924 E1.04996 ; perimeter
G1 X166.242 Y167.632 E1.05246 ; perimeter
G1 X165.762 Y167.238 E1.05496 ; perimeter
G1 X165.368 Y166.758 E1.05746 ; perimeter
G1 X165.076 Y166.211 E1.05995 ; perimeter
G1 X164.896 Y165.617 E1.06245 ; perimeter
G1 X164.835 Y165.000 E1.06495 ; perimeter
G1 X164.896 Y164.383 E1.06745 ; perimeter
G1 X165.076 Y163.789 E1.06995 ; perimeter
G1 X165.368 Y163.242 E1.07244 ; perimeter
G1 X165.762 Y162.762 E1.07494 ; perimeter
G1 X166.242 Y162.368 E1.07744 ; perimeter
G1 X166.736 Y162.104 E1.07970 ; perimeter
G1 X166.763 Y162.155 F3600.000 ; move to first perimeter point
G1 X167.401 Y161.951 E1.08239 F450.000 ; perimeter
G1 X168.000 Y161.892 E1.08482 F450.000 ; perimeter
G1 X168.606 Y161.952 E1.08727 ; perimeter
G1 X169.189 Y162.129 E1.08972 ; perimeter
G1 X169.726 Y162.416 E1.09218 ; perimeter
G1 X170.197 Y162.803 E1.09463 ; perimeter
G1 X170.584 Y163.274 E1.09708 ; perimeter
G1 X170.871 Y163.811 E1.09953 ; perimeter
G1 X171.048 Y164.394 E1.10199 ; perimeter
G1 X171.108 Y165.000 E1.10444 ; perimeter
G1 X171.048 Y165.606 E1.10689 ; perimeter
G1 X170.871 Y166.189 E1.10935 ; perimeter
G1 X170.584 Y166.726 E1.11180 ; perimeter
G1 X170.197 Y167.197 E1.11425 ; perimeter
G1 X169.726 Y167.584 E1.11670 ; perimeter
G1 X169.189 Y167.871 E1.11916 ; perimeter
G1 X168.606 Y168.048 E1.12161 ; perimeter
G1 X168.000 Y168.108 E1.12406 ; perimeter
G1 X167.394 Y168.048 E1.12652 ; perimeter
G1 X166.811 Y167.871 E1.12897 ; perimeter
G1 X166.274 Y167.584 E1.13142 ; perimeter
G1 X165.803 Y167.197 E1.13387 ; perimeter
G1 X165.416 Y166.726 E1.13633 ; perimeter
G1 X165.129 Y166.189 E1.13878 ; perimeter
G1 X164.952 Y165.606 E1.14123 ; perimeter
G1 X164.892 Y165.000 E1.14369 ; perimeter
G1 X164.952 Y164.394 E1.14614 ; perimeter
G1 X165.129 Y163.811 E1.14859 ; perimeter
G1 X165.416 Y163.274 E1.15104 ; perimeter
G1 X165.803 Y162.803 E1.15350 ; perimeter
G1 X166.274 Y162.416 E1.15595 ; perimeter
G1 X166.710 Y162.183 E1.15794 ; perimeter
G1 X166.737 Y162.233 F3600.000 ; move to first perimeter point
G1 X166.833 Y162.182 E1.15838 F450.000 ; perimeter
G1 X167.412 Y162.008 E1.16082 ; perimeter
G1 X168.000 Y161.950 E1.16319 F450.000 ; perimeter
G1 X168.595 Y162.008 E1.16560 ; perimeter
G1 X169.167 Y162.182 E1.16801 ; perimeter
G1 X169.695 Y162.464 E1.17042 ; perimeter
G1 X170.157 Y162.843 E1.17282 ; perimeter
G1 X170.536 Y163.305 E1.17523 ; perimeter
G1 X170.818 Y163.833 E1.17764 ; perimeter
G1 X170.992 Y164.405 E1.18005 ; perimeter
G1 X171.050 Y165.000 E1.18246 ; perimeter
G1 X170.992 Y165.595 E1.18486 ; perimeter
G1 X170.818 Y166.167 E1.18727 ; perimeter
G1 X170.536 Y166.695 E1.18968 ; perimeter
G1 X170.157 Y167.157 E1.19209 ; perimeter
G1 X169.695 Y167.536 E1.19449 ; perimeter
G1 X169.167 Y167.818 E1.19690 ; perimeter
G1 X168.595 Y167.992 E1.19931 ; perimeter
G1 X168.000 Y168.050 E1.20172 ; perimeter
G1 X167.405 Y167.992 E1.20412 ; perimeter
G1 X166.833 Y167.818 E1.20653 ; perimeter
G1 X166.305 Y167.536 E1.20894 ; perimeter
G1 X165.843 Y167.157 E1.21135 ; perimeter
G1 X165.464 Y166.695 E1.21375 ; perimeter
G1 X165.182 Y166.167 E1.21616 ; perimeter
G1 X165.008 Y165.595 E1.21857 ; perimeter
G1 X164.950 Y165.000 E1.22098 ; perimeter
G1 X165.008 Y164.405 E1.22338 ; perimeter
G1 X165.182 Y163.833 E1.22579 ; perimeter
G1 X165.464 Y163.305 E1.22820 ; perimeter
G1 X165.843 Y162.843 E1.23061 ; perimeter
G1 X166.305 Y162.464 E1.23301 ; perimeter
G1 X166.684 Y162.261 E1.23474 ; perimeter
G1 X166.741 Y162.125 F3600.000 ; move inwards before travel
G1 X168.002 Y138.165 F3600.000 ; move to first perimeter point
G1 X167.442 Y138.122 E1.23700 F450.000 ; perimeter
G1 X166.789 Y137.924 E1.23975 ; perimeter
G1 X166.242 Y137.632 E1.24225 ; perimeter
G1 X165.762 Y137.238 E1.24475 ; perimeter
G1 X165.368 Y136.758 E1.24725 ; perimeter
G1 X165.076 Y136.211 E1.24974 ; perimeter
G1 X164.896 Y135.617 E1.25224 ; perimeter
G1 X164.835 Y135.000 E1.25474 ; perimeter
G1 X164.896 Y134.383 E1.25724 ; perimeter
G1 X165.076 Y133.789 E1.25974 ; perimeter
G1 X165.368 Y133.242 E1.26223 ; perimeter
G1 X165.762 Y132.762 E1.26473 ; perimeter
G1 X166.242 Y132.368 E1.26723 ; perimeter
G1 X166.789 Y132.076 E1.26973 ; perimeter
G1 X167.390 Y131.895 E1.27226 ; perimeter
G1 X168.000 Y131.835 E1.27472 F450.000 ; perimeter
G1 X168.617 Y131.896 E1.27722 ; perimeter
G1 X169.211 Y132.076 E1.27972 ; perimeter
G1 X169.758 Y132.368 E1.28222 ; perimeter
G1 X170.238 Y132.762 E1.28472 ; perimeter
G1 X170.632 Y133.242 E1.28722 ; perimeter
G1 X170.924 Y133.789 E1.28971 ; perimeter
G1 X171.104 Y134.383 E1.29221 ; perimeter
G1 X171.165 Y135.000 E1.29471 ; perimeter
G1 X171.104 Y135.617 E1.29721 ; perimeter
G1 X170.924 Y136.211 E1.29971 ; perimeter
G1 X170.632 Y136.758 E1.30220 ; perimeter
G1 X170.238 Y137.238 E1.30470 ; perimeter
G1 X169.758 Y137.632 E1.30720 ; perimeter
G1 X169.211 Y137.924 E1.30970 ; perimeter
G1 X168.617 Y138.104 E1.31220 ; perimeter
G1 X168.062 Y138.159 E1.31445 ; perimeter
G1 X168.056 Y138.102 F3600.000 ; move to first perimeter point
G1 X167.452 Y138.066 E1.31688 F450.000 ; perimeter
G1 X166.811 Y137.871 E1.31958 ; perimeter
G1 X166.274 Y137.584 E1.32203 ; perimeter
G1 X165.803 Y137.197 E1.32449 ; perimeter
G1 X165.416 Y136.726 E1.32694 ; perimeter
G1 X165.129 Y136.189 E1.32939 ; perimeter
G1 X164.952 Y135.606 E1.33184 ; perimeter
G1 X164.892 Y135.000 E1.33430 ; perimeter
G1 X164.952 Y134.394 E1.33675 ; perimeter
G1 X165.129 Y133.811 E1.33920 ; perimeter
G1 X165.416 Y133.274 E1.34166 ; perimeter
G1 X165.803 Y132.803 E1.34411 ; perimeter
G1 X166.274 Y132.416 E1.34656 ; perimeter
G1 X166.811 Y132.129 E1.34901 ; perimeter
G1 X167.401 Y131.951 E1.35150 ; perimeter
G1 X168.000 Y131.892 E1.35392 F450.000 ; perimeter
G1 X168.606 Y131.952 E1.35637 ; perimeter
G1 X169.189 Y132.129 E1.35883 ; perimeter
G1 X169.726 Y132.416 E1.36128 ; perimeter
G1 X170.197 Y132.803 E1.36373 ; perimeter
G1 X170.584 Y133.274 E1.36618 ; perimeter
G1 X170.871 Y133.811 E1.36864 ; perimeter
G1 X171.048 Y134.394 E1.37109 ; perimeter
G1 X171.108 Y135.000 E1.37354 ; perimeter
G1 X171.048 Y135.606 E1.37599 ; perimeter
G1 X170.871 Y136.189 E1.37845 ; perimeter
G1 X170.584 Y136.726 E1.38090 ; perimeter
G1 X170.197 Y137.197 E1.38335 ; perimeter
G1 X169.726 Y137.584 E1.38581 ; perimeter
G1 X169.189 Y137.871 E1.38826 ; perimeter
G1 X168.606 Y138.048 E1.39071 ; perimeter
G1 X168.116 Y138.096 E1.39270 ; perimeter
G1 X168.110 Y138.039 F3600.000 ; move to first perimeter point
G1 X168.001 Y138.050 E1.39314 F450.000 ; perimeter
G1 X167.463 Y138.009 E1.39531 ; perimeter
G1 X166.833 Y137.818 E1.39796 ; perimeter
G1 X166.305 Y137.536 E1.40037 ; perimeter
G1 X165.843 Y137.157 E1.40278 ; perimeter
G1 X165.464 Y136.695 E1.40519 ; perimeter
G1 X165.182 Y136.167 E1.40759 ; perimeter
G1 X165.008 Y135.595 E1.41000 ; perimeter
G1 X164.950 Y135.000 E1.41241 ; perimeter
G1 X165.008 Y134.405 E1.41482 ; perimeter
G1 X165.182 Y133.833 E1.41722 ; perimeter
G1 X165.464 Y133.305 E1.41963 ; perimeter
G1 X165.843 Y132.843 E1.42204 ; perimeter
G1 X166.305 Y132.464 E1.42445 ; perimeter
G1 X166.833 Y132.182 E1.42685 ; perimeter
G1 X167.412 Y132.008 E1.42929 ; perimeter
G1 X168.000 Y131.950 E1.43167 F450.000 ; perimeter
G1 X168.595 Y132.008 E1.43408 ; perimeter
G1 X169.167 Y132.182 E1.43648 ; perimeter
G1 X169.695 Y132.464 E1.43889 ; perimeter
G1 X170.157 Y132.843 E1.44130 ; perimeter
G1 X170.536 Y133.305 E1.44371 ; perimeter
G1 X170.818 Y133.833 E1.44611 ; perimeter
G1 X170.992 Y134.405 E1.44852 ; perimeter
G1 X171.050 Y135.000 E1.45093 ; perimeter
G1 X170.992 Y135.595 E1.45334 ; perimeter
G1 X170.818 Y136.167 E1.45574 ; perimeter
G1 X170.536 Y136.695 E1.45815 ; perimeter
G1 X170.157 Y137.157 E1.46056 ; perimeter
G1 X169.695 Y137.536 E1.46297 ; perimeter
G1 X169.167 Y137.818 E1.46537 ; perimeter
G1 X168.595 Y137.992 E1.46778 ; perimeter
G1 X168.170 Y138.034 E1.46950 ; perimeter
G1 X168.065 Y138.140 F3600.000 ; move inwards before travel
G1 X179.336 Y143.467 F3600.000 ; move to first perimeter point
G1 X179.336 Y171.336 E1.58171 F900.000 ; perimeter
G1 X156.664 Y171.336 E1.67300 F900.000 ; perimeter
G1 X156.664 Y128.664 E1.84481 ; perimeter
G1 X179.336 Y128.664 E1.93609 ; perimeter
G1 X179.336 Y143.407 E1.99545 ; perimeter
G1 X179.393 Y143.407 F3600.000 ; move to first perimeter point
G1 X179.393 Y171.393 E2.10813 F900.000 ; perimeter
G1 X156.607 Y171.393 E2.19988 F900.000 ; perimeter
G1 X156.607 Y128.607 E2.37215 ; perimeter
G1 X179.393 Y128.607 E2.46389 ; perimeter
G1 X179.393 Y143.347 E2.52325 ; perimeter
G1 X179.450 Y143.347 F3600.000 ; move to first perimeter point
G1 X179.450 Y171.450 E2.63640 F450.000 ; perimeter
G1 X156.550 Y171.450 E2.72860 F450.000 ; perimeter
G1 X156.550 Y128.550 E2.90133 ; perimeter
G1 X179.450 Y128.550 E2.99354 ; perimeter
G1 X179.450 Y143.287 E3.05287 ; perimeter
G1 X179.104 Y143.547 F3600.000 ; move inwards before travel
G1 X179.319 Y143.276 F3600.000 ; move to first infill point
G1 X171.168 Y135.125 E3.09929 F900.000 ; infill
G1 X171.161 Y135.198 F3600.000 ; move to first infill point
G1 X179.319 Y143.357 E3.14576 F900.000 ; infill
G1 X179.319 Y143.438 F3600.000 ; move to first infill point
G1 X171.154 Y135.272 E3.19226 F900.000 ; infill
G1 X171.146 Y135.345 F3600.000 ; move to first infill point
G1 X179.319 Y143.519 E3.23880 F900.000 ; infill
G1 X179.319 Y143.599 F3600.000 ; move to first infill point
G1 X171.139 Y135.419 E3.28539 F900.000 ; infill
G1 X171.132 Y135.492 F3600.000 ; move to first infill point
G1 X179.319 Y143.680 E3.33202 F900.000 ; infill
G1 X179.319 Y143.761 F3600.000 ; move to first infill point
G1 X171.125 Y135.566 E3.37868 F900.000 ; infill
G1 X171.113 Y135.635 F3600.000 ; move to first infill point
G1 X179.319 Y143.842 E3.42542 F900.000 ; infill
G1 X179.319 Y143.922 F3600.000 ; move to first infill point
G1 X171.094 Y135.697 E3.47226 F900.000 ; infill
G1 X171.075 Y135.759 F3600.000 ; move to first infill point
G1 X179.319 Y144.003 E3.51921 F900.000 ; infill
G1 X179.319 Y144.084 F3600.000 ; move to first infill point
G1 X171.056 Y135.821 E3.56626 F900.000 ; infill
G1 X171.038 Y135.883 F3600.000 ; move to first infill point
G1 X179.319 Y144.164 E3.61342 F900.000 ; infill
G1 X179.319 Y144.245 F3600.000 ; move to first infill point
G1 X171.019 Y135.945 E3.66069 F900.000 ; infill
G1 X171.000 Y136.007 F3600.000 ; move to first infill point
G1 X179.319 Y144.326 E3.70807 F900.000 ; infill
G1 X179.319 Y144.407 F3600.000 ; move to first infill point
G1 X170.981 Y136.068 E3.75555 F900.000 ; infill
G1 X170.962 Y136.130 F3600.000 ; move to first infill point
G1 X179.319 Y144.487 E3.80315 F900.000 ; infill
G1 X179.319 Y144.568 F3600.000 ; move to first infill point
G1 X170.944 Y136.192 E3.85084 F900.000 ; infill
G1 X170.918 Y136.248 F3600.000 ; move to first infill point
G1 X179.319 Y144.649 E3.89869 F900.000 ; infill
G1 X179.319 Y144.730 F3600.000 ; move to first infill point
G1 X170.890 Y136.300 E3.94669 F900.000 ; infill
G1 X170.862 Y136.353 F3600.000 ; move to first infill point
G1 X179.319 Y144.810 E3.99485 F900.000 ; infill
G1 X179.319 Y144.891 F3600.000 ; move to first infill point
G1 X170.834 Y136.405 E4.04318 F900.000 ; infill
G1 X170.806 Y136.458 F3600.000 ; move to first infill point
G1 X179.319 Y144.972 E4.09166 F900.000 ; infill
G1 X179.319 Y145.052 F3600.000 ; move to first infill point
G1 X170.778 Y136.511 E4.14030 F900.000 ; infill
G1 X170.750 Y136.563 F3600.000 ; move to first infill point
G1 X179.319 Y145.133 E4.18911 F900.000 ; infill
G1 X179.319 Y145.214 F3600.000 ; move to first infill point
G1 X170.721 Y136.616 E4.23807 F900.000 ; infill
G1 X170.693 Y136.669 F3600.000 ; move to first infill point
G1 X179.319 Y145.295 E4.28719 F900.000 ; infill
G1 X179.319 Y145.375 F3600.000 ; move to first infill point
G1 X170.665 Y136.721 E4.33648 F900.000 ; infill
