; generated by Slic3r 1.2.9 on 2016-02-01 at 15:31:59

; external perimeters extrusion width = 0.40mm
; perimeters extrusion width = 0.67mm
; infill extrusion width = 0.67mm
; solid infill extrusion width = 0.67mm
; top infill extrusion width = 0.67mm

M107 ; disable fan
M104 S220 ; set temperature
M80 ; Power supply on
G28 ; home all axes

M109 S220 ; wait for temperature to be reached
G21 ; set units to millimeters
G90 ; use absolute coordinates
M82 ; use absolute distances for extrusion
G92 E0 ; reset extrusion distance
G1 E-1.00000 F480.00000 ; retract
G92 E0 ; reset extrusion distance
G1 Z0.200 F3600.000 ; move to next layer (0)
G1 X133.694 Y124.629 F3600.000 ; move to first skirt point
G1 E1.00000 F480.00000 ; unretract
G1 X135.368 Y123.182 E1.00891 F2100.000 ; skirt
G1 X138.500 Y122.329 E1.02198 ; skirt
G1 X197.500 Y122.329 E1.25953 ; skirt
G1 X199.677 Y122.726 E1.26844 ; skirt
G1 X201.574 Y123.865 E1.27735 F2100.000 ; skirt
G1 X203.363 Y126.573 E1.29042 ; skirt
G1 X206.863 Y137.223 E1.33556 ; skirt
G1 X207.171 Y139.150 E1.34342 ; skirt
G1 X207.171 Y160.850 E1.43079 ; skirt
G1 X206.863 Y162.777 E1.43865 ; skirt
G1 X203.363 Y173.427 E1.48378 ; skirt
G1 X202.306 Y175.371 E1.49269 ; skirt
G1 X200.632 Y176.818 E1.50160 ; skirt
G1 X197.500 Y177.671 E1.51467 ; skirt
G1 X138.500 Y177.671 E1.75223 ; skirt
G1 X136.323 Y177.274 E1.76114 ; skirt
G1 X134.426 Y176.135 E1.77005 ; skirt
G1 X132.637 Y173.427 E1.78312 ; skirt
G1 X129.137 Y162.777 E1.82825 ; skirt
G1 X128.829 Y160.850 E1.83611 ; skirt
G1 X128.829 Y139.150 E1.92348 ; skirt
G1 X129.137 Y137.223 E1.93134 ; skirt
G1 X132.637 Y126.573 E1.97648 ; skirt
G1 X133.665 Y124.682 E1.98514 ; skirt
G1 X133.716 Y124.709 F3600.000 ; move to first skirt point
G1 X133.745 Y124.657 E1.98539 F2100.000 ; skirt
G1 X135.415 Y123.221 E1.99425 ; skirt
G1 X138.500 Y122.386 E2.00712 ; skirt
G1 X197.500 Y122.386 E2.24468 ; skirt
G1 X199.667 Y122.783 E2.25355 ; skirt
G1 X201.552 Y123.921 E2.26241 F2100.000 ; skirt
G1 X203.309 Y126.591 E2.27528 ; skirt
G1 X206.809 Y137.241 E2.32042 ; skirt
G1 X207.114 Y139.150 E2.32820 ; skirt
G1 X207.114 Y160.850 E2.41558 ; skirt
G1 X206.809 Y162.759 E2.42336 ; skirt
G1 X203.309 Y173.409 E2.46850 ; skirt
G1 X202.255 Y175.343 E2.47737 ; skirt
G1 X200.585 Y176.779 E2.48623 ; skirt
G1 X197.500 Y177.614 E2.49910 ; skirt
G1 X138.500 Y177.614 E2.73666 ; skirt
G1 X136.333 Y177.217 E2.74553 ; skirt
G1 X134.448 Y176.079 E2.75439 ; skirt
G1 X132.691 Y173.409 E2.76726 ; skirt
G1 X129.191 Y162.759 E2.81240 ; skirt
G1 X128.886 Y160.850 E2.82018 ; skirt
G1 X128.886 Y139.150 E2.90756 ; skirt
G1 X129.191 Y137.241 E2.91534 ; skirt
G1 X132.691 Y126.591 E2.96048 ; skirt
G1 X133.687 Y124.762 E2.96886 ; skirt
G1 X133.738 Y124.790 F3600.000 ; move to first skirt point
G1 X133.796 Y124.685 E2.96934 F2100.000 ; skirt
G1 X135.462 Y123.260 E2.97817 ; skirt
G1 X138.500 Y122.443 E2.99084 ; skirt
G1 X197.500 Y122.443 E3.22839 ; skirt
G1 X199.656 Y122.840 E3.23722 ; skirt
G1 X201.530 Y123.978 E3.24605 F2100.000 ; skirt
G1 X203.254 Y126.609 E3.25871 ; skirt
G1 X206.754 Y137.259 E3.30385 ; skirt
G1 X207.057 Y139.150 E3.31156 ; skirt
G1 X207.057 Y160.850 E3.39894 ; skirt
G1 X206.754 Y162.741 E3.40665 ; skirt
G1 X203.254 Y173.391 E3.45178 ; skirt
G1 X202.204 Y175.315 E3.46061 ; skirt
G1 X200.538 Y176.740 E3.46944 ; skirt
G1 X197.500 Y177.557 E3.48210 ; skirt
G1 X138.500 Y177.557 E3.71966 ; skirt
G1 X136.344 Y177.160 E3.72849 ; skirt
G1 X134.470 Y176.022 E3.73731 ; skirt
G1 X132.746 Y173.391 E3.74998 ; skirt
G1 X129.246 Y162.741 E3.79512 ; skirt
G1 X128.943 Y160.850 E3.80283 ; skirt
G1 X128.943 Y139.150 E3.89020 ; skirt
G1 X129.246 Y137.259 E3.89791 ; skirt
G1 X132.746 Y126.609 E3.94305 ; skirt
G1 X133.710 Y124.842 E3.95115 ; skirt
G1 E2.95115 F480.00000 ; retract
G92 E0 ; reset extrusion distance
G1 X148.812 Y162.129 F3600.000 ; move to first perimeter point
G1 E1.00000 F480.00000 ; unretract
G1 X149.457 Y161.946 E1.00270 F900.000 ; perimeter
G1 X150.000 Y161.892 E1.00490 F900.000 ; perimeter
G1 X150.606 Y161.952 E1.00735 ; perimeter
G1 X151.189 Y162.129 E1.00980 ; perimeter
G1 X151.726 Y162.416 E1.01226 ; perimeter
G1 X152.197 Y162.803 E1.01471 ; perimeter
G1 X152.584 Y163.274 E1.01716 ; perimeter
G1 X152.871 Y163.811 E1.01961 ; perimeter
G1 X153.048 Y164.394 E1.02207 ; perimeter
G1 X153.108 Y165.000 E1.02452 ; perimeter
G1 X153.048 Y165.606 E1.02697 ; perimeter
G1 X152.871 Y166.189 E1.02943 ; perimeter
G1 X152.584 Y166.726 E1.03188 ; perimeter
G1 X152.197 Y167.197 E1.03433 ; perimeter
G1 X151.726 Y167.584 E1.03678 ; perimeter
G1 X151.189 Y167.871 E1.03924 ; perimeter
G1 X150.606 Y168.048 E1.04169 ; perimeter
G1 X150.000 Y168.108 E1.04414 ; perimeter
G1 X149.394 Y168.048 E1.04660 ; perimeter
G1 X148.811 Y167.871 E1.04905 ; perimeter
G1 X148.274 Y167.584 E1.05150 ; perimeter
G1 X147.803 Y167.197 E1.05395 ; perimeter
G1 X147.416 Y166.726 E1.05641 ; perimeter
G1 X147.129 Y166.189 E1.05886 ; perimeter
G1 X146.952 Y165.606 E1.06131 ; perimeter
G1 X146.892 Y165.000 E1.06377 ; perimeter
G1 X146.952 Y164.394 E1.06622 ; perimeter
G1 X147.129 Y163.811 E1.06867 ; perimeter
G1 X147.416 Y163.274 E1.07112 ; perimeter
G1 X147.803 Y162.803 E1.07358 ; perimeter
G1 X148.274 Y162.416 E1.07603 ; perimeter
G1 X148.759 Y162.157 E1.07825 ; perimeter
G1 X148.786 Y162.207 F3600.000 ; move to first perimeter point
G1 X149.467 Y162.002 E1.08111 F900.000 ; perimeter
G1 X150.000 Y161.950 E1.08327 F900.000 ; perimeter
G1 X150.595 Y162.008 E1.08567 ; perimeter
G1 X151.167 Y162.182 E1.08808 ; perimeter
G1 X151.695 Y162.464 E1.09049 ; perimeter
G1 X152.157 Y162.843 E1.09290 ; perimeter
G1 X152.536 Y163.305 E1.09530 ; perimeter
G1 X152.818 Y163.833 E1.09771 ; perimeter
G1 X152.992 Y164.405 E1.10012 ; perimeter
G1 X153.050 Y165.000 E1.10253 ; perimeter
G1 X152.992 Y165.595 E1.10493 ; perimeter
G1 X152.818 Y166.167 E1.10734 ; perimeter
G1 X152.536 Y166.695 E1.10975 ; perimeter
G1 X152.157 Y167.157 E1.11216 ; perimeter
G1 X151.695 Y167.536 E1.11456 ; perimeter
G1 X151.167 Y167.818 E1.11697 ; perimeter
G1 X150.595 Y167.992 E1.11938 ; perimeter
G1 X150.000 Y168.050 E1.12179 ; perimeter
G1 X149.405 Y167.992 E1.12419 ; perimeter
G1 X148.833 Y167.818 E1.12660 ; perimeter
G1 X148.305 Y167.536 E1.12901 ; perimeter
G1 X147.843 Y167.157 E1.13142 ; perimeter
G1 X147.464 Y166.695 E1.13382 ; perimeter
G1 X147.182 Y166.167 E1.13623 ; perimeter
G1 X147.008 Y165.595 E1.13864 ; perimeter
G1 X146.950 Y165.000 E1.14105 ; perimeter
G1 X147.008 Y164.405 E1.14346 ; perimeter
G1 X147.182 Y163.833 E1.14586 ; perimeter
G1 X147.464 Y163.305 E1.14827 ; perimeter
G1 X147.843 Y162.843 E1.15068 ; perimeter
G1 X148.305 Y162.464 E1.15309 ; perimeter
G1 X148.733 Y162.235 E1.15504 ; perimeter
G1 X148.852 Y161.813 F3600.000 ; move inwards before travel
G1 X150.000 Y138.108 F3600.000 ; move to first perimeter point
G1 X149.394 Y138.048 E1.15749 F900.000 ; perimeter
G1 X148.811 Y137.871 E1.15994 ; perimeter
G1 X148.274 Y137.584 E1.16240 ; perimeter
G1 X147.803 Y137.197 E1.16485 ; perimeter
G1 X147.416 Y136.726 E1.16730 ; perimeter
G1 X147.129 Y136.189 E1.16975 ; perimeter
G1 X146.952 Y135.606 E1.17221 ; perimeter
G1 X146.892 Y135.000 E1.17466 ; perimeter
G1 X146.952 Y134.394 E1.17711 ; perimeter
G1 X147.129 Y133.811 E1.17957 ; perimeter
G1 X147.416 Y133.274 E1.18202 ; perimeter
G1 X147.803 Y132.803 E1.18447 ; perimeter
G1 X148.274 Y132.416 E1.18692 ; perimeter
G1 X148.812 Y132.129 E1.18938 ; perimeter
G1 X149.457 Y131.946 E1.19208 ; perimeter
G1 X150.000 Y131.892 E1.19428 F900.000 ; perimeter
G1 X150.606 Y131.952 E1.19673 ; perimeter
G1 X151.189 Y132.129 E1.19918 ; perimeter
G1 X151.726 Y132.416 E1.20164 ; perimeter
G1 X152.197 Y132.803 E1.20409 ; perimeter
G1 X152.584 Y133.274 E1.20654 ; perimeter
G1 X152.871 Y133.811 E1.20900 ; perimeter
G1 X153.048 Y134.394 E1.21145 ; perimeter
G1 X153.108 Y135.000 E1.21390 ; perimeter
G1 X153.048 Y135.606 E1.21635 ; perimeter
G1 X152.871 Y136.189 E1.21881 ; perimeter
G1 X152.584 Y136.726 E1.22126 ; perimeter
G1 X152.197 Y137.197 E1.22371 ; perimeter
G1 X151.726 Y137.584 E1.22616 ; perimeter
G1 X151.189 Y137.871 E1.22862 ; perimeter
G1 X150.606 Y138.048 E1.23107 ; perimeter
G1 X150.060 Y138.102 E1.23328 ; perimeter
G1 X150.054 Y138.045 F3600.000 ; move to first perimeter point
G1 X149.405 Y137.992 E1.23590 F900.000 ; perimeter
G1 X148.833 Y137.818 E1.23831 ; perimeter
G1 X148.305 Y137.536 E1.24072 ; perimeter
G1 X147.843 Y137.157 E1.24313 ; perimeter
G1 X147.464 Y136.695 E1.24553 ; perimeter
G1 X147.182 Y136.167 E1.24794 ; perimeter
G1 X147.008 Y135.595 E1.25035 ; perimeter
G1 X146.950 Y135.000 E1.25276 ; perimeter
G1 X147.008 Y134.405 E1.25517 ; perimeter
G1 X147.182 Y133.833 E1.25757 ; perimeter
G1 X147.464 Y133.305 E1.25998 ; perimeter
G1 X147.843 Y132.843 E1.26239 ; perimeter
G1 X148.305 Y132.464 E1.26480 ; perimeter
G1 X148.833 Y132.182 E1.26720 ; perimeter
G1 X149.467 Y132.002 E1.26986 ; perimeter
G1 X150.000 Y131.950 E1.27201 F900.000 ; perimeter
G1 X150.595 Y132.008 E1.27442 ; perimeter
G1 X151.167 Y132.182 E1.27683 ; perimeter
G1 X151.695 Y132.464 E1.27924 ; perimeter
G1 X152.157 Y132.843 E1.28164 ; perimeter
G1 X152.536 Y133.305 E1.28405 ; perimeter
G1 X152.818 Y133.833 E1.28646 ; perimeter
G1 X152.992 Y134.405 E1.28887 ; perimeter
G1 X153.050 Y135.000 E1.29127 ; perimeter
G1 X152.992 Y135.595 E1.29368 ; perimeter
G1 X152.818 Y136.167 E1.29609 ; perimeter
G1 X152.536 Y136.695 E1.29850 ; perimeter
G1 X152.157 Y137.157 E1.30090 ; perimeter
G1 X151.695 Y137.536 E1.30331 ; perimeter
G1 X151.167 Y137.818 E1.30572 ; perimeter
G1 X150.595 Y137.992 E1.30813 ; perimeter
G1 X150.114 Y138.039 E1.31007 ; perimeter
G1 X149.847 Y138.387 F3600.000 ; move inwards before travel
G1 E0.31007 F480.00000 ; retract
G92 E0 ; reset extrusion distance
G1 X153.912 Y128.607 F3600.000 ; move to first perimeter point
G1 E1.00000 F480.00000 ; unretract
G1 X161.393 Y128.607 E1.03012 F1800.000 ; perimeter
G1 X161.393 Y139.257 E1.07300 ; perimeter
G1 X164.893 Y139.257 E1.08710 F1800.000 ; perimeter
G1 X164.893 Y160.743 E1.17361 ; perimeter
G1 X161.393 Y160.743 E1.18770 ; perimeter
G1 X161.393 Y171.393 E1.23058 ; perimeter
G1 X138.607 Y171.393 E1.32232 ; perimeter
G1 X138.607 Y160.743 E1.36520 ; perimeter
G1 X135.107 Y160.743 E1.37930 ; perimeter
G1 X135.107 Y139.257 E1.46581 ; perimeter
G1 X138.607 Y139.257 E1.47990 ; perimeter
G1 X138.607 Y128.607 E1.52278 ; perimeter
G1 X153.852 Y128.607 E1.58416 ; perimeter
G1 X153.852 Y128.550 F3600.000 ; move to first perimeter point
G1 X161.450 Y128.550 E1.61475 F900.000 ; perimeter
G1 X161.450 Y139.200 E1.65763 ; perimeter
G1 X164.950 Y139.200 E1.67173 F900.000 ; perimeter
G1 X164.950 Y160.800 E1.75870 ; perimeter
G1 X161.450 Y160.800 E1.77279 ; perimeter
G1 X161.450 Y171.450 E1.81567 ; perimeter
G1 X138.550 Y171.450 E1.90787 ; perimeter
G1 X138.550 Y160.800 E1.95075 ; perimeter
G1 X135.050 Y160.800 E1.96485 ; perimeter
G1 X135.050 Y139.200 E2.05182 ; perimeter
G1 X138.550 Y139.200 E2.06591 ; perimeter
G1 X138.550 Y128.550 E2.10879 ; perimeter
G1 X153.792 Y128.550 E2.17016 ; perimeter
G1 X154.052 Y128.896 F3600.000 ; move inwards before travel
G1 X153.797 Y128.623 F3600.000 ; move to first infill point
G1 X161.377 Y136.203 E2.21337 F1800.000 ; infill
G1 X161.377 Y136.284 F3600.000 ; move to first infill point
G1 X153.716 Y128.623 E2.25704 F1800.000 ; infill
G1 X153.635 Y128.623 F3600.000 ; move to first infill point
G1 X161.377 Y136.365 E2.30117 F1800.000 ; infill
G1 X161.377 Y136.446 F3600.000 ; move to first infill point
G1 X153.554 Y128.623 E2.34576 F1800.000 ; infill
G1 X153.473 Y128.623 F3600.000 ; move to first infill point
G1 X161.377 Y136.527 E2.39081 F1800.000 ; infill
G1 X161.377 Y136.607 F3600.000 ; move to first infill point
G1 X153.393 Y128.623 E2.43633 F1800.000 ; infill
G1 X153.312 Y128.623 F3600.000 ; move to first infill point
G1 X161.377 Y136.688 E2.48230 F1800.000 ; infill
G1 X161.377 Y136.769 F3600.000 ; move to first infill point
G1 X153.231 Y128.623 E2.52874 F1800.000 ; infill
G1 X153.150 Y128.623 F3600.000 ; move to first infill point
G1 X161.377 Y136.850 E2.57563 F1800.000 ; infill
G1 X161.377 Y136.931 F3600.000 ; move to first infill point
G1 X153.069 Y128.623 E2.62299 F1800.000 ; infill
G1 X152.988 Y128.623 F3600.000 ; move to first infill point
G1 X161.377 Y137.012 E2.67080 F1800.000 ; infill
G1 X161.377 Y137.092 F3600.000 ; move to first infill point
G1 X152.908 Y128.623 E2.71908 F1800.000 ; infill
G1 X152.827 Y128.623 F3600.000 ; move to first infill point
G1 X161.377 Y137.173 E2.76782 F1800.000 ; infill
G1 X161.377 Y137.254 F3600.000 ; move to first infill point
G1 X152.746 Y128.623 E2.81702 F1800.000 ; infill
G1 X152.665 Y128.623 F3600.000 ; move to first infill point
G1 X161.377 Y137.335 E2.86668 F1800.000 ; infill
G1 X161.377 Y137.416 F3600.000 ; move to first infill point
G1 X152.584 Y128.623 E2.91680 F1800.000 ; infill
G1 X152.504 Y128.623 F3600.000 ; move to first infill point
G1 X161.377 Y137.496 E2.96738 F1800.000 ; infill
G1 X161.377 Y137.577 F3600.000 ; move to first infill point
G1 X152.423 Y128.623 E3.01842 F1800.000 ; infill
G1 X152.342 Y128.623 F3600.000 ; move to first infill point
G1 X161.377 Y137.658 E3.06992 F1800.000 ; infill
G1 X161.377 Y137.739 F3600.000 ; move to first infill point
G1 X152.261 Y128.623 E3.12189 F1800.000 ; infill
G1 X152.180 Y128.623 F3600.000 ; move to first infill point
G1 X161.377 Y137.820 E3.17431 F1800.000 ; infill
G1 X161.377 Y137.900 F3600.000 ; move to first infill point
G1 X152.100 Y128.623 E3.22719 F1800.000 ; infill
G1 X152.019 Y128.623 F3600.000 ; move to first infill point
G1 X161.377 Y137.981 E3.28054 F1800.000 ; infill
G1 X161.377 Y138.062 F3600.000 ; move to first infill point
G1 X151.938 Y128.623 E3.33434 F1800.000 ; infill
G1 X151.857 Y128.623 F3600.000 ; move to first infill point
G1 X161.377 Y138.143 E3.38861 F1800.000 ; infill
G1 X161.377 Y138.224 F3600.000 ; move to first infill point
G1 X151.776 Y128.623 E3.44334 F1800.000 ; infill
G1 X151.695 Y128.623 F3600.000 ; move to first infill point
G1 X161.377 Y138.305 E3.49852 F1800.000 ; infill
G1 X161.377 Y138.385 F3600.000 ; move to first infill point
G1 X151.615 Y128.623 E3.55417 F1800.000 ; infill
G1 X151.534 Y128.623 F3600.000 ; move to first infill point
G1 X161.377 Y138.466 E3.61028 F1800.000 ; infill
G1 X161.377 Y138.547 F3600.000 ; move to first infill point
G1 X151.453 Y128.623 E3.66685 F1800.000 ; infill
G1 X151.372 Y128.623 F3600.000 ; move to first infill point
G1 X161.377 Y138.628 E3.72388 F1800.000 ; infill
G1 X161.377 Y138.709 F3600.000 ; move to first infill point
G1 X151.291 Y128.623 E3.78137 F1800.000 ; infill
G1 X151.211 Y128.623 F3600.000 ; move to first infill point
G1 X161.377 Y138.789 E3.83932 F1800.000 ; infill
G1 X161.377 Y138.870 F3600.000 ; move to first infill point
G1 X151.130 Y128.623 E3.89774 F1800.000 ; infill
G1 X151.049 Y128.623 F3600.000 ; move to first infill point
G1 X161.377 Y138.951 E3.95661 F1800.000 ; infill
G1 X161.377 Y139.032 F3600.000 ; move to first infill point
G1 X150.968 Y128.623 E4.01594 F1800.000 ; infill
G1 X150.887 Y128.623 F3600.000 ; move to first infill point
G1 X161.377 Y139.113 E4.07574 F1800.000 ; infill
G1 X161.377 Y139.193 F3600.000 ; move to first infill point
G1 X150.807 Y128.623 E4.13599 F1800.000 ; infill
G1 X150.726 Y128.623 F3600.000 ; move to first infill point
G1 X161.377 Y139.274 E4.19671 F1800.000 ; infill
G1 X161.376 Y139.273 F3600.000 ; move to first infill point
G1 X164.877 Y142.774 E4.21667 F1800.000 ; infill
G1 X164.877 Y142.855 F3600.000 ; move to first infill point
G1 X150.645 Y128.623 E4.29780 F1800.000 ; infill
G1 X150.564 Y128.623 F3600.000 ; move to first infill point
G1 X164.877 Y142.936 E4.37938 F1800.000 ; infill
G1 X164.877 Y143.017 F3600.000 ; move to first infill point
G1 X150.483 Y128.623 E4.46143 F1800.000 ; infill
G1 X150.402 Y128.623 F3600.000 ; move to first infill point
G1 X164.877 Y143.098 E4.54395 F1800.000 ; infill
G1 X164.877 Y143.178 F3600.000 ; move to first infill point
G1 X150.322 Y128.623 E4.62692 F1800.000 ; infill
