; generated by Slic3r 1.2.9 on 2016-01-18 at 14:24:36

; external perimeters extrusion width = 0.40mm
; perimeters extrusion width = 0.67mm
; infill extrusion width = 0.67mm
; solid infill extrusion width = 0.67mm
; top infill extrusion width = 0.67mm

M107 ; disable fan
M104 S220 ; set temperature
M80 ; Power supply on
G28 ; home all axes

M109 S220 ; wait for temperature to be reached
G21 ; set units to millimeters
G90 ; use absolute coordinates
M82 ; use absolute distances for extrusion
G92 E0 ; reset extrusion distance
G1 E-1.00000 F480.00000 ; retract
G92 E0 ; reset extrusion distance
G1 Z0.200 F3600.000 ; move to next layer (0)
G1 X151.716 Y124.368 F3600.000 ; move to first skirt point
G1 E1.00000 F480.00000 ; unretract
G1 X153.458 Y122.959 E1.01692 F2100.000 ; skirt
G1 X156.500 Y122.179 E1.04064 ; skirt
G1 X179.500 Y122.179 E1.21437 ; skirt
G1 X181.704 Y122.576 E1.23129 ; skirt
G1 X183.632 Y123.716 E1.24821 F2100.000 ; skirt
G1 X185.041 Y125.458 E1.26513 ; skirt
G1 X185.821 Y128.500 E1.28885 ; skirt
G1 X185.821 Y171.500 E1.61364 ; skirt
G1 X185.424 Y173.704 E1.63056 ; skirt
G1 X184.284 Y175.632 E1.64748 ; skirt
G1 X182.542 Y177.041 E1.66440 ; skirt
G1 X179.500 Y177.821 E1.68812 ; skirt
G1 X156.500 Y177.821 E1.86185 ; skirt
G1 X154.296 Y177.424 E1.87877 ; skirt
G1 X152.368 Y176.284 E1.89569 ; skirt
G1 X150.959 Y174.542 E1.91261 ; skirt
G1 X150.179 Y171.500 E1.93633 ; skirt
G1 X150.179 Y128.500 E2.26112 ; skirt
G1 X150.576 Y126.296 E2.27804 ; skirt
G1 X151.686 Y124.420 E2.29451 ; skirt
G1 X151.782 Y124.477 F3600.000 ; move to first skirt point
G1 X151.822 Y124.409 E2.29510 F2100.000 ; skirt
G1 X153.559 Y123.026 E2.31188 ; skirt
G1 X156.500 Y122.286 E2.33478 ; skirt
G1 X179.500 Y122.286 E2.50851 ; skirt
G1 X181.685 Y122.683 E2.52528 ; skirt
G1 X183.591 Y123.822 E2.54206 F2100.000 ; skirt
G1 X184.974 Y125.559 E2.55883 ; skirt
G1 X185.714 Y128.500 E2.58173 ; skirt
G1 X185.714 Y171.500 E2.90653 ; skirt
G1 X185.317 Y173.685 E2.92330 ; skirt
G1 X184.178 Y175.591 E2.94007 ; skirt
G1 X182.441 Y176.974 E2.95685 ; skirt
G1 X179.500 Y177.714 E2.97975 ; skirt
G1 X156.500 Y177.714 E3.15348 ; skirt
G1 X154.315 Y177.317 E3.17025 ; skirt
G1 X152.409 Y176.178 E3.18703 ; skirt
G1 X151.026 Y174.441 E3.20380 ; skirt
G1 X150.286 Y171.500 E3.22670 ; skirt
G1 X150.286 Y128.500 E3.55150 ; skirt
G1 X150.683 Y126.315 E3.56827 ; skirt
G1 X151.751 Y124.528 E3.58400 ; skirt
G1 X151.846 Y124.586 F3600.000 ; move to first skirt point
G1 X151.928 Y124.451 E3.58519 F2100.000 ; skirt
G1 X153.661 Y123.093 E3.60182 ; skirt
G1 X156.500 Y122.393 E3.62390 ; skirt
G1 X179.500 Y122.393 E3.79763 ; skirt
G1 X181.665 Y122.790 E3.81426 ; skirt
G1 X183.549 Y123.928 E3.83089 F2100.000 ; skirt
G1 X184.907 Y125.661 E3.84751 ; skirt
G1 X185.607 Y128.500 E3.86960 ; skirt
G1 X185.607 Y171.500 E4.19439 ; skirt
G1 X185.210 Y173.665 E4.21102 ; skirt
G1 X184.072 Y175.549 E4.22765 ; skirt
G1 X182.339 Y176.907 E4.24428 ; skirt
G1 X179.500 Y177.607 E4.26636 ; skirt
G1 X156.500 Y177.607 E4.44009 ; skirt
G1 X154.335 Y177.210 E4.45672 ; skirt
G1 X152.451 Y176.072 E4.47334 ; skirt
G1 X151.093 Y174.339 E4.48997 ; skirt
G1 X150.393 Y171.500 E4.51206 ; skirt
G1 X150.393 Y128.500 E4.83685 ; skirt
G1 X150.790 Y126.335 E4.85348 ; skirt
G1 X151.815 Y124.638 E4.86846 ; skirt
G1 E3.86846 F480.00000 ; retract
G92 E0 ; reset extrusion distance
G1 X166.741 Y161.960 F3600.000 ; move to first perimeter point
G1 E1.00000 F480.00000 ; unretract
G1 X167.366 Y161.772 E1.00493 F450.000 ; perimeter
G1 X168.000 Y161.709 E1.00974 F450.000 ; perimeter
G1 X168.642 Y161.773 E1.01461 ; perimeter
G1 X169.259 Y161.960 E1.01949 ; perimeter
G1 X169.828 Y162.264 E1.02436 ; perimeter
G1 X170.327 Y162.673 E1.02923 ; perimeter
G1 X170.736 Y163.172 E1.03410 ; perimeter
G1 X171.040 Y163.741 E1.03898 ; perimeter
G1 X171.227 Y164.358 E1.04385 ; perimeter
G1 X171.291 Y165.000 E1.04872 ; perimeter
G1 X171.227 Y165.642 E1.05359 ; perimeter
G1 X171.040 Y166.259 E1.05846 ; perimeter
G1 X170.736 Y166.828 E1.06334 ; perimeter
G1 X170.327 Y167.327 E1.06821 ; perimeter
G1 X169.828 Y167.736 E1.07308 ; perimeter
G1 X169.259 Y168.040 E1.07795 ; perimeter
G1 X168.642 Y168.227 E1.08283 ; perimeter
G1 X168.000 Y168.291 E1.08770 ; perimeter
G1 X167.358 Y168.227 E1.09257 ; perimeter
G1 X166.741 Y168.040 E1.09744 ; perimeter
G1 X166.172 Y167.736 E1.10232 ; perimeter
G1 X165.673 Y167.327 E1.10719 ; perimeter
G1 X165.264 Y166.828 E1.11206 ; perimeter
G1 X164.960 Y166.259 E1.11693 ; perimeter
G1 X164.773 Y165.642 E1.12181 ; perimeter
G1 X164.709 Y165.000 E1.12668 ; perimeter
G1 X164.773 Y164.358 E1.13155 ; perimeter
G1 X164.960 Y163.741 E1.13642 ; perimeter
G1 X165.264 Y163.172 E1.14130 ; perimeter
G1 X165.673 Y162.673 E1.14617 ; perimeter
G1 X166.172 Y162.264 E1.15104 ; perimeter
G1 X166.688 Y161.988 E1.15546 ; perimeter
G1 X166.739 Y162.083 F3600.000 ; move to first perimeter point
G1 X167.387 Y161.877 E1.16060 F450.000 ; perimeter
G1 X168.000 Y161.817 E1.16525 F450.000 ; perimeter
G1 X168.621 Y161.878 E1.16996 ; perimeter
G1 X169.218 Y162.059 E1.17468 ; perimeter
G1 X169.768 Y162.353 E1.17939 ; perimeter
G1 X170.251 Y162.749 E1.18410 ; perimeter
G1 X170.647 Y163.232 E1.18882 ; perimeter
G1 X170.941 Y163.782 E1.19353 ; perimeter
G1 X171.122 Y164.379 E1.19824 ; perimeter
G1 X171.183 Y165.000 E1.20296 ; perimeter
G1 X171.122 Y165.621 E1.20767 ; perimeter
G1 X170.941 Y166.218 E1.21238 ; perimeter
G1 X170.647 Y166.768 E1.21709 ; perimeter
G1 X170.251 Y167.251 E1.22181 ; perimeter
G1 X169.768 Y167.647 E1.22652 ; perimeter
G1 X169.218 Y167.941 E1.23123 ; perimeter
G1 X168.621 Y168.122 E1.23595 ; perimeter
G1 X168.000 Y168.183 E1.24066 ; perimeter
G1 X167.379 Y168.122 E1.24537 ; perimeter
G1 X166.782 Y167.941 E1.25009 ; perimeter
G1 X166.232 Y167.647 E1.25480 ; perimeter
G1 X165.749 Y167.251 E1.25951 ; perimeter
G1 X165.353 Y166.768 E1.26423 ; perimeter
G1 X165.059 Y166.218 E1.26894 ; perimeter
G1 X164.878 Y165.621 E1.27365 ; perimeter
G1 X164.817 Y165.000 E1.27836 ; perimeter
G1 X164.878 Y164.379 E1.28308 ; perimeter
G1 X165.059 Y163.782 E1.28779 ; perimeter
G1 X165.353 Y163.232 E1.29250 ; perimeter
G1 X165.749 Y162.749 E1.29722 ; perimeter
G1 X166.232 Y162.353 E1.30193 ; perimeter
G1 X166.686 Y162.111 E1.30582 ; perimeter
G1 X166.736 Y162.205 F3600.000 ; move to first perimeter point
G1 X166.823 Y162.159 E1.30656 F450.000 ; perimeter
G1 X167.407 Y161.983 E1.31117 ; perimeter
G1 X168.000 Y161.925 E1.31567 F450.000 ; perimeter
G1 X168.600 Y161.984 E1.32022 ; perimeter
G1 X169.177 Y162.159 E1.32478 ; perimeter
G1 X169.709 Y162.443 E1.32933 ; perimeter
G1 X170.175 Y162.825 E1.33388 ; perimeter
G1 X170.557 Y163.291 E1.33844 ; perimeter
G1 X170.841 Y163.823 E1.34299 ; perimeter
G1 X171.016 Y164.400 E1.34755 ; perimeter
G1 X171.075 Y165.000 E1.35210 ; perimeter
G1 X171.016 Y165.600 E1.35665 ; perimeter
G1 X170.841 Y166.177 E1.36121 ; perimeter
G1 X170.557 Y166.709 E1.36576 ; perimeter
G1 X170.175 Y167.175 E1.37031 ; perimeter
G1 X169.709 Y167.557 E1.37487 ; perimeter
G1 X169.177 Y167.841 E1.37942 ; perimeter
G1 X168.600 Y168.016 E1.38398 ; perimeter
G1 X168.000 Y168.075 E1.38853 ; perimeter
G1 X167.400 Y168.016 E1.39308 ; perimeter
G1 X166.823 Y167.841 E1.39764 ; perimeter
G1 X166.291 Y167.557 E1.40219 ; perimeter
G1 X165.825 Y167.175 E1.40674 ; perimeter
G1 X165.443 Y166.709 E1.41130 ; perimeter
G1 X165.159 Y166.177 E1.41585 ; perimeter
G1 X164.984 Y165.600 E1.42041 ; perimeter
G1 X164.925 Y165.000 E1.42496 ; perimeter
G1 X164.984 Y164.400 E1.42951 ; perimeter
G1 X165.159 Y163.823 E1.43407 ; perimeter
G1 X165.443 Y163.291 E1.43862 ; perimeter
G1 X165.825 Y162.825 E1.44317 ; perimeter
G1 X166.291 Y162.443 E1.44773 ; perimeter
G1 X166.683 Y162.234 E1.45108 ; perimeter
G1 X166.739 Y162.107 F3600.000 ; move inwards before travel
G1 X168.003 Y138.290 F3600.000 ; move to first perimeter point
G1 X167.418 Y138.246 E1.45551 F450.000 ; perimeter
G1 X166.741 Y138.040 E1.46086 ; perimeter
G1 X166.172 Y137.736 E1.46574 ; perimeter
G1 X165.673 Y137.327 E1.47061 ; perimeter
G1 X165.264 Y136.828 E1.47548 ; perimeter
G1 X164.960 Y136.259 E1.48035 ; perimeter
G1 X164.773 Y135.642 E1.48522 ; perimeter
G1 X164.709 Y135.000 E1.49010 ; perimeter
G1 X164.773 Y134.358 E1.49497 ; perimeter
G1 X164.960 Y133.741 E1.49984 ; perimeter
G1 X165.264 Y133.172 E1.50471 ; perimeter
G1 X165.673 Y132.673 E1.50959 ; perimeter
G1 X166.172 Y132.264 E1.51446 ; perimeter
G1 X166.741 Y131.960 E1.51933 ; perimeter
G1 X167.366 Y131.772 E1.52426 ; perimeter
G1 X168.000 Y131.709 E1.52907 F450.000 ; perimeter
G1 X168.642 Y131.773 E1.53395 ; perimeter
G1 X169.259 Y131.960 E1.53882 ; perimeter
G1 X169.828 Y132.264 E1.54369 ; perimeter
G1 X170.327 Y132.673 E1.54856 ; perimeter
G1 X170.736 Y133.172 E1.55344 ; perimeter
G1 X171.040 Y133.741 E1.55831 ; perimeter
G1 X171.227 Y134.358 E1.56318 ; perimeter
G1 X171.291 Y135.000 E1.56805 ; perimeter
G1 X171.227 Y135.642 E1.57293 ; perimeter
G1 X171.040 Y136.259 E1.57780 ; perimeter
G1 X170.736 Y136.828 E1.58267 ; perimeter
G1 X170.327 Y137.327 E1.58754 ; perimeter
G1 X169.828 Y137.736 E1.59242 ; perimeter
G1 X169.259 Y138.040 E1.59729 ; perimeter
G1 X168.642 Y138.227 E1.60216 ; perimeter
G1 X168.063 Y138.284 E1.60656 ; perimeter
G1 X168.052 Y138.178 F3600.000 ; move to first perimeter point
G1 X167.438 Y138.140 E1.61120 F450.000 ; perimeter
G1 X166.782 Y137.941 E1.61638 ; perimeter
G1 X166.232 Y137.647 E1.62110 ; perimeter
G1 X165.749 Y137.251 E1.62581 ; perimeter
G1 X165.353 Y136.768 E1.63052 ; perimeter
G1 X165.059 Y136.218 E1.63524 ; perimeter
G1 X164.878 Y135.621 E1.63995 ; perimeter
G1 X164.817 Y135.000 E1.64466 ; perimeter
G1 X164.878 Y134.379 E1.64938 ; perimeter
G1 X165.059 Y133.782 E1.65409 ; perimeter
G1 X165.353 Y133.232 E1.65880 ; perimeter
G1 X165.749 Y132.749 E1.66351 ; perimeter
G1 X166.232 Y132.353 E1.66823 ; perimeter
G1 X166.782 Y132.059 E1.67294 ; perimeter
G1 X167.387 Y131.877 E1.67771 ; perimeter
G1 X168.000 Y131.817 E1.68237 F450.000 ; perimeter
G1 X168.621 Y131.878 E1.68708 ; perimeter
G1 X169.218 Y132.059 E1.69179 ; perimeter
G1 X169.768 Y132.353 E1.69650 ; perimeter
G1 X170.251 Y132.749 E1.70122 ; perimeter
G1 X170.647 Y133.232 E1.70593 ; perimeter
G1 X170.941 Y133.782 E1.71064 ; perimeter
G1 X171.122 Y134.379 E1.71536 ; perimeter
G1 X171.183 Y135.000 E1.72007 ; perimeter
G1 X171.122 Y135.621 E1.72478 ; perimeter
G1 X170.941 Y136.218 E1.72950 ; perimeter
G1 X170.647 Y136.768 E1.73421 ; perimeter
G1 X170.251 Y137.251 E1.73892 ; perimeter
G1 X169.768 Y137.647 E1.74364 ; perimeter
G1 X169.218 Y137.941 E1.74835 ; perimeter
G1 X168.621 Y138.122 E1.75306 ; perimeter
G1 X168.112 Y138.172 E1.75692 ; perimeter
G1 X168.102 Y138.065 F3600.000 ; move to first perimeter point
G1 X168.001 Y138.075 E1.75769 F450.000 ; perimeter
G1 X167.458 Y138.034 E1.76180 ; perimeter
G1 X166.823 Y137.841 E1.76681 ; perimeter
G1 X166.291 Y137.557 E1.77137 ; perimeter
G1 X165.825 Y137.175 E1.77592 ; perimeter
G1 X165.443 Y136.709 E1.78047 ; perimeter
G1 X165.159 Y136.177 E1.78503 ; perimeter
G1 X164.984 Y135.600 E1.78958 ; perimeter
G1 X164.925 Y135.000 E1.79413 ; perimeter
G1 X164.984 Y134.400 E1.79869 ; perimeter
G1 X165.159 Y133.823 E1.80324 ; perimeter
G1 X165.443 Y133.291 E1.80780 ; perimeter
G1 X165.825 Y132.825 E1.81235 ; perimeter
G1 X166.291 Y132.443 E1.81690 ; perimeter
G1 X166.823 Y132.159 E1.82146 ; perimeter
G1 X167.407 Y131.983 E1.82607 ; perimeter
G1 X168.000 Y131.925 E1.83056 F450.000 ; perimeter
G1 X168.600 Y131.984 E1.83512 ; perimeter
G1 X169.177 Y132.159 E1.83967 ; perimeter
G1 X169.709 Y132.443 E1.84422 ; perimeter
G1 X170.175 Y132.825 E1.84878 ; perimeter
G1 X170.557 Y133.291 E1.85333 ; perimeter
G1 X170.841 Y133.823 E1.85789 ; perimeter
G1 X171.016 Y134.400 E1.86244 ; perimeter
G1 X171.075 Y135.000 E1.86699 ; perimeter
G1 X171.016 Y135.600 E1.87155 ; perimeter
G1 X170.841 Y136.177 E1.87610 ; perimeter
G1 X170.557 Y136.709 E1.88065 ; perimeter
G1 X170.175 Y137.175 E1.88521 ; perimeter
G1 X169.709 Y137.557 E1.88976 ; perimeter
G1 X169.177 Y137.841 E1.89432 ; perimeter
G1 X168.600 Y138.016 E1.89887 ; perimeter
G1 X168.161 Y138.059 E1.90220 ; perimeter
G1 X168.060 Y138.158 F3600.000 ; move inwards before travel
G1 X156.789 Y141.786 F3600.000 ; move to first perimeter point
G1 X156.789 Y128.789 E2.00037 F900.000 ; perimeter
G1 X179.211 Y128.789 E2.16973 ; perimeter
G1 X179.211 Y171.211 E2.49016 ; perimeter
G1 X156.789 Y171.211 E2.65951 F900.000 ; perimeter
G1 X156.789 Y141.846 E2.88131 ; perimeter
G1 X156.682 Y141.846 F3600.000 ; move to first perimeter point
G1 X156.682 Y128.682 E2.98075 F900.000 ; perimeter
G1 X179.318 Y128.682 E3.15173 ; perimeter
G1 X179.318 Y171.318 E3.47377 ; perimeter
G1 X156.682 Y171.318 E3.64475 F900.000 ; perimeter
G1 X156.682 Y141.906 E3.86690 ; perimeter
G1 X156.575 Y141.906 F3600.000 ; move to first perimeter point
G1 X156.575 Y128.575 E3.96760 F450.000 ; perimeter
G1 X179.425 Y128.575 E4.14019 ; perimeter
G1 X179.425 Y171.425 E4.46385 ; perimeter
G1 X156.575 Y171.425 E4.63645 F450.000 ; perimeter
G1 X156.575 Y141.966 E4.85896 ; perimeter
G1 X156.921 Y141.706 F3600.000 ; move inwards before travel
G1 X165.164 Y136.771 F3600.000 ; move to first infill point
G1 X157.230 Y128.837 E4.94387 F900.000 ; infill
G1 X157.078 Y128.837 E4.94502 ; infill
G1 X179.163 Y150.922 E5.18136 ; infill
G1 X179.163 Y151.074 E5.18251 ; infill
G1 X156.926 Y128.837 E5.42048 ; infill
G1 X156.837 Y128.900 E5.42131 ; infill
G1 X179.163 Y151.225 E5.66023 ; infill
G1 X179.163 Y151.377 E5.66138 ; infill
G1 X156.837 Y129.052 E5.90031 ; infill
G1 X156.837 Y129.204 E5.90145 ; infill
G1 X179.163 Y151.529 E6.14038 ; infill
G1 X179.163 Y151.680 E6.14153 ; infill
G1 X156.837 Y129.355 E6.38045 ; infill
G1 X156.837 Y129.507 E6.38160 ; infill
G1 X179.163 Y151.832 E6.62052 ; infill
G1 X179.163 Y151.984 E6.62167 ; infill
G1 X156.837 Y129.659 E6.86060 ; infill
G1 X156.837 Y129.810 E6.86175 ; infill
G1 X179.163 Y152.136 E7.10067 ; infill
G1 X179.163 Y152.287 E7.10182 ; infill
G1 X156.837 Y129.962 E7.34074 ; infill
G1 X156.837 Y130.114 E7.34189 ; infill
G1 X179.163 Y152.439 E7.58082 ; infill
G1 X179.163 Y152.591 E7.58196 ; infill
G1 X156.837 Y130.266 E7.82089 ; infill
G1 X156.837 Y130.417 E7.82204 ; infill
G1 X179.163 Y152.742 E8.06096 ; infill
G1 X179.163 Y152.894 E8.06211 ; infill
G1 X156.837 Y130.569 E8.30103 ; infill
G1 X156.837 Y130.721 E8.30218 ; infill
G1 X179.163 Y153.046 E8.54111 ; infill
G1 X179.163 Y153.198 E8.54226 ; infill
G1 X156.837 Y130.872 E8.78118 ; infill
G1 X156.837 Y131.024 E8.78233 ; infill
G1 X179.163 Y153.349 E9.02125 ; infill
G1 X179.163 Y153.501 E9.02240 ; infill
G1 X156.837 Y131.176 E9.26133 ; infill
G1 X156.837 Y131.328 E9.26247 ; infill
G1 X179.163 Y153.653 E9.50140 ; infill
G1 X179.163 Y153.804 E9.50255 ; infill
G1 X156.837 Y131.479 E9.74147 ; infill
G1 X156.837 Y131.631 E9.74262 ; infill
G1 X179.163 Y153.956 E9.98155 ; infill
G1 X179.163 Y154.108 E9.98269 ; infill
G1 X156.837 Y131.783 E10.22162 ; infill
G1 X156.837 Y131.935 E10.22277 ; infill
G1 X179.163 Y154.260 E10.46169 ; infill
G1 X179.163 Y154.411 E10.46284 ; infill
G1 X156.837 Y132.086 E10.70176 ; infill
G1 X156.837 Y132.238 E10.70291 ; infill
G1 X179.163 Y154.563 E10.94184 ; infill
G1 X179.163 Y154.715 E10.94298 ; infill
G1 X156.837 Y132.390 E11.18191 ; infill
G1 X156.837 Y132.541 E11.18306 ; infill
G1 X179.163 Y154.866 E11.42198 ; infill
G1 X179.163 Y155.018 E11.42313 ; infill
G1 X156.837 Y132.693 E11.66206 ; infill
G1 X156.837 Y132.845 E11.66320 ; infill
G1 X179.163 Y155.170 E11.90213 ; infill
G1 X179.163 Y155.322 E11.90328 ; infill
G1 X156.837 Y132.997 E12.14220 ; infill
G1 X156.837 Y133.148 E12.14335 ; infill
G1 X179.163 Y155.473 E12.38227 ; infill
G1 X179.163 Y155.625 E12.38342 ; infill
G1 X156.837 Y133.300 E12.62235 ; infill
G1 X156.837 Y133.452 E12.62349 ; infill
G1 X179.163 Y155.777 E12.86242 ; infill
G1 X179.163 Y155.929 E12.86357 ; infill
G1 X156.837 Y133.603 E13.10249 ; infill
G1 X156.837 Y133.755 E13.10364 ; infill
G1 X179.163 Y156.080 E13.34257 ; infill
G1 X179.163 Y156.232 E13.34371 ; infill
