; generated by Slic3r 1.2.9 on 2016-01-18 at 18:06:48

; external perimeters extrusion width = 0.40mm
; perimeters extrusion width = 0.67mm
; infill extrusion width = 0.67mm
; solid infill extrusion width = 0.67mm
; top infill extrusion width = 0.67mm

M107 ; disable fan
M104 S220 ; set temperature
M80 ; Power supply on
G28 ; home all axes

M109 S220 ; wait for temperature to be reached
G21 ; set units to millimeters
G90 ; use absolute coordinates
M82 ; use absolute distances for extrusion
G92 E0 ; reset extrusion distance
G1 E-1.00000 F480.00000 ; retract
G92 E0 ; reset extrusion distance
G1 Z0.200 F6600.000 ; move to next layer (0)
G1 X141.365 Y86.213 F6600.000 ; move to first skirt point
G1 E1.00000 F480.00000 ; unretract
G1 X143.100 Y84.839 E1.00891 F2100.000 ; skirt
G1 X146.000 Y84.115 E1.02094 ; skirt
G1 X190.000 Y84.115 E1.19810 ; skirt
G1 X192.177 Y84.512 E1.20701 ; skirt
G1 X194.074 Y85.652 E1.21592 F2100.000 ; skirt
G1 X195.447 Y87.387 E1.22484 ; skirt
G1 X196.171 Y90.287 E1.23687 ; skirt
G1 X196.171 Y105.717 E1.29900 ; skirt
G1 X196.116 Y106.540 E1.30232 ; skirt
G1 X182.116 Y210.537 E1.72483 ; skirt
G1 X181.432 Y212.641 E1.73374 ; skirt
G1 X180.050 Y214.369 E1.74265 ; skirt
G1 X178.147 Y215.499 E1.75156 ; skirt
G1 X176.000 Y215.885 E1.76034 ; skirt
G1 X160.000 Y215.885 E1.82476 ; skirt
G1 X157.823 Y215.488 E1.83367 ; skirt
G1 X155.926 Y214.348 E1.84258 ; skirt
G1 X154.553 Y212.613 E1.85149 ; skirt
G1 X153.884 Y210.537 E1.86028 ; skirt
G1 X139.884 Y106.540 E2.28278 ; skirt
G1 X139.829 Y105.717 E2.28610 ; skirt
G1 X139.829 Y90.287 E2.34823 ; skirt
G1 X140.226 Y88.110 E2.35714 ; skirt
G1 X141.334 Y86.264 E2.36581 ; skirt
G1 X141.385 Y86.295 F6600.000 ; move to first skirt point
G1 X141.421 Y86.235 E2.36609 F2100.000 ; skirt
G1 X143.154 Y84.875 E2.37496 ; skirt
G1 X146.000 Y84.173 E2.38676 ; skirt
G1 X190.000 Y84.173 E2.56392 ; skirt
G1 X192.167 Y84.569 E2.57279 ; skirt
G1 X194.052 Y85.708 E2.58166 F2100.000 ; skirt
G1 X195.411 Y87.441 E2.59053 ; skirt
G1 X196.114 Y90.287 E2.60233 ; skirt
G1 X196.114 Y105.717 E2.66446 ; skirt
G1 X196.059 Y106.532 E2.66775 ; skirt
G1 X182.059 Y210.529 E3.09026 ; skirt
G1 X181.377 Y212.623 E3.09912 ; skirt
G1 X179.997 Y214.340 E3.10799 ; skirt
G1 X178.098 Y215.456 E3.11686 ; skirt
G1 X176.000 Y215.827 E3.12544 ; skirt
G1 X160.000 Y215.827 E3.18986 ; skirt
G1 X157.833 Y215.431 E3.19873 ; skirt
G1 X155.948 Y214.292 E3.20760 ; skirt
G1 X154.589 Y212.559 E3.21647 ; skirt
G1 X153.940 Y210.529 E3.22505 ; skirt
G1 X139.940 Y106.532 E3.64755 ; skirt
G1 X139.886 Y105.717 E3.65085 ; skirt
G1 X139.886 Y90.287 E3.71297 ; skirt
G1 X140.283 Y88.120 E3.72184 ; skirt
G1 X141.354 Y86.346 E3.73019 ; skirt
G1 X141.405 Y86.377 F6600.000 ; move to first skirt point
G1 X141.478 Y86.257 E3.73075 F2100.000 ; skirt
G1 X143.208 Y84.911 E3.73958 ; skirt
G1 X146.000 Y84.230 E3.75115 ; skirt
G1 X190.000 Y84.230 E3.92831 ; skirt
G1 X192.156 Y84.626 E3.93714 ; skirt
G1 X194.030 Y85.764 E3.94596 F2100.000 ; skirt
G1 X195.375 Y87.495 E3.95479 ; skirt
G1 X196.057 Y90.287 E3.96636 ; skirt
G1 X196.057 Y105.717 E4.02849 ; skirt
G1 X196.003 Y106.525 E4.03175 ; skirt
G1 X182.003 Y210.521 E4.45425 ; skirt
G1 X181.322 Y212.605 E4.46308 ; skirt
G1 X179.944 Y214.310 E4.47191 ; skirt
G1 X178.050 Y215.413 E4.48073 ; skirt
G1 X176.000 Y215.770 E4.48911 ; skirt
G1 X160.000 Y215.770 E4.55353 ; skirt
G1 X157.844 Y215.374 E4.56236 ; skirt
G1 X155.970 Y214.236 E4.57119 ; skirt
G1 X154.625 Y212.505 E4.58001 ; skirt
G1 X153.997 Y210.521 E4.58839 ; skirt
G1 X139.997 Y106.525 E5.01090 ; skirt
G1 X139.943 Y105.717 E5.01416 ; skirt
G1 X139.943 Y90.287 E5.07628 ; skirt
G1 X140.340 Y88.131 E5.08511 ; skirt
G1 X141.374 Y86.428 E5.09313 ; skirt
G1 E4.09313 F480.00000 ; retract
G92 E0 ; reset extrusion distance
G1 X175.893 Y130.076 F6600.000 ; move to first perimeter point
G1 E1.00000 F480.00000 ; unretract
G1 X175.893 Y209.606 E1.32022 F1800.000 ; perimeter
G1 X172.107 Y209.606 E1.33546 ; perimeter
G1 X172.107 Y179.606 E1.45625 ; perimeter
G1 X163.893 Y179.606 E1.48933 ; perimeter
G1 X163.893 Y209.606 E1.61012 ; perimeter
G1 X160.107 Y209.606 E1.62536 ; perimeter
G1 X160.107 Y105.606 E2.04410 ; perimeter
G1 X146.107 Y105.610 E2.10047 ; perimeter
G1 X146.107 Y90.394 E2.16174 ; perimeter
G1 X147.893 Y90.394 E2.16893 ; perimeter
G1 X147.893 Y99.820 E2.20688 ; perimeter
G1 X188.107 Y99.820 E2.36880 F1800.000 ; perimeter
G1 X188.107 Y90.394 E2.40675 ; perimeter
G1 X189.893 Y90.394 E2.41395 ; perimeter
G1 X189.893 Y105.610 E2.47521 ; perimeter
G1 X175.893 Y105.606 E2.53158 ; perimeter
G1 X175.893 Y130.016 E2.62986 ; perimeter
G1 X175.950 Y130.016 F6600.000 ; move to first perimeter point
G1 X175.950 Y209.663 E2.95055 F900.000 ; perimeter
G1 X172.050 Y209.663 E2.96625 ; perimeter
G1 X172.050 Y179.663 E3.08705 ; perimeter
G1 X163.950 Y179.663 E3.11966 ; perimeter
G1 X163.950 Y209.663 E3.24045 ; perimeter
G1 X160.050 Y209.663 E3.25615 ; perimeter
G1 X160.050 Y105.663 E3.67490 ; perimeter
G1 X146.050 Y105.667 E3.73127 ; perimeter
G1 X146.050 Y90.337 E3.79299 ; perimeter
G1 X147.950 Y90.337 E3.80064 ; perimeter
G1 X147.950 Y99.763 E3.83860 ; perimeter
G1 X188.050 Y99.763 E4.00005 F900.000 ; perimeter
G1 X188.050 Y90.337 E4.03801 ; perimeter
G1 X189.950 Y90.337 E4.04566 ; perimeter
G1 X189.950 Y105.667 E4.10738 ; perimeter
G1 X175.950 Y105.663 E4.16375 ; perimeter
G1 X175.950 Y129.956 E4.26156 ; perimeter
G1 X175.604 Y130.216 F6600.000 ; move inwards before travel
G1 X175.877 Y129.925 F6600.000 ; move to first infill point
G1 X160.123 Y114.172 E4.35128 F1800.000 ; infill
G1 X160.123 Y114.253 F6600.000 ; move to first infill point
G1 X175.877 Y130.006 E4.44100 F1800.000 ; infill
G1 X175.877 Y130.087 F6600.000 ; move to first infill point
G1 X160.123 Y114.333 E4.53072 F1800.000 ; infill
G1 X160.123 Y114.414 F6600.000 ; move to first infill point
G1 X175.877 Y130.167 E4.62044 F1800.000 ; infill
G1 X175.877 Y130.248 F6600.000 ; move to first infill point
G1 X160.123 Y114.495 E4.71017 F1800.000 ; infill
G1 X160.123 Y114.576 F6600.000 ; move to first infill point
G1 X175.877 Y130.329 E4.79989 F1800.000 ; infill
G1 X175.877 Y130.409 F6600.000 ; move to first infill point
G1 X160.123 Y114.656 E4.88961 F1800.000 ; infill
G1 X160.123 Y114.737 F6600.000 ; move to first infill point
G1 X175.877 Y130.490 E4.97933 F1800.000 ; infill
G1 X175.877 Y130.571 F6600.000 ; move to first infill point
G1 X160.123 Y114.818 E5.06905 F1800.000 ; infill
G1 X160.123 Y114.899 F6600.000 ; move to first infill point
G1 X175.877 Y130.652 E5.15877 F1800.000 ; infill
G1 X175.877 Y130.732 F6600.000 ; move to first infill point
G1 X160.123 Y114.979 E5.24849 F1800.000 ; infill
G1 X160.123 Y115.060 F6600.000 ; move to first infill point
G1 X175.877 Y130.813 E5.33821 F1800.000 ; infill
G1 X175.877 Y130.894 F6600.000 ; move to first infill point
G1 X160.123 Y115.141 E5.42793 F1800.000 ; infill
G1 X160.123 Y115.222 F6600.000 ; move to first infill point
G1 X175.877 Y130.975 E5.51765 F1800.000 ; infill
G1 X175.877 Y131.055 F6600.000 ; move to first infill point
G1 X160.123 Y115.302 E5.60737 F1800.000 ; infill
G1 X160.123 Y115.383 F6600.000 ; move to first infill point
G1 X175.877 Y131.136 E5.69709 F1800.000 ; infill
G1 X175.877 Y131.217 F6600.000 ; move to first infill point
G1 X160.123 Y115.464 E5.78681 F1800.000 ; infill
G1 X160.123 Y115.545 F6600.000 ; move to first infill point
G1 X175.877 Y131.298 E5.87653 F1800.000 ; infill
G1 X175.877 Y131.378 F6600.000 ; move to first infill point
G1 X160.123 Y115.625 E5.96626 F1800.000 ; infill
G1 X160.123 Y115.706 F6600.000 ; move to first infill point
G1 X175.877 Y131.459 E6.05598 F1800.000 ; infill
G1 X175.877 Y131.540 F6600.000 ; move to first infill point
G1 X160.123 Y115.787 E6.14570 F1800.000 ; infill
G1 X160.123 Y115.868 F6600.000 ; move to first infill point
G1 X175.877 Y131.621 E6.23542 F1800.000 ; infill
G1 X175.877 Y131.701 F6600.000 ; move to first infill point
G1 X160.123 Y115.948 E6.32514 F1800.000 ; infill
G1 X160.123 Y116.029 F6600.000 ; move to first infill point
G1 X175.877 Y131.782 E6.41486 F1800.000 ; infill
G1 X175.877 Y131.863 F6600.000 ; move to first infill point
G1 X160.123 Y116.110 E6.50458 F1800.000 ; infill
G1 X160.123 Y116.190 F6600.000 ; move to first infill point
G1 X175.877 Y131.944 E6.59430 F1800.000 ; infill
G1 X175.877 Y132.024 F6600.000 ; move to first infill point
G1 X160.123 Y116.271 E6.68402 F1800.000 ; infill
G1 X160.123 Y116.352 F6600.000 ; move to first infill point
G1 X175.877 Y132.105 E6.77374 F1800.000 ; infill
G1 X175.877 Y132.186 F6600.000 ; move to first infill point
G1 X160.123 Y116.433 E6.86346 F1800.000 ; infill
G1 X160.123 Y116.513 F6600.000 ; move to first infill point
G1 X175.877 Y132.267 E6.95318 F1800.000 ; infill
G1 X175.877 Y132.347 F6600.000 ; move to first infill point
G1 X160.123 Y116.594 E7.04290 F1800.000 ; infill
G1 X160.123 Y116.675 F6600.000 ; move to first infill point
G1 X175.877 Y132.428 E7.13262 F1800.000 ; infill
G1 X175.877 Y132.509 F6600.000 ; move to first infill point
G1 X160.123 Y116.756 E7.22235 F1800.000 ; infill
G1 X160.123 Y116.836 F6600.000 ; move to first infill point
G1 X175.877 Y132.589 E7.31207 F1800.000 ; infill
G1 X175.877 Y132.670 F6600.000 ; move to first infill point
G1 X160.123 Y116.917 E7.40179 F1800.000 ; infill
G1 X160.123 Y116.998 F6600.000 ; move to first infill point
G1 X175.877 Y132.751 E7.49151 F1800.000 ; infill
G1 X175.877 Y132.832 F6600.000 ; move to first infill point
G1 X160.123 Y117.079 E7.58123 F1800.000 ; infill
G1 X160.123 Y117.159 F6600.000 ; move to first infill point
G1 X175.877 Y132.912 E7.67095 F1800.000 ; infill
G1 X175.877 Y132.993 F6600.000 ; move to first infill point
G1 X160.123 Y117.240 E7.76067 F1800.000 ; infill
G1 X160.123 Y117.321 F6600.000 ; move to first infill point
G1 X175.877 Y133.074 E7.85039 F1800.000 ; infill
G1 X175.877 Y133.155 F6600.000 ; move to first infill point
G1 X160.123 Y117.402 E7.94011 F1800.000 ; infill
G1 X160.123 Y117.482 F6600.000 ; move to first infill point
G1 X175.877 Y133.235 E8.02983 F1800.000 ; infill
G1 X175.877 Y133.316 F6600.000 ; move to first infill point
G1 X160.123 Y117.563 E8.11955 F1800.000 ; infill
G1 X160.123 Y117.644 F6600.000 ; move to first infill point
G1 X175.877 Y133.397 E8.20927 F1800.000 ; infill
G1 X175.877 Y133.478 F6600.000 ; move to first infill point
G1 X160.123 Y117.725 E8.29899 F1800.000 ; infill
G1 X160.123 Y117.805 F6600.000 ; move to first infill point
G1 X175.877 Y133.558 E8.38871 F1800.000 ; infill
G1 X175.877 Y133.639 F6600.000 ; move to first infill point
G1 X160.123 Y117.886 E8.47843 F1800.000 ; infill
G1 X160.123 Y117.967 F6600.000 ; move to first infill point
G1 X175.877 Y133.720 E8.56816 F1800.000 ; infill
G1 X175.877 Y133.801 F6600.000 ; move to first infill point
G1 X160.123 Y118.048 E8.65788 F1800.000 ; infill
G1 X160.123 Y118.128 F6600.000 ; move to first infill point
G1 X175.877 Y133.881 E8.74760 F1800.000 ; infill
G1 X175.877 Y133.962 F6600.000 ; move to first infill point
G1 X160.123 Y118.209 E8.83732 F1800.000 ; infill
G1 X160.123 Y118.290 F6600.000 ; move to first infill point
G1 X175.877 Y134.043 E8.92704 F1800.000 ; infill
G1 X175.877 Y134.124 F6600.000 ; move to first infill point
G1 X160.123 Y118.371 E9.01676 F1800.000 ; infill
G1 X160.123 Y118.451 F6600.000 ; move to first infill point
G1 X175.877 Y134.204 E9.10648 F1800.000 ; infill
G1 X175.877 Y134.285 F6600.000 ; move to first infill point
G1 X160.123 Y118.532 E9.19620 F1800.000 ; infill
G1 X160.123 Y118.613 F6600.000 ; move to first infill point
G1 X175.877 Y134.366 E9.28592 F1800.000 ; infill
G1 X175.877 Y134.447 F6600.000 ; move to first infill point
G1 X160.123 Y118.693 E9.37564 F1800.000 ; infill
G1 X160.123 Y118.774 F6600.000 ; move to first infill point
G1 X175.877 Y134.527 E9.46536 F1800.000 ; infill
G1 X175.877 Y134.608 F6600.000 ; move to first infill point
G1 X160.123 Y118.855 E9.55508 F1800.000 ; infill
G1 X160.123 Y118.936 F6600.000 ; move to first infill point
G1 X175.877 Y134.689 E9.64480 F1800.000 ; infill
G1 X175.877 Y134.769 F6600.000 ; move to first infill point
G1 X160.123 Y119.016 E9.73452 F1800.000 ; infill
G1 X160.123 Y119.097 F6600.000 ; move to first infill point
G1 X175.877 Y134.850 E9.82425 F1800.000 ; infill
G1 X175.877 Y134.931 F6600.000 ; move to first infill point
G1 X160.123 Y119.178 E9.91397 F1800.000 ; infill
G1 X160.123 Y119.259 F6600.000 ; move to first infill point
G1 X175.877 Y135.012 E10.00369 F1800.000 ; infill
G1 X175.877 Y135.092 F6600.000 ; move to first infill point
G1 X160.123 Y119.339 E10.09341 F1800.000 ; infill
G1 X160.123 Y119.420 F6600.000 ; move to first infill point
G1 X175.877 Y135.173 E10.18313 F1800.000 ; infill
G1 X175.877 Y135.254 F6600.000 ; move to first infill point
G1 X160.123 Y119.501 E10.27285 F1800.000 ; infill
G1 X160.123 Y119.582 F6600.000 ; move to first infill point
G1 X175.877 Y135.335 E10.36257 F1800.000 ; infill
G1 X175.877 Y135.415 F6600.000 ; move to first infill point
G1 X160.123 Y119.662 E10.45229 F1800.000 ; infill
G1 X160.123 Y119.743 F6600.000 ; move to first infill point
G1 X175.877 Y135.496 E10.54201 F1800.000 ; infill
G1 X175.877 Y135.577 F6600.000 ; move to first infill point
G1 X160.123 Y119.824 E10.63173 F1800.000 ; infill
G1 X160.123 Y119.905 F6600.000 ; move to first infill point
G1 X175.877 Y135.658 E10.72145 F1800.000 ; infill
G1 X175.877 Y135.738 F6600.000 ; move to first infill point
G1 X160.123 Y119.985 E10.81117 F1800.000 ; infill
G1 X160.123 Y120.066 F6600.000 ; move to first infill point
G1 X175.877 Y135.819 E10.90089 F1800.000 ; infill
G1 X175.877 Y135.900 F6600.000 ; move to first infill point
G1 X160.123 Y120.147 E10.99061 F1800.000 ; infill
G1 X160.123 Y120.228 F6600.000 ; move to first infill point
G1 X175.877 Y135.981 E11.08034 F1800.000 ; infill
G1 X175.877 Y136.061 F6600.000 ; move to first infill point
G1 X160.123 Y120.308 E11.17006 F1800.000 ; infill
G1 X160.123 Y120.389 F6600.000 ; move to first infill point
G1 X175.877 Y136.142 E11.25978 F1800.000 ; infill
G1 X175.877 Y136.223 F6600.000 ; move to first infill point
G1 X160.123 Y120.470 E11.34950 F1800.000 ; infill
G1 X160.123 Y120.551 F6600.000 ; move to first infill point
G1 X175.877 Y136.304 E11.43922 F1800.000 ; infill
G1 X175.877 Y136.384 F6600.000 ; move to first infill point
G1 X160.123 Y120.631 E11.52894 F1800.000 ; infill
G1 X160.123 Y120.712 F6600.000 ; move to first infill point
G1 X175.877 Y136.465 E11.61866 F1800.000 ; infill
G1 X175.877 Y136.546 F6600.000 ; move to first infill point
G1 X160.123 Y120.793 E11.70838 F1800.000 ; infill
G1 X160.123 Y120.873 F6600.000 ; move to first infill point
G1 X175.877 Y136.627 E11.79810 F1800.000 ; infill
G1 X175.877 Y136.707 F6600.000 ; move to first infill point
G1 X160.123 Y120.954 E11.88782 F1800.000 ; infill
G1 X160.123 Y121.035 F6600.000 ; move to first infill point
G1 X175.877 Y136.788 E11.97754 F1800.000 ; infill
G1 X175.877 Y136.869 F6600.000 ; move to first infill point
G1 X160.123 Y121.116 E12.06726 F1800.000 ; infill
G1 X160.123 Y121.196 F6600.000 ; move to first infill point
G1 X175.877 Y136.950 E12.15698 F1800.000 ; infill
G1 X175.877 Y137.030 F6600.000 ; move to first infill point
G1 X160.123 Y121.277 E12.24670 F1800.000 ; infill
G1 X160.123 Y121.358 F6600.000 ; move to first infill point
G1 X175.877 Y137.111 E12.33643 F1800.000 ; infill
G1 X175.877 Y137.192 F6600.000 ; move to first infill point
G1 X160.123 Y121.439 E12.42615 F1800.000 ; infill
G1 X160.123 Y121.519 F6600.000 ; move to first infill point
G1 X175.877 Y137.272 E12.51587 F1800.000 ; infill
G1 X175.877 Y137.353 F6600.000 ; move to first infill point
G1 X160.123 Y121.600 E12.60559 F1800.000 ; infill
G1 X160.123 Y121.681 F6600.000 ; move to first infill point
G1 X175.877 Y137.434 E12.69531 F1800.000 ; infill
G1 X175.877 Y137.515 F6600.000 ; move to first infill point
G1 X160.123 Y121.762 E12.78503 F1800.000 ; infill
G1 X160.123 Y121.842 F6600.000 ; move to first infill point
G1 X175.877 Y137.595 E12.87475 F1800.000 ; infill
G1 X175.877 Y137.676 F6600.000 ; move to first infill point
