; generated by Slic3r 1.2.9 on 2016-01-18 at 19:46:38

; external perimeters extrusion width = 0.40mm
; perimeters extrusion width = 0.67mm
; infill extrusion width = 0.67mm
; solid infill extrusion width = 0.67mm
; top infill extrusion width = 0.67mm

M107 ; disable fan
M104 S220 ; set temperature
M80 ; Power supply on
G28 ; home all axes

M109 S220 ; wait for temperature to be reached
G21 ; set units to millimeters
G90 ; use absolute coordinates
M82 ; use absolute distances for extrusion
G92 E0 ; reset extrusion distance
G1 E-1.00000 F480.00000 ; retract
G92 E0 ; reset extrusion distance
G1 Z0.200 F6600.000 ; move to next layer (0)
G1 X141.365 Y95.713 F6600.000 ; move to first skirt point
G1 E1.00000 F480.00000 ; unretract
G1 X143.100 Y94.339 E1.00891 F2100.000 ; skirt
G1 X146.000 Y93.615 E1.02094 ; skirt
G1 X190.000 Y93.615 E1.19810 ; skirt
G1 X192.177 Y94.012 E1.20701 ; skirt
G1 X194.074 Y95.152 E1.21592 F2100.000 ; skirt
G1 X195.447 Y96.887 E1.22484 ; skirt
G1 X196.171 Y99.787 E1.23687 ; skirt
G1 X196.171 Y115.217 E1.29900 ; skirt
G1 X196.111 Y116.079 E1.30248 ; skirt
G1 X184.111 Y201.076 E1.64810 ; skirt
G1 X183.413 Y203.176 E1.65701 ; skirt
G1 X182.020 Y204.895 E1.66592 ; skirt
G1 X180.110 Y206.013 E1.67483 ; skirt
G1 X178.000 Y206.385 E1.68346 ; skirt
G1 X158.000 Y206.385 E1.76398 ; skirt
G1 X155.823 Y205.988 E1.77289 ; skirt
G1 X153.926 Y204.848 E1.78180 ; skirt
G1 X152.553 Y203.113 E1.79071 ; skirt
G1 X151.889 Y201.076 E1.79934 ; skirt
G1 X139.889 Y116.079 E2.14496 ; skirt
G1 X139.829 Y115.217 E2.14844 ; skirt
G1 X139.829 Y99.787 E2.21057 ; skirt
G1 X140.226 Y97.610 E2.21948 ; skirt
G1 X141.334 Y95.764 E2.22815 ; skirt
G1 X141.385 Y95.795 F6600.000 ; move to first skirt point
G1 X141.421 Y95.735 E2.22843 F2100.000 ; skirt
G1 X143.154 Y94.375 E2.23730 ; skirt
G1 X146.000 Y93.673 E2.24910 ; skirt
G1 X190.000 Y93.673 E2.42626 ; skirt
G1 X192.167 Y94.069 E2.43513 ; skirt
G1 X194.052 Y95.208 E2.44400 F2100.000 ; skirt
G1 X195.411 Y96.941 E2.45287 ; skirt
G1 X196.114 Y99.787 E2.46467 ; skirt
G1 X196.114 Y115.217 E2.52680 ; skirt
G1 X196.054 Y116.071 E2.53025 ; skirt
G1 X184.054 Y201.068 E2.87587 ; skirt
G1 X183.358 Y203.158 E2.88474 ; skirt
G1 X181.967 Y204.865 E2.89361 ; skirt
G1 X180.061 Y205.969 E2.90248 ; skirt
G1 X178.000 Y206.327 E2.91090 ; skirt
G1 X158.000 Y206.327 E2.99143 ; skirt
G1 X155.833 Y205.931 E3.00030 ; skirt
G1 X153.948 Y204.792 E3.00916 ; skirt
G1 X152.589 Y203.059 E3.01803 ; skirt
G1 X151.946 Y201.068 E3.02646 ; skirt
G1 X139.946 Y116.071 E3.37208 ; skirt
G1 X139.886 Y115.217 E3.37553 ; skirt
G1 X139.886 Y99.787 E3.43765 ; skirt
G1 X140.283 Y97.620 E3.44652 ; skirt
G1 X141.354 Y95.846 E3.45487 ; skirt
G1 X141.405 Y95.877 F6600.000 ; move to first skirt point
G1 X141.478 Y95.757 E3.45543 F2100.000 ; skirt
G1 X143.208 Y94.411 E3.46426 ; skirt
G1 X146.000 Y93.730 E3.47583 ; skirt
G1 X190.000 Y93.730 E3.65299 ; skirt
G1 X192.156 Y94.126 E3.66182 ; skirt
G1 X194.030 Y95.264 E3.67064 F2100.000 ; skirt
G1 X195.375 Y96.995 E3.67947 ; skirt
G1 X196.057 Y99.787 E3.69104 ; skirt
G1 X196.057 Y115.217 E3.75317 ; skirt
G1 X195.998 Y116.063 E3.75659 ; skirt
G1 X183.998 Y201.060 E4.10221 ; skirt
G1 X183.303 Y203.139 E4.11103 ; skirt
G1 X181.915 Y204.835 E4.11986 ; skirt
G1 X180.013 Y205.926 E4.12869 ; skirt
G1 X178.000 Y206.270 E4.13691 ; skirt
G1 X158.000 Y206.270 E4.21744 ; skirt
G1 X155.844 Y205.874 E4.22626 ; skirt
G1 X153.970 Y204.736 E4.23509 ; skirt
G1 X152.625 Y203.005 E4.24392 ; skirt
G1 X152.002 Y201.060 E4.25214 ; skirt
G1 X140.002 Y116.063 E4.59776 ; skirt
G1 X139.943 Y115.217 E4.60118 ; skirt
G1 X139.943 Y99.787 E4.66331 ; skirt
G1 X140.340 Y97.631 E4.67213 ; skirt
G1 X141.374 Y95.928 E4.68015 ; skirt
G1 E3.68015 F480.00000 ; retract
G92 E0 ; reset extrusion distance
G1 X158.107 Y133.740 F6600.000 ; move to first perimeter point
G1 E1.00000 F480.00000 ; unretract
G1 X158.107 Y115.106 E1.07503 F1800.000 ; perimeter
G1 X146.107 Y115.110 E1.12334 ; perimeter
G1 X146.107 Y99.894 E1.18461 ; perimeter
G1 X147.893 Y99.894 E1.19180 ; perimeter
G1 X147.893 Y110.320 E1.23378 ; perimeter
G1 X188.107 Y110.320 E1.39570 F1800.000 ; perimeter
G1 X188.107 Y99.894 E1.43768 ; perimeter
G1 X189.893 Y99.894 E1.44487 ; perimeter
G1 X189.893 Y115.110 E1.50613 ; perimeter
G1 X177.893 Y115.106 E1.55445 ; perimeter
G1 X177.893 Y200.106 E1.89669 ; perimeter
G1 X172.107 Y200.106 E1.91999 ; perimeter
G1 X172.107 Y170.106 E2.04078 ; perimeter
G1 X163.893 Y170.106 E2.07385 ; perimeter
G1 X163.893 Y200.106 E2.19464 ; perimeter
G1 X158.107 Y200.106 E2.21794 ; perimeter
G1 X158.107 Y133.800 E2.48491 ; perimeter
G1 X158.050 Y133.800 F6600.000 ; move to first perimeter point
G1 X158.050 Y115.163 E2.55995 F900.000 ; perimeter
G1 X146.050 Y115.167 E2.60827 ; perimeter
G1 X146.050 Y99.837 E2.66999 ; perimeter
G1 X147.950 Y99.837 E2.67764 ; perimeter
G1 X147.950 Y110.263 E2.71962 ; perimeter
G1 X188.050 Y110.263 E2.88108 F900.000 ; perimeter
G1 X188.050 Y99.837 E2.92306 ; perimeter
G1 X189.950 Y99.837 E2.93071 ; perimeter
G1 X189.950 Y115.167 E2.99244 ; perimeter
G1 X177.950 Y115.163 E3.04075 ; perimeter
G1 X177.950 Y200.163 E3.38299 ; perimeter
G1 X172.050 Y200.163 E3.40675 ; perimeter
G1 X172.050 Y170.163 E3.52754 ; perimeter
G1 X163.950 Y170.163 E3.56016 ; perimeter
G1 X163.950 Y200.163 E3.68095 ; perimeter
G1 X158.050 Y200.163 E3.70470 ; perimeter
G1 X158.050 Y133.860 E3.97166 ; perimeter
G1 X158.396 Y133.600 F6600.000 ; move inwards before travel
G1 X158.123 Y133.882 F6600.000 ; move to first infill point
G1 X177.877 Y153.635 E4.08420 F1800.000 ; infill
G1 X177.877 Y153.554 F6600.000 ; move to first infill point
G1 X158.123 Y133.801 E4.19673 F1800.000 ; infill
G1 X158.123 Y133.720 F6600.000 ; move to first infill point
G1 X177.877 Y153.473 E4.30926 F1800.000 ; infill
G1 X177.877 Y153.393 F6600.000 ; move to first infill point
G1 X158.123 Y133.640 E4.42180 F1800.000 ; infill
G1 X158.123 Y133.559 F6600.000 ; move to first infill point
G1 X177.877 Y153.312 E4.53433 F1800.000 ; infill
G1 X177.877 Y153.231 F6600.000 ; move to first infill point
G1 X158.123 Y133.478 E4.64686 F1800.000 ; infill
G1 X158.123 Y133.397 F6600.000 ; move to first infill point
G1 X177.877 Y153.150 E4.75940 F1800.000 ; infill
G1 X177.877 Y153.070 F6600.000 ; move to first infill point
G1 X158.123 Y133.317 E4.87193 F1800.000 ; infill
G1 X158.123 Y133.236 F6600.000 ; move to first infill point
G1 X177.877 Y152.989 E4.98446 F1800.000 ; infill
G1 X177.877 Y152.908 F6600.000 ; move to first infill point
G1 X158.123 Y133.155 E5.09700 F1800.000 ; infill
G1 X158.123 Y133.074 F6600.000 ; move to first infill point
G1 X177.877 Y152.827 E5.20953 F1800.000 ; infill
G1 X177.877 Y152.747 F6600.000 ; move to first infill point
G1 X158.123 Y132.994 E5.32206 F1800.000 ; infill
G1 X158.123 Y132.913 F6600.000 ; move to first infill point
G1 X177.877 Y152.666 E5.43460 F1800.000 ; infill
G1 X177.877 Y152.585 F6600.000 ; move to first infill point
G1 X158.123 Y132.832 E5.54713 F1800.000 ; infill
G1 X158.123 Y132.751 F6600.000 ; move to first infill point
G1 X177.877 Y152.504 E5.65966 F1800.000 ; infill
G1 X177.877 Y152.424 F6600.000 ; move to first infill point
G1 X158.123 Y132.670 E5.77220 F1800.000 ; infill
G1 X158.123 Y132.590 F6600.000 ; move to first infill point
G1 X177.877 Y152.343 E5.88473 F1800.000 ; infill
G1 X177.877 Y152.262 F6600.000 ; move to first infill point
G1 X158.123 Y132.509 E5.99726 F1800.000 ; infill
G1 X158.123 Y132.428 F6600.000 ; move to first infill point
G1 X177.877 Y152.181 E6.10980 F1800.000 ; infill
G1 X177.877 Y152.100 F6600.000 ; move to first infill point
G1 X158.123 Y132.347 E6.22233 F1800.000 ; infill
G1 X158.123 Y132.267 F6600.000 ; move to first infill point
G1 X177.877 Y152.020 E6.33486 F1800.000 ; infill
G1 X177.877 Y151.939 F6600.000 ; move to first infill point
G1 X158.123 Y132.186 E6.44740 F1800.000 ; infill
G1 X158.123 Y132.105 F6600.000 ; move to first infill point
G1 X177.877 Y151.858 E6.55993 F1800.000 ; infill
G1 X177.877 Y151.777 F6600.000 ; move to first infill point
G1 X158.123 Y132.024 E6.67246 F1800.000 ; infill
G1 X158.123 Y131.944 F6600.000 ; move to first infill point
G1 X177.877 Y151.697 E6.78500 F1800.000 ; infill
G1 X177.877 Y151.616 F6600.000 ; move to first infill point
G1 X158.123 Y131.863 E6.89753 F1800.000 ; infill
G1 X158.123 Y131.782 F6600.000 ; move to first infill point
G1 X177.877 Y151.535 E7.01006 F1800.000 ; infill
G1 X177.877 Y151.454 F6600.000 ; move to first infill point
G1 X158.123 Y131.701 E7.12260 F1800.000 ; infill
G1 X158.123 Y131.621 F6600.000 ; move to first infill point
G1 X177.877 Y151.374 E7.23513 F1800.000 ; infill
G1 X177.877 Y151.293 F6600.000 ; move to first infill point
G1 X158.123 Y131.540 E7.34766 F1800.000 ; infill
G1 X158.123 Y131.459 F6600.000 ; move to first infill point
G1 X177.877 Y151.212 E7.46020 F1800.000 ; infill
G1 X177.877 Y151.131 F6600.000 ; move to first infill point
G1 X158.123 Y131.378 E7.57273 F1800.000 ; infill
G1 X158.123 Y131.297 F6600.000 ; move to first infill point
G1 X177.877 Y151.051 E7.68526 F1800.000 ; infill
G1 X177.877 Y150.970 F6600.000 ; move to first infill point
G1 X158.123 Y131.217 E7.79780 F1800.000 ; infill
G1 X158.123 Y131.136 F6600.000 ; move to first infill point
G1 X177.877 Y150.889 E7.91033 F1800.000 ; infill
G1 X177.877 Y150.808 F6600.000 ; move to first infill point
G1 X158.123 Y131.055 E8.02286 F1800.000 ; infill
G1 X158.123 Y130.974 F6600.000 ; move to first infill point
G1 X177.877 Y150.727 E8.13540 F1800.000 ; infill
G1 X177.877 Y150.647 F6600.000 ; move to first infill point
G1 X158.123 Y130.894 E8.24793 F1800.000 ; infill
G1 X158.123 Y130.813 F6600.000 ; move to first infill point
G1 X177.877 Y150.566 E8.36046 F1800.000 ; infill
G1 X177.877 Y150.485 F6600.000 ; move to first infill point
G1 X158.123 Y130.732 E8.47300 F1800.000 ; infill
G1 X158.123 Y130.651 F6600.000 ; move to first infill point
G1 X177.877 Y150.404 E8.58553 F1800.000 ; infill
G1 X177.877 Y150.324 F6600.000 ; move to first infill point
G1 X158.123 Y130.571 E8.69806 F1800.000 ; infill
G1 X158.123 Y130.490 F6600.000 ; move to first infill point
G1 X177.877 Y150.243 E8.81060 F1800.000 ; infill
G1 X177.877 Y150.162 F6600.000 ; move to first infill point
G1 X158.123 Y130.409 E8.92313 F1800.000 ; infill
G1 X158.123 Y130.328 F6600.000 ; move to first infill point
G1 X177.877 Y150.081 E9.03566 F1800.000 ; infill
G1 X177.877 Y150.001 F6600.000 ; move to first infill point
G1 X158.123 Y130.248 E9.14820 F1800.000 ; infill
G1 X158.123 Y130.167 F6600.000 ; move to first infill point
G1 X177.877 Y149.920 E9.26073 F1800.000 ; infill
G1 X177.877 Y149.839 F6600.000 ; move to first infill point
G1 X158.123 Y130.086 E9.37326 F1800.000 ; infill
G1 X158.123 Y130.005 F6600.000 ; move to first infill point
G1 X177.877 Y149.758 E9.48580 F1800.000 ; infill
G1 X177.877 Y149.678 F6600.000 ; move to first infill point
G1 X158.123 Y129.924 E9.59833 F1800.000 ; infill
G1 X158.123 Y129.844 F6600.000 ; move to first infill point
G1 X177.877 Y149.597 E9.71086 F1800.000 ; infill
G1 X177.877 Y149.516 F6600.000 ; move to first infill point
G1 X158.123 Y129.763 E9.82340 F1800.000 ; infill
G1 X158.123 Y129.682 F6600.000 ; move to first infill point
G1 X177.877 Y149.435 E9.93593 F1800.000 ; infill
G1 X177.877 Y149.355 F6600.000 ; move to first infill point
G1 X158.123 Y129.601 E10.04847 F1800.000 ; infill
G1 X158.123 Y129.521 F6600.000 ; move to first infill point
G1 X177.877 Y149.274 E10.16100 F1800.000 ; infill
G1 X177.877 Y149.193 F6600.000 ; move to first infill point
G1 X158.123 Y129.440 E10.27353 F1800.000 ; infill
G1 X158.123 Y129.359 F6600.000 ; move to first infill point
G1 X177.877 Y149.112 E10.38607 F1800.000 ; infill
G1 X177.877 Y149.031 F6600.000 ; move to first infill point
G1 X158.123 Y129.278 E10.49860 F1800.000 ; infill
G1 X158.123 Y129.198 F6600.000 ; move to first infill point
G1 X177.877 Y148.951 E10.61113 F1800.000 ; infill
G1 X177.877 Y148.870 F6600.000 ; move to first infill point
G1 X158.123 Y129.117 E10.72367 F1800.000 ; infill
G1 X158.123 Y129.036 F6600.000 ; move to first infill point
G1 X177.877 Y148.789 E10.83620 F1800.000 ; infill
G1 X177.877 Y148.708 F6600.000 ; move to first infill point
G1 X158.123 Y128.955 E10.94873 F1800.000 ; infill
G1 X158.123 Y128.875 F6600.000 ; move to first infill point
G1 X177.877 Y148.628 E11.06127 F1800.000 ; infill
G1 X177.877 Y148.547 F6600.000 ; move to first infill point
G1 X158.123 Y128.794 E11.17380 F1800.000 ; infill
G1 X158.123 Y128.713 F6600.000 ; move to first infill point
G1 X177.877 Y148.466 E11.28633 F1800.000 ; infill
G1 X177.877 Y148.385 F6600.000 ; move to first infill point
G1 X158.123 Y128.632 E11.39887 F1800.000 ; infill
G1 X158.123 Y128.552 F6600.000 ; move to first infill point
G1 X177.877 Y148.305 E11.51140 F1800.000 ; infill
G1 X177.877 Y148.224 F6600.000 ; move to first infill point
G1 X158.123 Y128.471 E11.62393 F1800.000 ; infill
G1 X158.123 Y128.390 F6600.000 ; move to first infill point
G1 X177.877 Y148.143 E11.73647 F1800.000 ; infill
G1 X177.877 Y148.062 F6600.000 ; move to first infill point
G1 X158.123 Y128.309 E11.84900 F1800.000 ; infill
G1 X158.123 Y128.228 F6600.000 ; move to first infill point
G1 X177.877 Y147.982 E11.96153 F1800.000 ; infill
G1 X177.877 Y147.901 F6600.000 ; move to first infill point
G1 X158.123 Y128.148 E12.07407 F1800.000 ; infill
G1 X158.123 Y128.067 F6600.000 ; move to first infill point
G1 X177.877 Y147.820 E12.18660 F1800.000 ; infill
G1 X177.877 Y147.739 F6600.000 ; move to first infill point
G1 X158.123 Y127.986 E12.29913 F1800.000 ; infill
G1 X158.123 Y127.905 F6600.000 ; move to first infill point
G1 X177.877 Y147.658 E12.41167 F1800.000 ; infill
G1 X177.877 Y147.578 F6600.000 ; move to first infill point
G1 X158.123 Y127.825 E12.52420 F1800.000 ; infill
G1 X158.123 Y127.744 F6600.000 ; move to first infill point
G1 X177.877 Y147.497 E12.63673 F1800.000 ; infill
G1 X177.877 Y147.416 F6600.000 ; move to first infill point
G1 X158.123 Y127.663 E12.74927 F1800.000 ; infill
G1 X158.123 Y127.582 F6600.000 ; move to first infill point
G1 X177.877 Y147.335 E12.86180 F1800.000 ; infill
G1 X177.877 Y147.255 F6600.000 ; move to first infill point
G1 X158.123 Y127.502 E12.97433 F1800.000 ; infill
G1 X158.123 Y127.421 F6600.000 ; move to first infill point
G1 X177.877 Y147.174 E13.08687 F1800.000 ; infill
G1 X177.877 Y147.093 F6600.000 ; move to first infill point
G1 X158.123 Y127.340 E13.19940 F1800.000 ; infill
G1 X158.123 Y127.259 F6600.000 ; move to first infill point
G1 X177.877 Y147.012 E13.31193 F1800.000 ; infill
G1 X177.877 Y146.932 F6600.000 ; move to first infill point
G1 X158.123 Y127.179 E13.42447 F1800.000 ; infill
G1 X158.123 Y127.098 F6600.000 ; move to first infill point
G1 X177.877 Y146.851 E13.53700 F1800.000 ; infill
G1 X177.877 Y146.770 F6600.000 ; move to first infill point
G1 X158.123 Y127.017 E13.64953 F1800.000 ; infill
G1 X158.123 Y126.936 F6600.000 ; move to first infill point
G1 X177.877 Y146.689 E13.76207 F1800.000 ; infill
G1 X177.877 Y146.609 F6600.000 ; move to first infill point
G1 X158.123 Y126.855 E13.87460 F1800.000 ; infill
G1 X158.123 Y126.775 F6600.000 ; move to first infill point
G1 X177.877 Y146.528 E13.98713 F1800.000 ; infill
G1 X177.877 Y146.447 F6600.000 ; move to first infill point
G1 X158.123 Y126.694 E14.09967 F1800.000 ; infill
G1 X158.123 Y126.613 F6600.000 ; move to first infill point
G1 X177.877 Y146.366 E14.21220 F1800.000 ; infill
G1 X177.877 Y146.286 F6600.000 ; move to first infill point
G1 X158.123 Y126.532 E14.32473 F1800.000 ; infill
G1 X158.123 Y126.452 F6600.000 ; move to first infill point
G1 X177.877 Y146.205 E14.43727 F1800.000 ; infill
G1 X177.877 Y146.124 F6600.000 ; move to first infill point
G1 X158.123 Y126.371 E14.54980 F1800.000 ; infill
G1 X158.123 Y126.290 F6600.000 ; move to first infill point
G1 X177.877 Y146.043 E14.66233 F1800.000 ; infill
G1 X177.877 Y145.962 F6600.000 ; move to first infill point
G1 X158.123 Y126.209 E14.77487 F1800.000 ; infill
