; generated by Slic3r 1.2.9 on 2016-01-31 at 00:27:02

; external perimeters extrusion width = 0.40mm
; perimeters extrusion width = 0.67mm
; infill extrusion width = 0.67mm
; solid infill extrusion width = 0.67mm
; top infill extrusion width = 0.67mm

M107 ; disable fan
M104 S220 ; set temperature
M80 ; Power supply on
G28 ; home all axes

M109 S220 ; wait for temperature to be reached
G21 ; set units to millimeters
G90 ; use absolute coordinates
M82 ; use absolute distances for extrusion
G92 E0 ; reset extrusion distance
G1 E-1.00000 F480.00000 ; retract
G92 E0 ; reset extrusion distance
G1 Z0.200 F6600.000 ; move to next layer (0)
G1 X155.798 Y139.376 F6600.000 ; move to first skirt point
G1 E1.00000 F480.00000 ; unretract
G1 X156.212 Y138.919 E1.00248 F2100.000 ; skirt
G1 X156.565 Y138.565 E1.00449 ; skirt
G1 X156.919 Y138.212 E1.00651 ; skirt
G1 X157.376 Y137.798 E1.00899 ; skirt
G1 X157.980 Y137.313 E1.01211 ; skirt
G1 X158.768 Y136.729 E1.01606 ; skirt
G1 X159.272 Y136.392 E1.01850 ; skirt
G1 X160.113 Y135.888 E1.02245 ; skirt
G1 X160.648 Y135.602 E1.02489 ; skirt
G1 X161.535 Y135.182 E1.02884 ; skirt
G1 X162.094 Y134.951 E1.03128 ; skirt
G1 X163.018 Y134.620 E1.03523 ; skirt
G1 X163.598 Y134.444 E1.03767 ; skirt
G1 X164.518 Y134.214 E1.04149 ; skirt
G1 X165.144 Y134.088 E1.04406 ; skirt
G1 X166.114 Y133.944 E1.04801 ; skirt
G1 X166.884 Y133.860 E1.05113 ; skirt
G1 X167.500 Y133.829 E1.05361 ; skirt
G1 X168.500 Y133.829 E1.05764 ; skirt
G1 X169.116 Y133.860 E1.06012 ; skirt
G1 X169.886 Y133.944 E1.06324 F2100.000 ; skirt
G1 X170.857 Y134.088 E1.06719 ; skirt
G1 X171.450 Y134.206 E1.06963 ; skirt
G1 X172.402 Y134.444 E1.07358 ; skirt
G1 X172.982 Y134.620 E1.07602 ; skirt
G1 X173.906 Y134.951 E1.07997 ; skirt
G1 X174.465 Y135.182 E1.08241 ; skirt
G1 X175.353 Y135.602 E1.08636 ; skirt
G1 X175.887 Y135.888 E1.08880 ; skirt
G1 X176.728 Y136.392 E1.09275 ; skirt
G1 X177.232 Y136.729 E1.09519 ; skirt
G1 X177.994 Y137.294 E1.09901 ; skirt
G1 X178.624 Y137.798 E1.10226 ; skirt
G1 X179.081 Y138.212 E1.10474 ; skirt
G1 X179.789 Y138.919 E1.10877 ; skirt
G1 X180.202 Y139.376 E1.11125 ; skirt
G1 X180.507 Y139.749 E1.11319 ; skirt
G1 X181.272 Y140.768 E1.11832 ; skirt
G1 X181.608 Y141.272 E1.12075 ; skirt
G1 X182.113 Y142.114 E1.12471 ; skirt
G1 X182.398 Y142.648 E1.12714 ; skirt
G1 X182.818 Y143.535 E1.13110 ; skirt
G1 X183.049 Y144.094 E1.13353 ; skirt
G1 X183.369 Y144.987 E1.13735 ; skirt
G1 X183.556 Y145.598 E1.13992 ; skirt
G1 X183.794 Y146.550 E1.14388 ; skirt
G1 X183.912 Y147.144 E1.14631 ; skirt
G1 X184.092 Y148.404 E1.15144 ; skirt
G1 X184.140 Y148.884 E1.15338 ; skirt
G1 X184.171 Y149.500 E1.15587 ; skirt
G1 X184.171 Y150.500 E1.15989 ; skirt
G1 X184.140 Y151.116 E1.16237 ; skirt
G1 X184.056 Y151.886 E1.16549 ; skirt
G1 X183.912 Y152.856 E1.16944 ; skirt
G1 X183.794 Y153.450 E1.17188 ; skirt
G1 X183.556 Y154.402 E1.17583 ; skirt
G1 X183.380 Y154.982 E1.17827 ; skirt
G1 X183.049 Y155.906 E1.18222 ; skirt
G1 X182.818 Y156.465 E1.18466 ; skirt
G1 X182.398 Y157.352 E1.18861 ; skirt
G1 X182.113 Y157.886 E1.19105 ; skirt
G1 X181.608 Y158.728 E1.19500 ; skirt
G1 X181.271 Y159.232 E1.19744 ; skirt
G1 X180.687 Y160.020 E1.20139 ; skirt
G1 X180.202 Y160.624 E1.20451 ; skirt
G1 X179.788 Y161.081 E1.20699 ; skirt
G1 X179.081 Y161.788 E1.21102 ; skirt
G1 X178.624 Y162.202 E1.21350 ; skirt
G1 X178.020 Y162.687 E1.21662 ; skirt
G1 X177.232 Y163.271 E1.22057 ; skirt
G1 X176.728 Y163.608 E1.22301 ; skirt
G1 X175.887 Y164.112 E1.22696 ; skirt
G1 X175.352 Y164.398 E1.22940 ; skirt
G1 X174.465 Y164.818 E1.23335 ; skirt
G1 X173.906 Y165.049 E1.23579 ; skirt
G1 X172.982 Y165.380 E1.23974 ; skirt
G1 X172.402 Y165.556 E1.24218 ; skirt
G1 X171.450 Y165.794 E1.24613 ; skirt
G1 X170.857 Y165.912 E1.24857 ; skirt
G1 X169.886 Y166.056 E1.25252 ; skirt
G1 X169.116 Y166.140 E1.25564 ; skirt
G1 X168.500 Y166.171 E1.25812 ; skirt
G1 X167.500 Y166.171 E1.26215 ; skirt
G1 X166.884 Y166.140 E1.26463 ; skirt
G1 X166.404 Y166.092 E1.26657 ; skirt
G1 X165.144 Y165.912 E1.27170 ; skirt
G1 X164.550 Y165.794 E1.27414 ; skirt
G1 X163.598 Y165.556 E1.27809 ; skirt
G1 X162.987 Y165.369 E1.28066 ; skirt
G1 X162.094 Y165.049 E1.28448 ; skirt
G1 X161.535 Y164.818 E1.28692 ; skirt
G1 X160.648 Y164.398 E1.29087 ; skirt
G1 X160.114 Y164.113 E1.29331 ; skirt
G1 X159.272 Y163.608 E1.29726 ; skirt
G1 X158.768 Y163.272 E1.29970 ; skirt
G1 X157.980 Y162.687 E1.30365 ; skirt
G1 X157.376 Y162.202 E1.30677 ; skirt
G1 X156.919 Y161.788 E1.30925 ; skirt
G1 X156.565 Y161.435 E1.31126 ; skirt
G1 X156.212 Y161.081 E1.31328 ; skirt
G1 X155.798 Y160.624 E1.31576 ; skirt
G1 X155.313 Y160.020 E1.31888 ; skirt
G1 X154.729 Y159.232 E1.32283 ; skirt
G1 X154.392 Y158.728 E1.32527 ; skirt
G1 X153.888 Y157.887 E1.32922 ; skirt
G1 X153.588 Y157.323 E1.33179 ; skirt
G1 X153.182 Y156.465 E1.33561 ; skirt
G1 X152.951 Y155.906 E1.33805 ; skirt
G1 X152.620 Y154.982 E1.34200 ; skirt
G1 X152.444 Y154.402 E1.34444 ; skirt
G1 X152.206 Y153.450 E1.34839 ; skirt
G1 X152.088 Y152.857 E1.35082 ; skirt
G1 X151.908 Y151.596 E1.35595 ; skirt
G1 X151.860 Y151.116 E1.35789 ; skirt
G1 X151.829 Y150.500 E1.36038 ; skirt
G1 X151.829 Y149.500 E1.36440 ; skirt
G1 X151.860 Y148.884 E1.36689 ; skirt
G1 X151.944 Y148.114 E1.37000 ; skirt
G1 X152.088 Y147.143 E1.37396 ; skirt
G1 X152.206 Y146.550 E1.37639 ; skirt
G1 X152.444 Y145.597 E1.38035 ; skirt
G1 X152.620 Y145.018 E1.38278 ; skirt
G1 X152.951 Y144.094 E1.38674 ; skirt
G1 X153.182 Y143.535 E1.38917 ; skirt
G1 X153.602 Y142.647 E1.39313 ; skirt
G1 X153.888 Y142.113 E1.39556 ; skirt
G1 X154.392 Y141.272 E1.39952 ; skirt
G1 X154.729 Y140.768 E1.40195 ; skirt
G1 X155.313 Y139.980 E1.40590 ; skirt
G1 X155.760 Y139.422 E1.40878 ; skirt
G1 X155.804 Y139.458 F6600.000 ; move to first skirt point
G1 X156.252 Y138.959 E1.41148 F2100.000 ; skirt
G1 X156.959 Y138.252 E1.41551 ; skirt
G1 X157.412 Y137.842 E1.41797 ; skirt
G1 X158.014 Y137.359 E1.42108 ; skirt
G1 X158.802 Y136.774 E1.42503 ; skirt
G1 X159.301 Y136.441 E1.42744 ; skirt
G1 X160.143 Y135.936 E1.43139 ; skirt
G1 X160.672 Y135.654 E1.43381 ; skirt
G1 X161.559 Y135.234 E1.43776 ; skirt
G1 X162.113 Y135.004 E1.44018 ; skirt
G1 X163.037 Y134.674 E1.44413 ; skirt
G1 X163.612 Y134.500 E1.44654 ; skirt
G1 X164.532 Y134.269 E1.45036 ; skirt
G1 X165.152 Y134.144 E1.45291 ; skirt
G1 X166.123 Y134.000 E1.45686 ; skirt
G1 X166.890 Y133.916 E1.45997 ; skirt
G1 X167.500 Y133.886 E1.46243 ; skirt
G1 X168.500 Y133.886 E1.46646 ; skirt
G1 X169.110 Y133.916 E1.46892 ; skirt
G1 X169.877 Y134.000 E1.47202 F2100.000 ; skirt
G1 X170.848 Y134.144 E1.47597 ; skirt
G1 X171.437 Y134.261 E1.47839 ; skirt
G1 X172.389 Y134.500 E1.48234 ; skirt
G1 X172.963 Y134.674 E1.48476 ; skirt
G1 X173.887 Y135.004 E1.48871 ; skirt
G1 X174.441 Y135.234 E1.49112 ; skirt
G1 X175.328 Y135.654 E1.49508 ; skirt
G1 X175.857 Y135.936 E1.49749 ; skirt
G1 X176.699 Y136.441 E1.50144 ; skirt
G1 X177.198 Y136.774 E1.50386 ; skirt
G1 X177.986 Y137.359 E1.50781 ; skirt
G1 X178.588 Y137.842 E1.51092 ; skirt
G1 X179.041 Y138.252 E1.51338 ; skirt
G1 X179.748 Y138.959 E1.51741 ; skirt
G1 X180.158 Y139.412 E1.51986 ; skirt
G1 X180.463 Y139.786 E1.52181 ; skirt
G1 X181.226 Y140.802 E1.52692 ; skirt
G1 X181.559 Y141.301 E1.52934 ; skirt
G1 X182.064 Y142.143 E1.53329 ; skirt
G1 X182.346 Y142.672 E1.53570 ; skirt
G1 X182.766 Y143.559 E1.53966 ; skirt
G1 X182.996 Y144.113 E1.54207 ; skirt
G1 X183.315 Y145.007 E1.54589 ; skirt
G1 X183.500 Y145.612 E1.54844 ; skirt
G1 X183.739 Y146.564 E1.55239 ; skirt
G1 X183.856 Y147.152 E1.55481 ; skirt
G1 X184.035 Y148.410 E1.55992 ; skirt
G1 X184.084 Y148.890 E1.56186 ; skirt
G1 X184.114 Y149.500 E1.56432 ; skirt
G1 X184.114 Y150.500 E1.56835 ; skirt
G1 X184.084 Y151.110 E1.57081 ; skirt
G1 X184.000 Y151.877 E1.57392 ; skirt
G1 X183.856 Y152.848 E1.57787 ; skirt
G1 X183.739 Y153.436 E1.58028 ; skirt
G1 X183.500 Y154.388 E1.58424 ; skirt
G1 X183.326 Y154.963 E1.58665 ; skirt
G1 X182.996 Y155.887 E1.59060 ; skirt
G1 X182.766 Y156.441 E1.59302 ; skirt
G1 X182.346 Y157.328 E1.59697 ; skirt
G1 X182.064 Y157.857 E1.59939 ; skirt
G1 X181.559 Y158.699 E1.60334 ; skirt
G1 X181.226 Y159.198 E1.60575 ; skirt
G1 X180.641 Y159.986 E1.60970 ; skirt
G1 X180.158 Y160.588 E1.61281 ; skirt
G1 X179.748 Y161.041 E1.61527 ; skirt
G1 X179.041 Y161.748 E1.61930 ; skirt
G1 X178.588 Y162.158 E1.62176 ; skirt
G1 X177.986 Y162.641 E1.62487 ; skirt
G1 X177.198 Y163.226 E1.62882 ; skirt
G1 X176.699 Y163.559 E1.63123 ; skirt
G1 X175.857 Y164.064 E1.63518 ; skirt
G1 X175.328 Y164.346 E1.63760 ; skirt
G1 X174.441 Y164.766 E1.64155 ; skirt
G1 X173.887 Y164.996 E1.64397 ; skirt
G1 X172.963 Y165.326 E1.64792 ; skirt
G1 X172.389 Y165.500 E1.65033 ; skirt
G1 X171.437 Y165.739 E1.65429 ; skirt
G1 X170.848 Y165.856 E1.65670 ; skirt
G1 X169.877 Y166.000 E1.66065 ; skirt
G1 X169.110 Y166.084 E1.66376 ; skirt
G1 X168.500 Y166.114 E1.66622 ; skirt
G1 X167.500 Y166.114 E1.67025 ; skirt
G1 X166.890 Y166.084 E1.67271 ; skirt
G1 X166.410 Y166.035 E1.67465 ; skirt
G1 X165.152 Y165.856 E1.67976 ; skirt
G1 X164.564 Y165.739 E1.68218 ; skirt
G1 X163.612 Y165.500 E1.68613 ; skirt
G1 X163.007 Y165.315 E1.68868 ; skirt
G1 X162.113 Y164.996 E1.69250 ; skirt
G1 X161.559 Y164.766 E1.69491 ; skirt
G1 X160.672 Y164.346 E1.69887 ; skirt
G1 X160.143 Y164.064 E1.70128 ; skirt
G1 X159.301 Y163.559 E1.70523 ; skirt
G1 X158.802 Y163.226 E1.70765 ; skirt
G1 X158.014 Y162.641 E1.71160 ; skirt
G1 X157.412 Y162.158 E1.71471 ; skirt
G1 X156.959 Y161.748 E1.71717 ; skirt
G1 X156.606 Y161.395 E1.71918 ; skirt
G1 X156.252 Y161.041 E1.72119 ; skirt
G1 X155.842 Y160.588 E1.72365 ; skirt
G1 X155.359 Y159.986 E1.72676 ; skirt
G1 X154.774 Y159.198 E1.73071 ; skirt
G1 X154.441 Y158.699 E1.73313 ; skirt
G1 X153.936 Y157.857 E1.73708 ; skirt
G1 X153.640 Y157.299 E1.73963 ; skirt
G1 X153.234 Y156.441 E1.74345 ; skirt
G1 X153.004 Y155.887 E1.74586 ; skirt
G1 X152.674 Y154.963 E1.74981 ; skirt
G1 X152.500 Y154.389 E1.75223 ; skirt
G1 X152.261 Y153.437 E1.75618 ; skirt
G1 X152.144 Y152.848 E1.75860 ; skirt
G1 X151.965 Y151.590 E1.76371 ; skirt
G1 X151.916 Y151.110 E1.76565 ; skirt
G1 X151.886 Y150.500 E1.76811 ; skirt
G1 X151.886 Y149.500 E1.77214 ; skirt
G1 X151.916 Y148.890 E1.77460 ; skirt
G1 X152.000 Y148.123 E1.77771 ; skirt
G1 X152.144 Y147.152 E1.78166 ; skirt
G1 X152.261 Y146.563 E1.78407 ; skirt
G1 X152.500 Y145.611 E1.78803 ; skirt
G1 X152.674 Y145.037 E1.79044 ; skirt
G1 X153.004 Y144.113 E1.79439 ; skirt
G1 X153.234 Y143.559 E1.79681 ; skirt
G1 X153.640 Y142.701 E1.80063 ; skirt
G1 X153.936 Y142.143 E1.80318 ; skirt
G1 X154.441 Y141.301 E1.80713 ; skirt
G1 X154.774 Y140.802 E1.80954 ; skirt
G1 X155.359 Y140.014 E1.81349 ; skirt
G1 X155.766 Y139.505 E1.81612 ; skirt
G1 X155.810 Y139.541 F6600.000 ; move to first skirt point
G1 X156.292 Y139.000 E1.81904 F2100.000 ; skirt
G1 X157.000 Y138.292 E1.82306 ; skirt
G1 X157.448 Y137.886 E1.82550 ; skirt
G1 X158.048 Y137.405 E1.82860 ; skirt
G1 X158.836 Y136.820 E1.83255 ; skirt
G1 X159.330 Y136.490 E1.83494 ; skirt
G1 X160.172 Y135.985 E1.83889 ; skirt
G1 X160.696 Y135.705 E1.84129 ; skirt
G1 X161.584 Y135.286 E1.84524 ; skirt
G1 X162.133 Y135.058 E1.84763 ; skirt
G1 X163.057 Y134.728 E1.85158 ; skirt
G1 X163.625 Y134.555 E1.85398 ; skirt
G1 X164.546 Y134.325 E1.85780 ; skirt
G1 X165.160 Y134.201 E1.86032 ; skirt
G1 X166.131 Y134.057 E1.86427 ; skirt
G1 X166.896 Y133.973 E1.86737 ; skirt
G1 X167.500 Y133.943 E1.86981 ; skirt
G1 X168.500 Y133.943 E1.87383 ; skirt
G1 X169.104 Y133.973 E1.87627 ; skirt
G1 X169.869 Y134.057 E1.87936 F2100.000 ; skirt
G1 X170.840 Y134.201 E1.88332 ; skirt
G1 X171.423 Y134.317 E1.88571 ; skirt
G1 X172.375 Y134.555 E1.88966 ; skirt
G1 X172.943 Y134.728 E1.89205 ; skirt
G1 X173.867 Y135.058 E1.89601 ; skirt
G1 X174.417 Y135.286 E1.89840 ; skirt
G1 X175.304 Y135.705 E1.90235 ; skirt
G1 X175.828 Y135.985 E1.90474 ; skirt
G1 X176.670 Y136.490 E1.90869 ; skirt
G1 X177.164 Y136.820 E1.91109 ; skirt
G1 X177.952 Y137.405 E1.91504 ; skirt
G1 X178.552 Y137.886 E1.91814 ; skirt
G1 X179.000 Y138.292 E1.92057 ; skirt
G1 X179.708 Y139.000 E1.92460 ; skirt
G1 X180.114 Y139.448 E1.92703 ; skirt
G1 X180.419 Y139.822 E1.92898 ; skirt
G1 X181.180 Y140.836 E1.93408 ; skirt
G1 X181.510 Y141.330 E1.93648 ; skirt
G1 X182.015 Y142.172 E1.94043 ; skirt
G1 X182.295 Y142.696 E1.94282 ; skirt
G1 X182.714 Y143.583 E1.94677 ; skirt
G1 X182.942 Y144.133 E1.94917 ; skirt
G1 X183.261 Y145.026 E1.95299 ; skirt
G1 X183.445 Y145.625 E1.95551 ; skirt
G1 X183.683 Y146.577 E1.95946 ; skirt
G1 X183.799 Y147.160 E1.96185 ; skirt
G1 X183.979 Y148.415 E1.96696 ; skirt
G1 X184.027 Y148.896 E1.96890 ; skirt
G1 X184.057 Y149.500 E1.97134 ; skirt
G1 X184.057 Y150.500 E1.97537 ; skirt
G1 X184.027 Y151.104 E1.97780 ; skirt
G1 X183.943 Y151.869 E1.98090 ; skirt
G1 X183.799 Y152.840 E1.98485 ; skirt
G1 X183.683 Y153.423 E1.98724 ; skirt
G1 X183.445 Y154.375 E1.99119 ; skirt
G1 X183.272 Y154.943 E1.99359 ; skirt
G1 X182.942 Y155.867 E1.99754 ; skirt
G1 X182.714 Y156.417 E1.99993 ; skirt
G1 X182.295 Y157.304 E2.00388 ; skirt
G1 X182.015 Y157.828 E2.00628 ; skirt
G1 X181.510 Y158.670 E2.01023 ; skirt
G1 X181.180 Y159.164 E2.01262 ; skirt
G1 X180.595 Y159.952 E2.01657 ; skirt
G1 X180.114 Y160.552 E2.01967 ; skirt
G1 X179.708 Y161.000 E2.02211 ; skirt
G1 X179.000 Y161.708 E2.02613 ; skirt
G1 X178.552 Y162.114 E2.02857 ; skirt
G1 X177.952 Y162.595 E2.03167 ; skirt
G1 X177.164 Y163.180 E2.03562 ; skirt
G1 X176.670 Y163.510 E2.03801 ; skirt
G1 X175.828 Y164.015 E2.04196 ; skirt
G1 X175.304 Y164.295 E2.04436 ; skirt
G1 X174.417 Y164.714 E2.04831 ; skirt
G1 X173.867 Y164.942 E2.05070 ; skirt
G1 X172.943 Y165.272 E2.05465 ; skirt
G1 X172.375 Y165.445 E2.05704 ; skirt
G1 X171.423 Y165.683 E2.06100 ; skirt
G1 X170.840 Y165.799 E2.06339 ; skirt
G1 X169.869 Y165.943 E2.06734 ; skirt
G1 X169.104 Y166.027 E2.07044 ; skirt
G1 X168.500 Y166.057 E2.07287 ; skirt
G1 X167.500 Y166.057 E2.07690 ; skirt
G1 X166.896 Y166.027 E2.07934 ; skirt
G1 X166.131 Y165.943 E2.08243 ; skirt
G1 X165.160 Y165.799 E2.08638 ; skirt
G1 X164.546 Y165.675 E2.08891 ; skirt
G1 X163.625 Y165.445 E2.09273 ; skirt
G1 X163.057 Y165.272 E2.09512 ; skirt
G1 X162.133 Y164.942 E2.09907 ; skirt
G1 X161.583 Y164.714 E2.10147 ; skirt
G1 X160.696 Y164.295 E2.10542 ; skirt
G1 X160.172 Y164.015 E2.10781 ; skirt
G1 X159.330 Y163.510 E2.11176 ; skirt
G1 X158.836 Y163.180 E2.11416 ; skirt
G1 X158.048 Y162.595 E2.11811 ; skirt
G1 X157.448 Y162.114 E2.12120 ; skirt
G1 X157.000 Y161.708 E2.12364 ; skirt
G1 X156.292 Y161.000 E2.12767 ; skirt
G1 X155.886 Y160.552 E2.13010 ; skirt
G1 X155.405 Y159.952 E2.13320 ; skirt
G1 X154.820 Y159.164 E2.13715 ; skirt
G1 X154.490 Y158.670 E2.13954 ; skirt
G1 X153.985 Y157.828 E2.14350 ; skirt
G1 X153.705 Y157.304 E2.14589 ; skirt
G1 X153.286 Y156.417 E2.14984 ; skirt
G1 X153.058 Y155.867 E2.15223 ; skirt
G1 X152.728 Y154.943 E2.15618 ; skirt
G1 X152.555 Y154.375 E2.15858 ; skirt
G1 X152.317 Y153.423 E2.16253 ; skirt
G1 X152.201 Y152.840 E2.16492 ; skirt
G1 X152.057 Y151.869 E2.16887 ; skirt
G1 X151.973 Y151.104 E2.17197 ; skirt
G1 X151.943 Y150.500 E2.17441 ; skirt
G1 X151.943 Y149.500 E2.17843 ; skirt
G1 X151.973 Y148.896 E2.18087 ; skirt
G1 X152.057 Y148.131 E2.18397 ; skirt
G1 X152.201 Y147.160 E2.18792 ; skirt
G1 X152.317 Y146.577 E2.19031 ; skirt
G1 X152.555 Y145.625 E2.19426 ; skirt
G1 X152.728 Y145.057 E2.19666 ; skirt
G1 X153.058 Y144.133 E2.20061 ; skirt
G1 X153.286 Y143.583 E2.20300 ; skirt
G1 X153.691 Y142.726 E2.20682 ; skirt
G1 X153.985 Y142.172 E2.20935 ; skirt
G1 X154.490 Y141.330 E2.21330 ; skirt
G1 X154.820 Y140.836 E2.21569 ; skirt
G1 X155.405 Y140.048 E2.21964 ; skirt
G1 X155.772 Y139.588 E2.22201 ; skirt
G1 E1.22201 F480.00000 ; retract
G92 E0 ; reset extrusion distance
G1 X160.253 Y156.142 F6600.000 ; move to first perimeter point
G1 E1.00000 F480.00000 ; unretract
G1 X159.774 Y155.496 E1.00324 F1800.000 ; perimeter
G1 X159.275 Y154.663 E1.00715 ; perimeter
G1 X158.860 Y153.786 E1.01106 ; perimeter
G1 X158.533 Y152.872 E1.01496 ; perimeter
