; generated by Slic3r 1.2.9 on 2016-12-12 at 13:59:37

; external perimeters extrusion width = 0.40mm
; perimeters extrusion width = 0.48mm
; infill extrusion width = 0.48mm
; solid infill extrusion width = 0.48mm
; top infill extrusion width = 0.48mm

M190 S70 ; set bed temperature
M104 S219 ; set temperature
G28 ; home all axes
G1 Z5 F5000 ; lift nozzle
G1 X0 Y0 F5000 ;

M109 S219 ; wait for temperature to be reached
G21 ; set units to millimeters
G90 ; use absolute coordinates
M82 ; use absolute distances for extrusion
G92 E0 ; reset extrusion distance
M106 S255 ; enable fan
G1 E-1.00000 F1800.00000 ; retract
G92 E0 ; reset extrusion distance
G1 Z0.300 F6600.000 ; move to next layer (0)
G1 X84.827 Y71.220 F6600.000 ; move to first skirt point
G1 E1.00000 F1800.00000 ; unretract
G1 X86.156 Y69.971 E1.12182 F2100.000 ; skirt
G1 X87.407 Y69.215 E1.21950 ; skirt
G1 X87.559 Y69.142 E1.23070 ; skirt
G1 X88.924 Y68.641 E1.32787 ; skirt
G1 X90.036 Y68.429 E1.40348 ; skirt
G1 X90.517 Y68.388 E1.43577 ; skirt
G1 X90.985 Y68.372 E1.46703 ; skirt
G1 X106.386 Y68.367 E2.49588 ; skirt
G1 X109.015 Y68.372 E2.67152 F2100.000 ; skirt
G1 X109.611 Y68.397 E2.71138 ; skirt
G1 X110.299 Y68.476 E2.75765 ; skirt
G1 X112.114 Y68.997 E2.88381 ; skirt
G1 X112.261 Y69.060 E2.89446 ; skirt
G1 X114.148 Y70.217 E3.04237 ; skirt
G1 X114.280 Y70.327 E3.05384 ; skirt
G1 X115.529 Y71.656 E3.17568 ; skirt
G1 X116.285 Y72.908 E3.27335 ; skirt
G1 X116.358 Y73.059 E3.28456 ; skirt
G1 X116.859 Y74.424 E3.38168 ; skirt
G1 X117.071 Y75.538 E3.45750 ; skirt
G1 X117.112 Y76.017 E3.48959 ; skirt
G1 X117.128 Y76.487 E3.52099 ; skirt
G1 X117.133 Y79.442 E3.71842 ; skirt
G1 X117.133 Y120.571 E6.46607 ; skirt
G1 X117.128 Y123.513 E6.66262 ; skirt
G1 X117.103 Y124.111 E6.70260 ; skirt
G1 X117.029 Y124.771 E6.74698 ; skirt
G1 X116.503 Y126.614 E6.87500 ; skirt
G1 X116.440 Y126.761 E6.88564 ; skirt
G1 X115.283 Y128.648 E7.03356 ; skirt
G1 X115.173 Y128.780 E7.04503 ; skirt
G1 X113.843 Y130.029 E7.16691 ; skirt
G1 X112.593 Y130.785 E7.26452 ; skirt
G1 X112.442 Y130.858 E7.27572 ; skirt
G1 X111.076 Y131.359 E7.37291 ; skirt
G1 X109.963 Y131.571 E7.44863 ; skirt
G1 X109.483 Y131.612 E7.48081 ; skirt
G1 X109.015 Y131.628 E7.51208 ; skirt
G1 X90.960 Y131.631 E8.71825 ; skirt
G1 X89.678 Y131.522 E8.80416 ; skirt
G1 X88.922 Y131.356 E8.85592 ; skirt
G1 X87.104 Y130.628 E8.98674 ; skirt
G1 X86.974 Y130.556 E8.99669 ; skirt
G1 X85.309 Y129.296 E9.13617 ; skirt
G1 X85.204 Y129.192 E9.14604 ; skirt
G1 X83.944 Y127.526 E9.28557 ; skirt
G1 X83.872 Y127.396 E9.29549 ; skirt
G1 X83.144 Y125.579 E9.42626 ; skirt
G1 X82.978 Y124.821 E9.47808 ; skirt
G1 X82.869 Y123.540 E9.56401 ; skirt
G1 X82.872 Y76.487 E12.70741 ; skirt
G1 X82.897 Y75.889 E12.74737 ; skirt
G1 X82.976 Y75.201 E12.79365 ; skirt
G1 X83.497 Y73.386 E12.91981 ; skirt
G1 X83.560 Y73.239 E12.93045 ; skirt
G1 X84.717 Y71.352 E13.07837 ; skirt
G1 X84.789 Y71.266 E13.08584 ; skirt
G1 X85.200 Y71.610 F6600.000 ; move to first skirt point
G1 X86.474 Y70.403 E13.20306 F2100.000 ; skirt
G1 X87.639 Y69.698 E13.29407 ; skirt
G1 X87.790 Y69.625 E13.30527 ; skirt
G1 X89.060 Y69.159 E13.39559 ; skirt
G1 X90.097 Y68.961 E13.46614 ; skirt
G1 X90.986 Y68.908 E13.52565 ; skirt
G1 X106.385 Y68.903 E14.55436 ; skirt
G1 X109.014 Y68.908 E14.73000 F2100.000 ; skirt
G1 X109.663 Y68.938 E14.77344 ; skirt
G1 X110.216 Y69.005 E14.81065 ; skirt
G1 X111.904 Y69.489 E14.92793 ; skirt
G1 X112.050 Y69.552 E14.93857 ; skirt
G1 X113.805 Y70.628 E15.07606 ; skirt
G1 X113.936 Y70.738 E15.08754 ; skirt
G1 X115.097 Y71.974 E15.20080 ; skirt
G1 X115.802 Y73.139 E15.29180 ; skirt
G1 X115.875 Y73.290 E15.30300 ; skirt
G1 X116.341 Y74.559 E15.39329 ; skirt
G1 X116.539 Y75.599 E15.46403 ; skirt
G1 X116.578 Y76.051 E15.49431 ; skirt
G1 X116.597 Y79.442 E15.72086 ; skirt
G1 X116.597 Y120.570 E18.46844 ; skirt
G1 X116.592 Y123.512 E18.66499 ; skirt
G1 X116.569 Y124.068 E18.70216 ; skirt
G1 X116.499 Y124.689 E18.74387 ; skirt
G1 X116.011 Y126.404 E18.86300 ; skirt
G1 X115.948 Y126.550 E18.87364 ; skirt
G1 X114.872 Y128.305 E19.01114 ; skirt
G1 X114.762 Y128.436 E19.02262 ; skirt
G1 X113.526 Y129.598 E19.13591 ; skirt
G1 X112.361 Y130.302 E19.22685 ; skirt
G1 X112.210 Y130.375 E19.23805 ; skirt
G1 X110.940 Y130.841 E19.32840 ; skirt
G1 X109.902 Y131.039 E19.39905 ; skirt
G1 X109.014 Y131.092 E19.45846 ; skirt
G1 X90.960 Y131.096 E20.66455 ; skirt
G1 X89.769 Y130.994 E20.74441 ; skirt
G1 X89.055 Y130.838 E20.79323 ; skirt
G1 X87.365 Y130.161 E20.91484 ; skirt
G1 X87.235 Y130.088 E20.92479 ; skirt
G1 X85.687 Y128.917 E21.05445 ; skirt
G1 X85.583 Y128.813 E21.06431 ; skirt
G1 X84.412 Y127.265 E21.19402 ; skirt
G1 X84.339 Y127.135 E21.20395 ; skirt
G1 X83.663 Y125.446 E21.32551 ; skirt
G1 X83.506 Y124.731 E21.37439 ; skirt
G1 X83.404 Y123.539 E21.45427 ; skirt
G1 X83.408 Y76.488 E24.59759 ; skirt
G1 X83.438 Y75.837 E24.64112 ; skirt
G1 X83.505 Y75.284 E24.67834 ; skirt
G1 X83.989 Y73.596 E24.79561 ; skirt
G1 X84.052 Y73.450 E24.80625 ; skirt
G1 X85.161 Y71.656 E24.94718 ; skirt
G1 X85.572 Y71.999 F6600.000 ; move to first skirt point
G1 X85.649 Y71.907 E24.95520 F2100.000 ; skirt
G1 X86.791 Y70.834 E25.05986 ; skirt
G1 X87.871 Y70.181 E25.14419 ; skirt
G1 X88.022 Y70.108 E25.15540 ; skirt
G1 X89.195 Y69.677 E25.23888 ; skirt
G1 X90.158 Y69.493 E25.30436 ; skirt
G1 X90.987 Y69.443 E25.35985 ; skirt
G1 X106.384 Y69.438 E26.38842 ; skirt
G1 X109.013 Y69.443 E26.56406 F2100.000 ; skirt
G1 X109.620 Y69.472 E26.60469 ; skirt
G1 X110.134 Y69.534 E26.63923 ; skirt
G1 X111.693 Y69.982 E26.74762 ; skirt
G1 X111.840 Y70.045 E26.75827 ; skirt
G1 X113.461 Y71.039 E26.88535 ; skirt
G1 X113.593 Y71.149 E26.89682 ; skirt
G1 X114.666 Y72.291 E27.00150 ; skirt
G1 X115.319 Y73.371 E27.08583 ; skirt
G1 X115.392 Y73.522 E27.09703 ; skirt
G1 X115.822 Y74.695 E27.18048 ; skirt
G1 X116.007 Y75.660 E27.24614 ; skirt
G1 X116.043 Y76.085 E27.27461 ; skirt
G1 X116.062 Y79.442 E27.49889 ; skirt
G1 X116.062 Y120.558 E30.24565 ; skirt
G1 X116.057 Y123.511 E30.44296 ; skirt
G1 X116.028 Y124.121 E30.48370 ; skirt
G1 X115.966 Y124.634 E30.51824 ; skirt
G1 X115.518 Y126.193 E30.62662 ; skirt
G1 X115.455 Y126.339 E30.63725 ; skirt
G1 X114.461 Y127.961 E30.76434 ; skirt
G1 X114.351 Y128.093 E30.77581 ; skirt
G1 X113.209 Y129.166 E30.88052 ; skirt
G1 X112.129 Y129.819 E30.96480 ; skirt
G1 X111.978 Y129.892 E30.97600 ; skirt
G1 X110.805 Y130.323 E31.05951 ; skirt
G1 X109.841 Y130.507 E31.12508 ; skirt
G1 X109.013 Y130.557 E31.18048 ; skirt
G1 X90.960 Y130.560 E32.38648 ; skirt
G1 X89.860 Y130.466 E32.46029 ; skirt
G1 X89.189 Y130.319 E32.50618 ; skirt
G1 X87.627 Y129.693 E32.61858 ; skirt
G1 X87.497 Y129.621 E32.62852 ; skirt
G1 X86.066 Y128.539 E32.74836 ; skirt
G1 X85.962 Y128.434 E32.75822 ; skirt
G1 X84.879 Y127.003 E32.87810 ; skirt
G1 X84.807 Y126.873 E32.88803 ; skirt
G1 X84.181 Y125.312 E33.00038 ; skirt
G1 X84.034 Y124.640 E33.04633 ; skirt
G1 X83.940 Y123.539 E33.12016 ; skirt
G1 X83.943 Y76.489 E36.26340 ; skirt
G1 X83.972 Y75.880 E36.30412 ; skirt
G1 X84.034 Y75.366 E36.33866 ; skirt
G1 X84.482 Y73.807 E36.44705 ; skirt
G1 X84.545 Y73.660 E36.45769 ; skirt
G1 X85.535 Y72.046 E36.58423 ; skirt
G1 E35.58423 F1800.00000 ; retract
G92 E0 ; reset extrusion distance
G1 X98.974 Y115.813 F6600.000 ; move to first perimeter point
G1 E1.00000 F1800.00000 ; unretract
G1 X99.311 Y115.730 E1.02315 F900.000 ; perimeter
G1 X99.654 Y115.680 E1.04631 ; perimeter
G1 X99.986 Y115.664 E1.06855 F900.000 ; perimeter
G1 X100.344 Y115.680 E1.09249 ; perimeter
G1 X100.689 Y115.730 E1.11576 ; perimeter
G1 X101.026 Y115.813 E1.13891 ; perimeter
G1 X101.352 Y115.928 E1.16206 ; perimeter
G1 X101.667 Y116.074 E1.18521 ; perimeter
G1 X101.966 Y116.250 E1.20837 ; perimeter
G1 X102.246 Y116.454 E1.23152 ; perimeter
G1 X102.505 Y116.683 E1.25467 ; perimeter
G1 X102.741 Y116.937 E1.27782 ; perimeter
G1 X102.952 Y117.213 E1.30098 ; perimeter
G1 X103.135 Y117.507 E1.32413 ; perimeter
G1 X103.288 Y117.818 E1.34728 ; perimeter
G1 X103.411 Y118.142 E1.37043 ; perimeter
G1 X103.502 Y118.476 E1.39358 ; perimeter
G1 X103.560 Y118.818 E1.41674 ; perimeter
G1 X103.586 Y119.163 E1.43989 ; perimeter
G1 X103.577 Y119.510 E1.46304 ; perimeter
G1 X103.535 Y119.854 E1.48619 ; perimeter
G1 X103.461 Y120.192 E1.50934 ; perimeter
G1 X103.354 Y120.522 E1.53250 ; perimeter
G1 X103.215 Y120.840 E1.55565 ; perimeter
G1 X103.047 Y121.142 E1.57880 ; perimeter
G1 X102.850 Y121.428 E1.60195 ; perimeter
G1 X102.626 Y121.693 E1.62511 ; perimeter
G1 X102.378 Y121.935 E1.64826 ; perimeter
G1 X102.108 Y122.152 E1.67141 ; perimeter
G1 X101.818 Y122.342 E1.69456 ; perimeter
G1 X101.511 Y122.503 E1.71771 ; perimeter
G1 X101.190 Y122.633 E1.74087 ; perimeter
G1 X100.858 Y122.732 E1.76402 ; perimeter
G1 X100.518 Y122.799 E1.78717 ; perimeter
G1 X100.173 Y122.832 E1.81032 ; perimeter
G1 X99.827 Y122.832 E1.83347 ; perimeter
G1 X99.482 Y122.799 E1.85663 ; perimeter
G1 X99.142 Y122.732 E1.87978 ; perimeter
G1 X98.810 Y122.633 E1.90293 ; perimeter
G1 X98.489 Y122.503 E1.92608 ; perimeter
G1 X98.182 Y122.342 E1.94924 ; perimeter
G1 X97.892 Y122.152 E1.97239 ; perimeter
G1 X97.622 Y121.935 E1.99554 ; perimeter
G1 X97.374 Y121.693 E2.01869 ; perimeter
G1 X97.150 Y121.428 E2.04185 ; perimeter
G1 X96.953 Y121.142 E2.06500 ; perimeter
G1 X96.785 Y120.840 E2.08815 ; perimeter
G1 X96.646 Y120.522 E2.11130 ; perimeter
G1 X96.539 Y120.192 E2.13445 ; perimeter
G1 X96.465 Y119.854 E2.15760 ; perimeter
G1 X96.423 Y119.510 E2.18076 ; perimeter
G1 X96.414 Y119.163 E2.20391 ; perimeter
G1 X96.440 Y118.818 E2.22706 ; perimeter
G1 X96.498 Y118.476 E2.25021 ; perimeter
G1 X96.589 Y118.142 E2.27337 ; perimeter
G1 X96.712 Y117.818 E2.29652 ; perimeter
G1 X96.865 Y117.507 E2.31967 ; perimeter
G1 X97.048 Y117.213 E2.34282 ; perimeter
G1 X97.259 Y116.937 E2.36598 ; perimeter
G1 X97.495 Y116.683 E2.38913 ; perimeter
G1 X97.754 Y116.454 E2.41228 ; perimeter
G1 X98.034 Y116.250 E2.43543 ; perimeter
G1 X98.333 Y116.074 E2.45858 ; perimeter
G1 X98.648 Y115.928 E2.48174 ; perimeter
G1 X98.918 Y115.833 E2.50088 ; perimeter
G1 X99.096 Y116.338 F6600.000 ; move to first perimeter point
G1 X99.414 Y116.256 E2.52284 F900.000 ; perimeter
G1 X99.706 Y116.214 E2.54253 ; perimeter
G1 X99.988 Y116.200 E2.56139 F900.000 ; perimeter
G1 X100.294 Y116.214 E2.58186 ; perimeter
G1 X100.586 Y116.256 E2.60160 ; perimeter
G1 X100.872 Y116.327 E2.62129 ; perimeter
G1 X101.150 Y116.425 E2.64098 ; perimeter
G1 X101.418 Y116.549 E2.66067 ; perimeter
G1 X101.672 Y116.698 E2.68036 ; perimeter
G1 X101.910 Y116.872 E2.70005 ; perimeter
G1 X102.131 Y117.067 E2.71974 ; perimeter
G1 X102.331 Y117.283 E2.73943 ; perimeter
G1 X102.510 Y117.517 E2.75912 ; perimeter
G1 X102.666 Y117.768 E2.77881 ; perimeter
G1 X102.797 Y118.032 E2.79850 ; perimeter
G1 X102.901 Y118.307 E2.81819 ; perimeter
G1 X102.978 Y118.592 E2.83788 ; perimeter
G1 X103.028 Y118.882 E2.85757 ; perimeter
G1 X103.049 Y119.176 E2.87726 ; perimeter
G1 X103.042 Y119.471 E2.89696 ; perimeter
G1 X103.007 Y119.764 E2.91665 ; perimeter
G1 X102.943 Y120.051 E2.93634 ; perimeter
G1 X102.852 Y120.332 E2.95603 ; perimeter
G1 X102.734 Y120.602 E2.97572 ; perimeter
G1 X102.591 Y120.859 E2.99541 ; perimeter
G1 X102.424 Y121.102 E3.01510 ; perimeter
G1 X102.234 Y121.327 E3.03479 ; perimeter
G1 X102.023 Y121.533 E3.05448 ; perimeter
G1 X101.793 Y121.718 E3.07417 ; perimeter
G1 X101.546 Y121.879 E3.09386 ; perimeter
G1 X101.285 Y122.016 E3.11355 ; perimeter
G1 X101.012 Y122.127 E3.13324 ; perimeter
G1 X100.730 Y122.212 E3.15293 ; perimeter
G1 X100.441 Y122.268 E3.17262 ; perimeter
G1 X100.147 Y122.297 E3.19231 ; perimeter
G1 X99.853 Y122.297 E3.21200 ; perimeter
G1 X99.559 Y122.268 E3.23170 ; perimeter
G1 X99.270 Y122.212 E3.25139 ; perimeter
G1 X98.988 Y122.127 E3.27108 ; perimeter
G1 X98.715 Y122.016 E3.29077 ; perimeter
G1 X98.454 Y121.879 E3.31046 ; perimeter
G1 X98.207 Y121.718 E3.33015 ; perimeter
G1 X97.977 Y121.533 E3.34984 ; perimeter
G1 X97.766 Y121.327 E3.36953 ; perimeter
G1 X97.576 Y121.102 E3.38922 ; perimeter
G1 X97.409 Y120.859 E3.40891 ; perimeter
G1 X97.266 Y120.602 E3.42860 ; perimeter
G1 X97.148 Y120.332 E3.44829 ; perimeter
G1 X97.057 Y120.051 E3.46798 ; perimeter
G1 X96.993 Y119.764 E3.48767 ; perimeter
G1 X96.958 Y119.471 E3.50736 ; perimeter
G1 X96.951 Y119.176 E3.52705 ; perimeter
G1 X96.972 Y118.882 E3.54674 ; perimeter
G1 X97.022 Y118.592 E3.56644 ; perimeter
G1 X97.099 Y118.307 E3.58613 ; perimeter
G1 X97.203 Y118.032 E3.60582 ; perimeter
G1 X97.334 Y117.768 E3.62551 ; perimeter
G1 X97.490 Y117.517 E3.64520 ; perimeter
G1 X97.669 Y117.283 E3.66489 ; perimeter
G1 X97.869 Y117.067 E3.68458 ; perimeter
G1 X98.090 Y116.872 E3.70427 ; perimeter
G1 X98.328 Y116.698 E3.72396 ; perimeter
G1 X98.582 Y116.549 E3.74365 ; perimeter
G1 X99.039 Y116.358 E3.77671 ; perimeter
G1 X99.169 Y116.018 F6600.000 ; move inwards before travel
G1 X99.827 Y84.832 F6600.000 ; move to first perimeter point
G1 X99.482 Y84.799 E3.79986 F900.000 ; perimeter
G1 X99.142 Y84.732 E3.82301 ; perimeter
G1 X98.810 Y84.633 E3.84617 ; perimeter
G1 X98.489 Y84.503 E3.86932 ; perimeter
G1 X98.182 Y84.342 E3.89247 ; perimeter
G1 X97.892 Y84.152 E3.91562 ; perimeter
G1 X97.622 Y83.935 E3.93877 ; perimeter
G1 X97.374 Y83.693 E3.96193 ; perimeter
G1 X97.150 Y83.428 E3.98508 ; perimeter
G1 X96.953 Y83.142 E4.00823 ; perimeter
G1 X96.785 Y82.840 E4.03138 ; perimeter
G1 X96.646 Y82.522 E4.05454 ; perimeter
G1 X96.539 Y82.192 E4.07769 ; perimeter
G1 X96.465 Y81.854 E4.10084 ; perimeter
G1 X96.423 Y81.510 E4.12399 ; perimeter
G1 X96.414 Y81.163 E4.14714 ; perimeter
G1 X96.440 Y80.818 E4.17030 ; perimeter
G1 X96.498 Y80.476 E4.19345 ; perimeter
G1 X96.589 Y80.142 E4.21660 ; perimeter
G1 X96.712 Y79.818 E4.23975 ; perimeter
G1 X96.865 Y79.507 E4.26290 ; perimeter
G1 X97.048 Y79.213 E4.28606 ; perimeter
G1 X97.259 Y78.937 E4.30921 ; perimeter
G1 X97.495 Y78.683 E4.33236 ; perimeter
G1 X97.754 Y78.454 E4.35551 ; perimeter
G1 X98.034 Y78.250 E4.37867 ; perimeter
G1 X98.333 Y78.074 E4.40182 ; perimeter
G1 X98.648 Y77.928 E4.42497 ; perimeter
G1 X98.974 Y77.813 E4.44812 ; perimeter
G1 X99.311 Y77.730 E4.47127 ; perimeter
G1 X99.654 Y77.680 E4.49443 ; perimeter
G1 X99.986 Y77.664 E4.51667 F900.000 ; perimeter
G1 X100.344 Y77.680 E4.54061 ; perimeter
G1 X100.689 Y77.730 E4.56388 ; perimeter
G1 X101.026 Y77.813 E4.58703 ; perimeter
G1 X101.352 Y77.928 E4.61018 ; perimeter
G1 X101.667 Y78.074 E4.63334 ; perimeter
G1 X101.966 Y78.250 E4.65649 ; perimeter
G1 X102.246 Y78.454 E4.67964 ; perimeter
G1 X102.505 Y78.683 E4.70279 ; perimeter
G1 X102.741 Y78.937 E4.72594 ; perimeter
G1 X102.952 Y79.213 E4.74910 ; perimeter
G1 X103.135 Y79.507 E4.77225 ; perimeter
G1 X103.288 Y79.818 E4.79540 ; perimeter
G1 X103.411 Y80.142 E4.81855 ; perimeter
G1 X103.502 Y80.476 E4.84170 ; perimeter
G1 X103.560 Y80.818 E4.86486 ; perimeter
G1 X103.586 Y81.163 E4.88801 ; perimeter
G1 X103.577 Y81.510 E4.91116 ; perimeter
G1 X103.535 Y81.854 E4.93432 ; perimeter
G1 X103.461 Y82.192 E4.95747 ; perimeter
G1 X103.354 Y82.522 E4.98062 ; perimeter
G1 X103.215 Y82.840 E5.00377 ; perimeter
G1 X103.047 Y83.142 E5.02692 ; perimeter
G1 X102.850 Y83.428 E5.05007 ; perimeter
G1 X102.626 Y83.693 E5.07323 ; perimeter
G1 X102.378 Y83.935 E5.09638 ; perimeter
G1 X102.108 Y84.152 E5.11953 ; perimeter
G1 X101.736 Y84.395 E5.14924 ; perimeter
G1 X101.495 Y84.509 E5.16705 ; perimeter
G1 X101.190 Y84.633 E5.18903 ; perimeter
G1 X100.858 Y84.732 E5.21218 ; perimeter
G1 X100.518 Y84.799 E5.23533 ; perimeter
G1 X100.173 Y84.832 E5.25849 ; perimeter
G1 X99.887 Y84.832 E5.27763 ; perimeter
G1 X99.887 Y84.297 F6600.000 ; move to first perimeter point
G1 X99.559 Y84.268 E5.29959 F900.000 ; perimeter
G1 X99.270 Y84.212 E5.31928 ; perimeter
G1 X98.988 Y84.127 E5.33897 ; perimeter
G1 X98.715 Y84.016 E5.35866 ; perimeter
G1 X98.454 Y83.879 E5.37835 ; perimeter
G1 X98.207 Y83.718 E5.39804 ; perimeter
G1 X97.977 Y83.533 E5.41773 ; perimeter
G1 X97.766 Y83.327 E5.43742 ; perimeter
G1 X97.576 Y83.102 E5.45711 ; perimeter
