; generated by Slic3r 1.2.9 on 2016-01-22 at 21:19:03

; external perimeters extrusion width = 0.40mm
; perimeters extrusion width = 0.67mm
; infill extrusion width = 0.67mm
; solid infill extrusion width = 0.67mm
; top infill extrusion width = 0.67mm

M107 ; disable fan
M104 S220 ; set temperature
M80 ; Power supply on
G28 ; home all axes

M109 S220 ; wait for temperature to be reached
G21 ; set units to millimeters
G90 ; use absolute coordinates
M82 ; use absolute distances for extrusion
G92 E0 ; reset extrusion distance
G1 E-1.00000 F480.00000 ; retract
G92 E0 ; reset extrusion distance
G1 Z0.200 F3600.000 ; move to next layer (0)
G1 X155.675 Y98.063 F3600.000 ; move to first skirt point
G1 E1.00000 F480.00000 ; unretract
G1 X160.778 Y89.961 E1.03855 F2100.000 ; skirt
G1 X162.274 Y88.330 E1.04746 ; skirt
G1 X164.250 Y87.332 E1.05637 ; skirt
G1 X166.000 Y87.079 E1.06350 ; skirt
G1 X181.000 Y87.079 E1.12389 ; skirt
G1 X183.177 Y87.476 E1.13280 ; skirt
G1 X185.666 Y89.211 E1.14502 F2100.000 ; skirt
G1 X214.666 Y122.711 E1.32342 ; skirt
G1 X215.791 Y124.617 E1.33233 ; skirt
G1 X216.171 Y126.750 E1.34106 ; skirt
G1 X216.171 Y206.750 E1.66317 ; skirt
G1 X215.774 Y208.927 E1.67208 ; skirt
G1 X214.635 Y210.824 E1.68099 ; skirt
G1 X212.900 Y212.197 E1.68990 ; skirt
G1 X210.000 Y212.921 E1.70193 ; skirt
G1 X160.000 Y212.921 E1.90325 ; skirt
G1 X157.823 Y212.524 E1.91216 ; skirt
G1 X155.917 Y211.377 E1.92112 ; skirt
G1 X121.917 Y181.377 E2.10368 ; skirt
G1 X120.547 Y179.640 E2.11259 ; skirt
G1 X119.829 Y176.750 E2.12458 ; skirt
G1 X119.829 Y156.750 E2.20511 ; skirt
G1 X120.226 Y154.573 E2.21402 ; skirt
G1 X120.778 Y153.461 E2.21902 ; skirt
G1 X155.643 Y98.114 E2.48240 ; skirt
G1 X155.691 Y98.144 F3600.000 ; move to first skirt point
G1 X160.827 Y89.991 E2.52119 F2100.000 ; skirt
G1 X162.317 Y88.370 E2.53006 ; skirt
G1 X164.285 Y87.381 E2.53893 ; skirt
G1 X166.000 Y87.136 E2.54590 ; skirt
G1 X181.000 Y87.136 E2.60630 ; skirt
G1 X183.167 Y87.533 E2.61517 ; skirt
G1 X185.623 Y89.248 E2.62723 F2100.000 ; skirt
G1 X214.623 Y122.748 E2.80563 ; skirt
G1 X215.741 Y124.646 E2.81450 ; skirt
G1 X216.114 Y126.750 E2.82311 ; skirt
G1 X216.114 Y206.750 E3.14522 ; skirt
G1 X215.717 Y208.917 E3.15409 ; skirt
G1 X214.579 Y210.802 E3.16295 ; skirt
G1 X212.846 Y212.161 E3.17182 ; skirt
G1 X210.000 Y212.864 E3.18362 ; skirt
G1 X160.000 Y212.864 E3.38494 ; skirt
G1 X157.833 Y212.467 E3.39381 ; skirt
G1 X155.955 Y211.335 E3.40264 ; skirt
G1 X121.955 Y181.335 E3.58521 ; skirt
G1 X120.593 Y179.604 E3.59408 ; skirt
G1 X119.886 Y176.750 E3.60592 ; skirt
G1 X119.886 Y156.750 E3.68645 ; skirt
G1 X120.283 Y154.583 E3.69531 ; skirt
G1 X120.827 Y153.491 E3.70023 ; skirt
G1 X155.659 Y98.195 E3.96336 ; skirt
G1 X155.707 Y98.225 F3600.000 ; move to first skirt point
G1 X160.875 Y90.022 E4.00240 F2100.000 ; skirt
G1 X162.360 Y88.409 E4.01123 ; skirt
G1 X164.321 Y87.430 E4.02005 ; skirt
G1 X166.000 Y87.193 E4.02688 ; skirt
G1 X181.000 Y87.193 E4.08728 ; skirt
G1 X183.156 Y87.590 E4.09610 ; skirt
G1 X185.580 Y89.286 E4.10801 F2100.000 ; skirt
G1 X214.580 Y122.786 E4.28641 ; skirt
G1 X215.691 Y124.675 E4.29524 ; skirt
G1 X216.057 Y126.750 E4.30372 ; skirt
G1 X216.057 Y206.750 E4.62583 ; skirt
G1 X215.660 Y208.906 E4.63466 ; skirt
G1 X214.522 Y210.780 E4.64349 ; skirt
G1 X212.792 Y212.125 E4.65231 ; skirt
G1 X210.000 Y212.807 E4.66388 ; skirt
G1 X160.000 Y212.807 E4.86520 ; skirt
G1 X157.844 Y212.410 E4.87403 ; skirt
G1 X155.993 Y211.292 E4.88274 ; skirt
G1 X121.993 Y181.292 E5.06531 ; skirt
G1 X120.638 Y179.568 E5.07413 ; skirt
G1 X119.943 Y176.750 E5.08582 ; skirt
G1 X119.943 Y156.750 E5.16635 ; skirt
G1 X120.340 Y154.594 E5.17517 ; skirt
G1 X120.875 Y153.522 E5.18000 ; skirt
G1 X155.675 Y98.276 E5.44289 ; skirt
G1 E4.44289 F480.00000 ; retract
G92 E0 ; reset extrusion distance
G1 X197.836 Y178.586 F3600.000 ; move to first perimeter point
G1 E1.00000 F480.00000 ; unretract
G1 X201.164 Y178.586 E1.01340 F900.000 ; perimeter
G1 X201.164 Y204.914 E1.11941 ; perimeter
G1 X197.836 Y204.914 E1.13281 ; perimeter
G1 X197.836 Y178.646 E1.23857 ; perimeter
G1 X197.893 Y178.646 F3600.000 ; move to first perimeter point
G1 X197.893 Y178.643 E1.23859 F900.000 ; perimeter
G1 X201.107 Y178.643 E1.25153 F900.000 ; perimeter
G1 X201.107 Y204.857 E1.35708 ; perimeter
G1 X197.893 Y204.857 E1.37002 ; perimeter
G1 X197.893 Y178.706 E1.47531 ; perimeter
G1 X197.950 Y178.706 F3600.000 ; move to first perimeter point
G1 X197.950 Y178.700 E1.47533 F450.000 ; perimeter
G1 X201.050 Y178.700 E1.48782 F450.000 ; perimeter
G1 X201.050 Y204.800 E1.59290 ; perimeter
G1 X197.950 Y204.800 E1.60538 ; perimeter
G1 X197.950 Y178.766 E1.71021 ; perimeter
G1 X197.945 Y178.703 F3600.000 ; move inwards before travel
G1 X192.384 Y169.124 F3600.000 ; move to first perimeter point
G1 X191.508 Y169.630 E1.71428 F450.000 ; perimeter
G1 X189.538 Y169.283 E1.72234 ; perimeter
G1 X188.252 Y167.750 E1.73039 ; perimeter
G1 X188.252 Y165.750 E1.73845 ; perimeter
G1 X189.538 Y164.217 E1.74650 ; perimeter
G1 X191.428 Y163.884 E1.75423 ; perimeter
G1 X191.508 Y163.870 E1.75456 F450.000 ; perimeter
G1 X193.240 Y164.870 E1.76261 ; perimeter
G1 X193.925 Y166.750 E1.77067 ; perimeter
G1 X193.240 Y168.630 E1.77872 ; perimeter
G1 X192.436 Y169.094 E1.78246 ; perimeter
G1 X192.407 Y169.045 F3600.000 ; move to first perimeter point
G1 X191.497 Y169.570 E1.78669 F450.000 ; perimeter
G1 X189.568 Y169.230 E1.79458 ; perimeter
G1 X188.309 Y167.730 E1.80247 ; perimeter
G1 X188.309 Y165.770 E1.81036 ; perimeter
G1 X189.568 Y164.270 E1.81824 ; perimeter
G1 X191.438 Y163.940 E1.82589 ; perimeter
G1 X191.497 Y163.930 E1.82613 F450.000 ; perimeter
G1 X193.194 Y164.909 E1.83402 ; perimeter
G1 X193.864 Y166.750 E1.84191 ; perimeter
G1 X193.194 Y168.591 E1.84980 ; perimeter
G1 X192.459 Y169.015 E1.85321 ; perimeter
G1 X192.431 Y168.966 F3600.000 ; move to first perimeter point
G1 X191.487 Y169.511 E1.85760 F450.000 ; perimeter
G1 X189.598 Y169.178 E1.86532 ; perimeter
G1 X188.366 Y167.709 E1.87304 ; perimeter
G1 X188.366 Y165.791 E1.88076 ; perimeter
G1 X189.598 Y164.322 E1.88848 ; perimeter
G1 X191.448 Y163.996 E1.89605 ; perimeter
G1 X191.487 Y163.989 E1.89620 F450.000 ; perimeter
G1 X193.147 Y164.948 E1.90392 ; perimeter
G1 X193.803 Y166.750 E1.91164 ; perimeter
G1 X193.147 Y168.552 E1.91936 ; perimeter
G1 X192.483 Y168.936 E1.92245 ; perimeter
G1 X192.431 Y169.366 F3600.000 ; move inwards before travel
G1 E0.92245 F480.00000 ; retract
G92 E0 ; reset extrusion distance
G1 X197.836 Y154.914 F3600.000 ; move to first perimeter point
G1 E1.00000 F480.00000 ; unretract
G1 X197.836 Y128.586 E1.10601 F900.000 ; perimeter
G1 X201.164 Y128.586 E1.11941 F900.000 ; perimeter
G1 X201.164 Y154.914 E1.22542 ; perimeter
G1 X197.896 Y154.914 E1.23857 ; perimeter
G1 X197.896 Y154.857 F3600.000 ; move to first perimeter point
G1 X197.893 Y128.643 E1.34412 F900.000 ; perimeter
G1 X201.107 Y128.643 E1.35706 F900.000 ; perimeter
G1 X201.107 Y154.857 E1.46261 ; perimeter
G1 X197.956 Y154.857 E1.47530 ; perimeter
G1 X197.956 Y154.800 F3600.000 ; move to first perimeter point
G1 X197.950 Y128.700 E1.58039 F450.000 ; perimeter
G1 X201.050 Y128.700 E1.59287 F450.000 ; perimeter
G1 X201.050 Y154.800 E1.69796 ; perimeter
G1 X198.016 Y154.800 E1.71017 ; perimeter
G1 X197.556 Y154.800 F3600.000 ; move inwards before travel
G1 X195.164 Y156.681 F3600.000 ; move to first perimeter point
G1 X195.164 Y126.914 E1.83003 F900.000 ; perimeter
G1 X209.836 Y126.914 E1.88910 ; perimeter
G1 X209.836 Y206.586 E2.20989 ; perimeter
G1 X195.164 Y206.586 E2.26896 F900.000 ; perimeter
G1 X195.164 Y176.586 E2.38975 ; perimeter
G1 X181.164 Y176.586 E2.44612 ; perimeter
G1 X181.164 Y156.914 E2.52533 ; perimeter
G1 X195.164 Y156.914 E2.58170 ; perimeter
G1 X195.164 Y156.741 E2.58239 ; perimeter
G1 X195.107 Y156.741 F3600.000 ; move to first perimeter point
G1 X195.107 Y126.857 E2.70272 F900.000 ; perimeter
G1 X209.893 Y126.857 E2.76225 ; perimeter
G1 X209.893 Y206.643 E3.08350 ; perimeter
G1 X195.107 Y206.643 E3.14303 F900.000 ; perimeter
G1 X195.107 Y176.643 E3.26383 ; perimeter
G1 X181.107 Y176.643 E3.32019 ; perimeter
G1 X181.107 Y156.857 E3.39986 ; perimeter
G1 X195.107 Y156.857 E3.45623 ; perimeter
G1 X195.107 Y156.801 E3.45645 ; perimeter
G1 X195.050 Y156.800 F3600.000 ; move to first perimeter point
G1 X195.050 Y126.800 E3.57725 F450.000 ; perimeter
G1 X209.950 Y126.800 E3.63724 ; perimeter
G1 X209.950 Y206.700 E3.95895 ; perimeter
G1 X195.050 Y206.700 E4.01894 F450.000 ; perimeter
G1 X195.050 Y176.700 E4.13973 ; perimeter
G1 X181.050 Y176.700 E4.19610 ; perimeter
G1 X181.050 Y156.800 E4.27623 ; perimeter
G1 X194.990 Y156.800 E4.33235 ; perimeter
G1 X195.450 Y156.800 F3600.000 ; move inwards before travel
G1 X195.022 Y156.931 F3600.000 ; move to first infill point
G1 X209.819 Y171.728 E4.41664 F900.000 ; infill
G1 X209.819 Y171.648 F3600.000 ; move to first infill point
G1 X195.102 Y156.931 E4.50047 F900.000 ; infill
G1 X195.181 Y156.928 F3600.000 ; move to first infill point
G1 X209.819 Y171.567 E4.58385 F900.000 ; infill
G1 X209.819 Y171.486 F3600.000 ; move to first infill point
G1 X195.181 Y156.847 E4.66723 F900.000 ; infill
G1 X195.181 Y156.766 F3600.000 ; move to first infill point
G1 X209.819 Y171.405 E4.75061 F900.000 ; infill
G1 X209.819 Y171.325 F3600.000 ; move to first infill point
G1 X195.181 Y156.686 E4.83399 F900.000 ; infill
G1 X195.181 Y156.605 F3600.000 ; move to first infill point
G1 X209.819 Y171.244 E4.91737 F900.000 ; infill
G1 X209.819 Y171.163 F3600.000 ; move to first infill point
G1 X195.181 Y156.524 E5.00075 F900.000 ; infill
G1 X195.181 Y156.443 F3600.000 ; move to first infill point
G1 X209.819 Y171.082 E5.08413 F900.000 ; infill
G1 X209.819 Y171.002 F3600.000 ; move to first infill point
G1 X195.181 Y156.363 E5.16752 F900.000 ; infill
G1 X195.181 Y156.282 F3600.000 ; move to first infill point
G1 X209.819 Y170.921 E5.25090 F900.000 ; infill
G1 X209.819 Y170.840 F3600.000 ; move to first infill point
G1 X195.181 Y156.201 E5.33428 F900.000 ; infill
G1 X195.181 Y156.120 F3600.000 ; move to first infill point
G1 X209.819 Y170.759 E5.41766 F900.000 ; infill
G1 X209.819 Y170.679 F3600.000 ; move to first infill point
G1 X195.181 Y156.040 E5.50104 F900.000 ; infill
G1 X195.181 Y155.959 F3600.000 ; move to first infill point
G1 X209.819 Y170.598 E5.58442 F900.000 ; infill
G1 X209.819 Y170.517 F3600.000 ; move to first infill point
G1 X195.181 Y155.878 E5.66780 F900.000 ; infill
G1 X195.181 Y155.797 F3600.000 ; move to first infill point
G1 X209.819 Y170.436 E5.75118 F900.000 ; infill
G1 X209.819 Y170.356 F3600.000 ; move to first infill point
G1 X195.181 Y155.717 E5.83456 F900.000 ; infill
G1 X195.181 Y155.636 F3600.000 ; move to first infill point
G1 X209.819 Y170.275 E5.91795 F900.000 ; infill
G1 X209.819 Y170.194 F3600.000 ; move to first infill point
G1 X195.181 Y155.555 E6.00133 F900.000 ; infill
G1 X195.181 Y155.474 F3600.000 ; move to first infill point
G1 X209.819 Y170.113 E6.08471 F900.000 ; infill
G1 X209.819 Y170.033 F3600.000 ; move to first infill point
G1 X195.181 Y155.394 E6.16809 F900.000 ; infill
G1 X195.181 Y155.313 F3600.000 ; move to first infill point
G1 X209.819 Y169.952 E6.25147 F900.000 ; infill
G1 X209.819 Y169.871 F3600.000 ; move to first infill point
G1 X195.181 Y155.232 E6.33485 F900.000 ; infill
G1 X195.181 Y155.151 F3600.000 ; move to first infill point
G1 X209.819 Y169.790 E6.41823 F900.000 ; infill
G1 X209.819 Y169.710 F3600.000 ; move to first infill point
G1 X195.181 Y155.071 E6.50161 F900.000 ; infill
G1 X195.181 Y154.990 F3600.000 ; move to first infill point
G1 X209.819 Y169.629 E6.58500 F900.000 ; infill
G1 X209.819 Y169.548 F3600.000 ; move to first infill point
G1 X195.181 Y154.909 E6.66838 F900.000 ; infill
G1 X195.181 Y154.828 F3600.000 ; move to first infill point
G1 X209.819 Y169.467 E6.75176 F900.000 ; infill
G1 X209.819 Y169.387 F3600.000 ; move to first infill point
G1 X195.181 Y154.748 E6.83514 F900.000 ; infill
G1 X195.181 Y154.667 F3600.000 ; move to first infill point
G1 X209.819 Y169.306 E6.91852 F900.000 ; infill
G1 X209.819 Y169.225 F3600.000 ; move to first infill point
G1 X195.181 Y154.586 E7.00190 F900.000 ; infill
G1 X195.181 Y154.505 F3600.000 ; move to first infill point
G1 X209.819 Y169.144 E7.08528 F900.000 ; infill
G1 X209.819 Y169.064 F3600.000 ; move to first infill point
G1 X195.181 Y154.425 E7.16866 F900.000 ; infill
G1 X195.181 Y154.344 F3600.000 ; move to first infill point
G1 X209.819 Y168.983 E7.25205 F900.000 ; infill
G1 X209.819 Y168.902 F3600.000 ; move to first infill point
G1 X195.181 Y154.263 E7.33543 F900.000 ; infill
G1 X195.181 Y154.182 F3600.000 ; move to first infill point
G1 X209.819 Y168.821 E7.41881 F900.000 ; infill
G1 X209.819 Y168.741 F3600.000 ; move to first infill point
G1 X195.181 Y154.102 E7.50219 F900.000 ; infill
G1 X195.181 Y154.021 F3600.000 ; move to first infill point
G1 X209.819 Y168.660 E7.58557 F900.000 ; infill
G1 X209.819 Y168.579 F3600.000 ; move to first infill point
G1 X195.181 Y153.940 E7.66895 F900.000 ; infill
G1 X195.181 Y153.860 F3600.000 ; move to first infill point
G1 X209.819 Y168.498 E7.75233 F900.000 ; infill
G1 X209.819 Y168.418 F3600.000 ; move to first infill point
G1 X195.181 Y153.779 E7.83571 F900.000 ; infill
G1 X195.181 Y153.698 F3600.000 ; move to first infill point
G1 X209.819 Y168.337 E7.91910 F900.000 ; infill
G1 X209.819 Y168.256 F3600.000 ; move to first infill point
G1 X195.181 Y153.617 E8.00248 F900.000 ; infill
G1 X195.181 Y153.537 F3600.000 ; move to first infill point
G1 X209.819 Y168.176 E8.08586 F900.000 ; infill
G1 X209.819 Y168.095 F3600.000 ; move to first infill point
G1 X195.181 Y153.456 E8.16924 F900.000 ; infill
G1 X195.181 Y153.375 F3600.000 ; move to first infill point
G1 X209.819 Y168.014 E8.25262 F900.000 ; infill
G1 X209.819 Y167.933 F3600.000 ; move to first infill point
G1 X195.181 Y153.294 E8.33600 F900.000 ; infill
G1 X195.181 Y153.214 F3600.000 ; move to first infill point
G1 X209.819 Y167.853 E8.41938 F900.000 ; infill
G1 X209.819 Y167.772 F3600.000 ; move to first infill point
G1 X195.181 Y153.133 E8.50276 F900.000 ; infill
G1 X195.181 Y153.052 F3600.000 ; move to first infill point
G1 X209.819 Y167.691 E8.58615 F900.000 ; infill
G1 X209.819 Y167.610 F3600.000 ; move to first infill point
G1 X195.181 Y152.971 E8.66953 F900.000 ; infill
G1 X195.181 Y152.891 F3600.000 ; move to first infill point
G1 X209.819 Y167.530 E8.75291 F900.000 ; infill
G1 X209.819 Y167.449 F3600.000 ; move to first infill point
G1 X195.181 Y152.810 E8.83629 F900.000 ; infill
G1 X195.181 Y152.729 F3600.000 ; move to first infill point
G1 X209.819 Y167.368 E8.91967 F900.000 ; infill
G1 X209.819 Y167.287 F3600.000 ; move to first infill point
G1 X195.181 Y152.648 E9.00305 F900.000 ; infill
G1 X195.181 Y152.568 F3600.000 ; move to first infill point
G1 X209.819 Y167.207 E9.08643 F900.000 ; infill
G1 X209.819 Y167.126 F3600.000 ; move to first infill point
G1 X195.181 Y152.487 E9.16981 F900.000 ; infill
G1 X195.181 Y152.406 F3600.000 ; move to first infill point
G1 X209.819 Y167.045 E9.25320 F900.000 ; infill
G1 X209.819 Y166.964 F3600.000 ; move to first infill point
G1 X195.181 Y152.325 E9.33658 F900.000 ; infill
G1 X195.181 Y152.245 F3600.000 ; move to first infill point
G1 X197.819 Y154.884 E9.35161 F900.000 ; infill
G1 X197.866 Y154.931 F3600.000 ; move to first infill point
G1 X209.819 Y166.884 E9.41969 F900.000 ; infill
G1 X209.819 Y166.803 F3600.000 ; move to first infill point
G1 X197.947 Y154.931 E9.48731 F900.000 ; infill
G1 X198.028 Y154.931 F3600.000 ; move to first infill point
G1 X209.819 Y166.722 E9.55448 F900.000 ; infill
G1 X209.819 Y166.641 F3600.000 ; move to first infill point
G1 X198.109 Y154.931 E9.62118 F900.000 ; infill
G1 X198.189 Y154.931 F3600.000 ; move to first infill point
G1 X209.819 Y166.561 E9.68742 F900.000 ; infill
G1 X209.819 Y166.480 F3600.000 ; move to first infill point
G1 X198.270 Y154.931 E9.75320 F900.000 ; infill
