; generated by Slic3r 1.2.9 on 2016-02-01 at 16:13:30

; external perimeters extrusion width = 0.40mm
; perimeters extrusion width = 0.67mm
; infill extrusion width = 0.67mm
; solid infill extrusion width = 0.67mm
; top infill extrusion width = 0.67mm

M107 ; disable fan
M104 S220 ; set temperature
M80 ; Power supply on
G28 ; home all axes

M109 S220 ; wait for temperature to be reached
G21 ; set units to millimeters
G90 ; use absolute coordinates
M82 ; use absolute distances for extrusion
G92 E0 ; reset extrusion distance
G1 E-1.00000 F480.00000 ; retract
G92 E0 ; reset extrusion distance
G1 Z0.200 F3600.000 ; move to next layer (0)
G1 X149.386 Y129.136 F3600.000 ; move to first skirt point
G1 E1.00000 F480.00000 ; unretract
G1 X150.386 Y128.136 E1.00569 F2100.000 ; skirt
G1 X152.206 Y126.877 E1.01460 ; skirt
G1 X154.750 Y126.329 E1.02508 ; skirt
G1 X178.750 Y126.329 E1.12171 ; skirt
G1 X180.927 Y126.726 E1.13062 ; skirt
G1 X183.262 Y128.289 E1.14194 F2100.000 ; skirt
G1 X186.762 Y132.039 E1.16259 ; skirt
G1 X187.957 Y133.902 E1.17150 ; skirt
G1 X188.421 Y136.250 E1.18114 ; skirt
G1 X188.421 Y142.750 E1.20731 ; skirt
G1 X188.360 Y143.614 E1.21080 ; skirt
G1 X184.860 Y168.364 E1.31144 ; skirt
G1 X184.163 Y170.464 E1.32035 ; skirt
G1 X182.769 Y172.183 E1.32926 ; skirt
G1 X180.859 Y173.300 E1.33817 ; skirt
G1 X178.750 Y173.671 E1.34680 ; skirt
G1 X154.750 Y173.671 E1.44343 ; skirt
G1 X152.573 Y173.274 E1.45234 ; skirt
G1 X150.386 Y171.864 E1.46282 ; skirt
G1 X149.386 Y170.864 E1.46851 ; skirt
G1 X148.127 Y169.044 E1.47742 ; skirt
G1 X147.579 Y166.500 E1.48790 ; skirt
G1 X147.579 Y133.500 E1.62077 ; skirt
G1 X147.976 Y131.323 E1.62968 ; skirt
G1 X149.354 Y129.187 E1.63991 ; skirt
G1 X149.401 Y129.217 F3600.000 ; move to first skirt point
G1 X150.427 Y128.177 E1.64580 F2100.000 ; skirt
G1 X152.239 Y126.925 E1.65467 ; skirt
G1 X154.750 Y126.386 E1.66501 ; skirt
G1 X178.750 Y126.386 E1.76164 ; skirt
G1 X180.917 Y126.783 E1.77051 ; skirt
G1 X183.220 Y128.328 E1.78168 F2100.000 ; skirt
G1 X186.720 Y132.078 E1.80233 ; skirt
G1 X187.908 Y133.933 E1.81120 ; skirt
G1 X188.364 Y136.250 E1.82071 ; skirt
G1 X188.364 Y142.750 E1.84688 ; skirt
G1 X188.304 Y143.606 E1.85033 ; skirt
G1 X184.804 Y168.356 E1.95098 ; skirt
G1 X184.108 Y170.446 E1.95985 ; skirt
G1 X182.716 Y172.153 E1.96871 ; skirt
G1 X180.810 Y173.257 E1.97758 ; skirt
G1 X178.750 Y173.614 E1.98600 ; skirt
G1 X154.750 Y173.614 E2.08263 ; skirt
G1 X152.583 Y173.217 E2.09150 ; skirt
G1 X150.427 Y171.823 E2.10184 ; skirt
G1 X149.427 Y170.823 E2.10754 ; skirt
G1 X148.175 Y169.011 E2.11641 ; skirt
G1 X147.636 Y166.500 E2.12675 ; skirt
G1 X147.636 Y133.500 E2.25962 ; skirt
G1 X148.033 Y131.333 E2.26848 ; skirt
G1 X149.368 Y129.267 E2.27839 ; skirt
G1 X149.415 Y129.298 F3600.000 ; move to first skirt point
G1 X149.467 Y129.217 E2.27878 F2100.000 ; skirt
G1 X150.467 Y128.217 E2.28447 ; skirt
G1 X152.272 Y126.973 E2.29330 ; skirt
G1 X154.750 Y126.443 E2.30350 ; skirt
G1 X178.750 Y126.443 E2.40013 ; skirt
G1 X180.906 Y126.840 E2.40896 ; skirt
G1 X183.178 Y128.367 E2.41998 F2100.000 ; skirt
G1 X186.678 Y132.117 E2.44064 ; skirt
G1 X187.859 Y133.964 E2.44946 ; skirt
G1 X188.307 Y136.250 E2.45884 ; skirt
G1 X188.307 Y142.750 E2.48501 ; skirt
G1 X188.247 Y143.598 E2.48844 ; skirt
G1 X184.747 Y168.348 E2.58908 ; skirt
G1 X184.053 Y170.427 E2.59791 ; skirt
G1 X182.663 Y172.123 E2.60674 ; skirt
G1 X180.762 Y173.213 E2.61556 ; skirt
G1 X178.750 Y173.557 E2.62378 ; skirt
G1 X154.750 Y173.557 E2.72041 ; skirt
G1 X152.594 Y173.160 E2.72924 ; skirt
G1 X150.467 Y171.783 E2.73944 ; skirt
G1 X149.467 Y170.783 E2.74514 ; skirt
G1 X148.223 Y168.978 E2.75396 ; skirt
G1 X147.693 Y166.500 E2.76416 ; skirt
G1 X147.693 Y133.500 E2.89704 ; skirt
G1 X148.090 Y131.344 E2.90586 ; skirt
G1 X149.382 Y129.348 E2.91544 ; skirt
G1 E1.91544 F480.00000 ; retract
G92 E0 ; reset extrusion distance
G1 X165.357 Y149.468 F3600.000 ; move to first perimeter point
G1 E1.00000 F480.00000 ; unretract
G1 X165.357 Y133.544 E1.06411 F1800.000 ; perimeter
G1 X166.294 Y132.607 E1.06945 ; perimeter
G1 X167.143 Y132.607 E1.07287 ; perimeter
G1 X167.143 Y137.107 E1.09099 ; perimeter
G1 X169.857 Y137.107 E1.10192 F1800.000 ; perimeter
G1 X169.857 Y136.357 E1.10493 ; perimeter
G1 X170.643 Y136.357 E1.10810 ; perimeter
G1 X170.643 Y137.893 E1.11428 ; perimeter
G1 X167.143 Y137.893 E1.12838 ; perimeter
G1 X167.143 Y141.107 E1.14132 ; perimeter
G1 X170.643 Y141.107 E1.15541 ; perimeter
G1 X170.643 Y142.643 E1.16159 ; perimeter
G1 X169.857 Y142.643 E1.16476 ; perimeter
G1 X169.857 Y141.893 E1.16778 ; perimeter
G1 X167.143 Y141.893 E1.17870 ; perimeter
G1 X167.143 Y167.393 E1.28138 ; perimeter
G1 X166.294 Y167.393 E1.28479 ; perimeter
G1 X165.357 Y166.456 E1.29013 ; perimeter
G1 X165.357 Y149.528 E1.35829 ; perimeter
G1 X165.300 Y149.528 F3600.000 ; move to first perimeter point
G1 X165.300 Y133.521 E1.42274 F900.000 ; perimeter
G1 X166.271 Y132.550 E1.42827 ; perimeter
G1 X167.200 Y132.550 E1.43201 ; perimeter
G1 X167.200 Y137.050 E1.45013 ; perimeter
G1 X169.800 Y137.050 E1.46060 F900.000 ; perimeter
G1 X169.800 Y136.300 E1.46362 ; perimeter
G1 X170.700 Y136.300 E1.46724 ; perimeter
G1 X170.700 Y137.950 E1.47388 ; perimeter
G1 X167.200 Y137.950 E1.48797 ; perimeter
G1 X167.200 Y141.050 E1.50046 ; perimeter
G1 X170.700 Y141.050 E1.51455 ; perimeter
G1 X170.700 Y142.700 E1.52119 ; perimeter
G1 X169.800 Y142.700 E1.52482 ; perimeter
G1 X169.800 Y141.950 E1.52784 ; perimeter
G1 X167.200 Y141.950 E1.53830 ; perimeter
G1 X167.200 Y167.450 E1.64098 ; perimeter
G1 X166.271 Y167.450 E1.64472 ; perimeter
G1 X165.300 Y166.479 E1.65025 ; perimeter
G1 X165.300 Y149.588 E1.71826 ; perimeter
G1 X165.646 Y149.328 F3600.000 ; move inwards before travel
G1 X165.373 Y149.598 F3600.000 ; move to first infill point
G1 X167.127 Y151.351 E1.72825 F1800.000 ; infill
G1 X167.127 Y151.271 F3600.000 ; move to first infill point
G1 X165.373 Y149.518 E1.73824 F1800.000 ; infill
G1 X165.373 Y149.437 F3600.000 ; move to first infill point
G1 X167.127 Y151.190 E1.74823 F1800.000 ; infill
G1 X167.127 Y151.109 F3600.000 ; move to first infill point
G1 X165.373 Y149.356 E1.75822 F1800.000 ; infill
G1 X165.373 Y149.275 F3600.000 ; move to first infill point
G1 X167.127 Y151.028 E1.76821 F1800.000 ; infill
G1 X167.127 Y150.947 F3600.000 ; move to first infill point
G1 X165.373 Y149.194 E1.77820 F1800.000 ; infill
G1 X165.373 Y149.114 F3600.000 ; move to first infill point
G1 X167.127 Y150.867 E1.78820 F1800.000 ; infill
G1 X167.127 Y150.786 F3600.000 ; move to first infill point
G1 X165.373 Y149.033 E1.79819 F1800.000 ; infill
G1 X165.373 Y148.952 F3600.000 ; move to first infill point
G1 X167.127 Y150.705 E1.80818 F1800.000 ; infill
G1 X167.127 Y150.624 F3600.000 ; move to first infill point
G1 X165.373 Y148.871 E1.81817 F1800.000 ; infill
G1 X165.373 Y148.790 F3600.000 ; move to first infill point
G1 X167.127 Y150.543 E1.82816 F1800.000 ; infill
G1 X167.127 Y150.463 F3600.000 ; move to first infill point
G1 X165.373 Y148.710 E1.83815 F1800.000 ; infill
G1 X165.373 Y148.629 F3600.000 ; move to first infill point
G1 X167.127 Y150.382 E1.84814 F1800.000 ; infill
G1 X167.127 Y150.301 F3600.000 ; move to first infill point
G1 X165.373 Y148.548 E1.85813 F1800.000 ; infill
G1 X165.373 Y148.467 F3600.000 ; move to first infill point
G1 X167.127 Y150.220 E1.86812 F1800.000 ; infill
G1 X167.127 Y150.140 F3600.000 ; move to first infill point
G1 X165.373 Y148.386 E1.87812 F1800.000 ; infill
G1 X165.373 Y148.306 F3600.000 ; move to first infill point
G1 X167.127 Y150.059 E1.88811 F1800.000 ; infill
G1 X167.127 Y149.978 F3600.000 ; move to first infill point
G1 X165.373 Y148.225 E1.89810 F1800.000 ; infill
G1 X165.373 Y148.144 F3600.000 ; move to first infill point
G1 X167.127 Y149.897 E1.90809 F1800.000 ; infill
G1 X167.127 Y149.816 F3600.000 ; move to first infill point
G1 X165.373 Y148.063 E1.91808 F1800.000 ; infill
G1 X165.373 Y147.982 F3600.000 ; move to first infill point
G1 X167.127 Y149.736 E1.92807 F1800.000 ; infill
G1 X167.127 Y149.655 F3600.000 ; move to first infill point
G1 X165.373 Y147.902 E1.93806 F1800.000 ; infill
G1 X165.373 Y147.821 F3600.000 ; move to first infill point
G1 X167.127 Y149.574 E1.94805 F1800.000 ; infill
G1 X167.127 Y149.493 F3600.000 ; move to first infill point
G1 X165.373 Y147.740 E1.95805 F1800.000 ; infill
G1 X165.373 Y147.659 F3600.000 ; move to first infill point
G1 X167.127 Y149.412 E1.96804 F1800.000 ; infill
G1 X167.127 Y149.332 F3600.000 ; move to first infill point
G1 X165.373 Y147.578 E1.97803 F1800.000 ; infill
G1 X165.373 Y147.498 F3600.000 ; move to first infill point
G1 X167.127 Y149.251 E1.98802 F1800.000 ; infill
G1 X167.127 Y149.170 F3600.000 ; move to first infill point
G1 X165.373 Y147.417 E1.99801 F1800.000 ; infill
G1 X165.373 Y147.336 F3600.000 ; move to first infill point
G1 X167.127 Y149.089 E2.00800 F1800.000 ; infill
G1 X167.127 Y149.008 F3600.000 ; move to first infill point
G1 X165.373 Y147.255 E2.01799 F1800.000 ; infill
G1 X165.373 Y147.175 F3600.000 ; move to first infill point
G1 X167.127 Y148.928 E2.02798 F1800.000 ; infill
G1 X167.127 Y148.847 F3600.000 ; move to first infill point
G1 X165.373 Y147.094 E2.03798 F1800.000 ; infill
G1 X165.373 Y147.013 F3600.000 ; move to first infill point
G1 X167.127 Y148.766 E2.04797 F1800.000 ; infill
G1 X167.127 Y148.685 F3600.000 ; move to first infill point
G1 X165.373 Y146.932 E2.05796 F1800.000 ; infill
G1 X165.373 Y146.851 F3600.000 ; move to first infill point
G1 X167.127 Y148.604 E2.06795 F1800.000 ; infill
G1 X167.127 Y148.524 F3600.000 ; move to first infill point
G1 X165.373 Y146.771 E2.07794 F1800.000 ; infill
G1 X165.373 Y146.690 F3600.000 ; move to first infill point
G1 X167.127 Y148.443 E2.08793 F1800.000 ; infill
G1 X167.127 Y148.362 F3600.000 ; move to first infill point
G1 X165.373 Y146.609 E2.09792 F1800.000 ; infill
G1 X165.373 Y146.528 F3600.000 ; move to first infill point
G1 X167.127 Y148.281 E2.10791 F1800.000 ; infill
G1 X167.127 Y148.200 F3600.000 ; move to first infill point
G1 X165.373 Y146.447 E2.11790 F1800.000 ; infill
G1 X165.373 Y146.367 F3600.000 ; move to first infill point
G1 X167.127 Y148.120 E2.12790 F1800.000 ; infill
G1 X167.127 Y148.039 F3600.000 ; move to first infill point
G1 X165.373 Y146.286 E2.13789 F1800.000 ; infill
G1 X165.373 Y146.205 F3600.000 ; move to first infill point
G1 X167.127 Y147.958 E2.14788 F1800.000 ; infill
G1 X167.127 Y147.877 F3600.000 ; move to first infill point
G1 X165.373 Y146.124 E2.15787 F1800.000 ; infill
G1 X165.373 Y146.043 F3600.000 ; move to first infill point
G1 X167.127 Y147.796 E2.16786 F1800.000 ; infill
G1 X167.127 Y147.716 F3600.000 ; move to first infill point
G1 X165.373 Y145.963 E2.17785 F1800.000 ; infill
G1 X165.373 Y145.882 F3600.000 ; move to first infill point
G1 X167.127 Y147.635 E2.18784 F1800.000 ; infill
G1 X167.127 Y147.554 F3600.000 ; move to first infill point
G1 X165.373 Y145.801 E2.19783 F1800.000 ; infill
G1 X165.373 Y145.720 F3600.000 ; move to first infill point
G1 X167.127 Y147.473 E2.20783 F1800.000 ; infill
G1 X167.127 Y147.392 F3600.000 ; move to first infill point
G1 X165.373 Y145.639 E2.21782 F1800.000 ; infill
G1 X165.373 Y145.559 F3600.000 ; move to first infill point
G1 X167.127 Y147.312 E2.22781 F1800.000 ; infill
G1 X167.127 Y147.231 F3600.000 ; move to first infill point
G1 X165.373 Y145.478 E2.23780 F1800.000 ; infill
G1 X165.373 Y145.397 F3600.000 ; move to first infill point
G1 X167.127 Y147.150 E2.24779 F1800.000 ; infill
G1 X167.127 Y147.069 F3600.000 ; move to first infill point
G1 X165.373 Y145.316 E2.25778 F1800.000 ; infill
G1 X165.373 Y145.235 F3600.000 ; move to first infill point
G1 X167.127 Y146.988 E2.26777 F1800.000 ; infill
G1 X167.127 Y146.908 F3600.000 ; move to first infill point
G1 X165.373 Y145.155 E2.27776 F1800.000 ; infill
G1 X165.373 Y145.074 F3600.000 ; move to first infill point
G1 X167.127 Y146.827 E2.28776 F1800.000 ; infill
G1 X167.127 Y146.746 F3600.000 ; move to first infill point
G1 X165.373 Y144.993 E2.29775 F1800.000 ; infill
G1 X165.373 Y144.912 F3600.000 ; move to first infill point
G1 X167.127 Y146.665 E2.30774 F1800.000 ; infill
G1 X167.127 Y146.585 F3600.000 ; move to first infill point
G1 X165.373 Y144.831 E2.31773 F1800.000 ; infill
G1 X165.373 Y144.751 F3600.000 ; move to first infill point
G1 X167.127 Y146.504 E2.32772 F1800.000 ; infill
G1 X167.127 Y146.423 F3600.000 ; move to first infill point
G1 X165.373 Y144.670 E2.33771 F1800.000 ; infill
G1 X165.373 Y144.589 F3600.000 ; move to first infill point
G1 X167.127 Y146.342 E2.34770 F1800.000 ; infill
G1 X167.127 Y146.261 F3600.000 ; move to first infill point
G1 X165.373 Y144.508 E2.35769 F1800.000 ; infill
G1 X165.373 Y144.427 F3600.000 ; move to first infill point
G1 X167.127 Y146.181 E2.36768 F1800.000 ; infill
G1 X167.127 Y146.100 F3600.000 ; move to first infill point
G1 X165.373 Y144.347 E2.37768 F1800.000 ; infill
G1 X165.373 Y144.266 F3600.000 ; move to first infill point
G1 X167.127 Y146.019 E2.38767 F1800.000 ; infill
G1 X167.127 Y145.938 F3600.000 ; move to first infill point
G1 X165.373 Y144.185 E2.39766 F1800.000 ; infill
G1 X165.373 Y144.104 F3600.000 ; move to first infill point
G1 X167.127 Y145.857 E2.40765 F1800.000 ; infill
G1 X167.127 Y145.777 F3600.000 ; move to first infill point
G1 X165.373 Y144.023 E2.41764 F1800.000 ; infill
G1 X165.373 Y143.943 F3600.000 ; move to first infill point
G1 X167.127 Y145.696 E2.42763 F1800.000 ; infill
G1 X167.127 Y145.615 F3600.000 ; move to first infill point
G1 X165.373 Y143.862 E2.43762 F1800.000 ; infill
G1 X165.373 Y143.781 F3600.000 ; move to first infill point
G1 X167.127 Y145.534 E2.44761 F1800.000 ; infill
G1 X167.127 Y145.453 F3600.000 ; move to first infill point
G1 X165.373 Y143.700 E2.45761 F1800.000 ; infill
G1 X165.373 Y143.620 F3600.000 ; move to first infill point
G1 X167.127 Y145.373 E2.46760 F1800.000 ; infill
G1 X167.127 Y145.292 F3600.000 ; move to first infill point
G1 X165.373 Y143.539 E2.47759 F1800.000 ; infill
G1 X165.373 Y143.458 F3600.000 ; move to first infill point
G1 X167.127 Y145.211 E2.48758 F1800.000 ; infill
G1 X167.127 Y145.130 F3600.000 ; move to first infill point
G1 X165.373 Y143.377 E2.49757 F1800.000 ; infill
G1 X165.373 Y143.296 F3600.000 ; move to first infill point
G1 X167.127 Y145.049 E2.50756 F1800.000 ; infill
G1 X167.127 Y144.969 F3600.000 ; move to first infill point
G1 X165.373 Y143.216 E2.51755 F1800.000 ; infill
G1 X165.373 Y143.135 F3600.000 ; move to first infill point
G1 X167.127 Y144.888 E2.52754 F1800.000 ; infill
G1 X167.127 Y144.807 F3600.000 ; move to first infill point
G1 X165.373 Y143.054 E2.53753 F1800.000 ; infill
G1 X165.373 Y142.973 F3600.000 ; move to first infill point
G1 X167.127 Y144.726 E2.54753 F1800.000 ; infill
G1 X167.127 Y144.645 F3600.000 ; move to first infill point
G1 X165.373 Y142.892 E2.55752 F1800.000 ; infill
G1 X165.373 Y142.812 F3600.000 ; move to first infill point
G1 X167.127 Y144.565 E2.56751 F1800.000 ; infill
G1 X167.127 Y144.484 F3600.000 ; move to first infill point
G1 X165.373 Y142.731 E2.57750 F1800.000 ; infill
G1 X165.373 Y142.650 F3600.000 ; move to first infill point
G1 X167.127 Y144.403 E2.58749 F1800.000 ; infill
G1 X167.127 Y144.322 F3600.000 ; move to first infill point
G1 X165.373 Y142.569 E2.59748 F1800.000 ; infill
G1 X165.373 Y142.488 F3600.000 ; move to first infill point
G1 X167.127 Y144.241 E2.60747 F1800.000 ; infill
G1 X167.127 Y144.161 F3600.000 ; move to first infill point
G1 X165.373 Y142.408 E2.61746 F1800.000 ; infill
G1 X165.373 Y142.327 F3600.000 ; move to first infill point
G1 X167.127 Y144.080 E2.62746 F1800.000 ; infill
G1 X167.127 Y143.999 F3600.000 ; move to first infill point
G1 X165.373 Y142.246 E2.63745 F1800.000 ; infill
G1 X165.373 Y142.165 F3600.000 ; move to first infill point
G1 X167.127 Y143.918 E2.64744 F1800.000 ; infill
G1 X167.127 Y143.837 F3600.000 ; move to first infill point
G1 X165.373 Y142.084 E2.65743 F1800.000 ; infill
