; generated by Slic3r 1.2.9 on 2016-01-31 at 23:50:53

; external perimeters extrusion width = 0.40mm
; perimeters extrusion width = 0.67mm
; infill extrusion width = 0.67mm
; solid infill extrusion width = 0.67mm
; top infill extrusion width = 0.67mm

M107 ; disable fan
M104 S220 ; set temperature
M80 ; Power supply on
G28 ; home all axes

M109 S220 ; wait for temperature to be reached
G21 ; set units to millimeters
G90 ; use absolute coordinates
M82 ; use absolute distances for extrusion
G92 E0 ; reset extrusion distance
G1 E-1.00000 F480.00000 ; retract
G92 E0 ; reset extrusion distance
G1 Z0.200 F3600.000 ; move to next layer (0)
G1 X144.636 Y139.136 F3600.000 ; move to first skirt point
G1 E1.00000 F480.00000 ; unretract
G1 X145.636 Y138.136 E1.00569 F2100.000 ; skirt
G1 X147.456 Y136.877 E1.01460 ; skirt
G1 X150.000 Y136.329 E1.02508 ; skirt
G1 X186.000 Y136.329 E1.17003 ; skirt
G1 X188.177 Y136.726 E1.17894 ; skirt
G1 X190.364 Y138.136 E1.18942 F2100.000 ; skirt
G1 X191.364 Y139.136 E1.19511 ; skirt
G1 X192.623 Y140.956 E1.20402 ; skirt
G1 X193.171 Y143.500 E1.21450 ; skirt
G1 X193.171 Y156.500 E1.26684 ; skirt
G1 X192.774 Y158.677 E1.27575 ; skirt
G1 X191.364 Y160.864 E1.28623 ; skirt
G1 X190.364 Y161.864 E1.29193 ; skirt
G1 X188.544 Y163.123 E1.30084 ; skirt
G1 X186.000 Y163.671 E1.31131 ; skirt
G1 X150.000 Y163.671 E1.45626 ; skirt
G1 X147.823 Y163.274 E1.46517 ; skirt
G1 X145.636 Y161.864 E1.47565 ; skirt
G1 X144.636 Y160.864 E1.48134 ; skirt
G1 X143.377 Y159.044 E1.49025 ; skirt
G1 X142.829 Y156.500 E1.50073 ; skirt
G1 X142.829 Y143.500 E1.55308 ; skirt
G1 X143.226 Y141.323 E1.56199 ; skirt
G1 X144.604 Y139.187 E1.57222 ; skirt
G1 X144.651 Y139.217 F3600.000 ; move to first skirt point
G1 X145.677 Y138.177 E1.57810 F2100.000 ; skirt
G1 X147.489 Y136.925 E1.58697 ; skirt
G1 X150.000 Y136.386 E1.59731 ; skirt
G1 X186.000 Y136.386 E1.74226 ; skirt
G1 X188.167 Y136.783 E1.75113 ; skirt
G1 X190.323 Y138.177 E1.76147 F2100.000 ; skirt
G1 X191.323 Y139.177 E1.76717 ; skirt
G1 X192.575 Y140.989 E1.77603 ; skirt
G1 X193.114 Y143.500 E1.78637 ; skirt
G1 X193.114 Y156.500 E1.83872 ; skirt
G1 X192.717 Y158.667 E1.84759 ; skirt
G1 X191.323 Y160.823 E1.85793 ; skirt
G1 X190.323 Y161.823 E1.86362 ; skirt
G1 X188.511 Y163.075 E1.87249 ; skirt
G1 X186.000 Y163.614 E1.88283 ; skirt
G1 X150.000 Y163.614 E2.02778 ; skirt
G1 X147.833 Y163.217 E2.03665 ; skirt
G1 X145.677 Y161.823 E2.04699 ; skirt
G1 X144.677 Y160.823 E2.05268 ; skirt
G1 X143.425 Y159.011 E2.06155 ; skirt
G1 X142.886 Y156.500 E2.07189 ; skirt
G1 X142.886 Y143.500 E2.12423 ; skirt
G1 X143.283 Y141.333 E2.13310 ; skirt
G1 X144.618 Y139.267 E2.14301 ; skirt
G1 X144.665 Y139.298 F3600.000 ; move to first skirt point
G1 X144.717 Y139.217 E2.14339 F2100.000 ; skirt
G1 X145.717 Y138.217 E2.14909 ; skirt
G1 X147.522 Y136.973 E2.15791 ; skirt
G1 X150.000 Y136.443 E2.16812 ; skirt
G1 X186.000 Y136.443 E2.31307 ; skirt
G1 X188.156 Y136.840 E2.32189 ; skirt
G1 X190.283 Y138.217 E2.33210 F2100.000 ; skirt
G1 X191.283 Y139.217 E2.33779 ; skirt
G1 X192.527 Y141.022 E2.34662 ; skirt
G1 X193.057 Y143.500 E2.35682 ; skirt
G1 X193.057 Y156.500 E2.40916 ; skirt
G1 X192.660 Y158.656 E2.41799 ; skirt
G1 X191.283 Y160.783 E2.42819 ; skirt
G1 X190.283 Y161.783 E2.43389 ; skirt
G1 X188.478 Y163.027 E2.44271 ; skirt
G1 X186.000 Y163.557 E2.45291 ; skirt
G1 X150.000 Y163.557 E2.59786 ; skirt
G1 X147.844 Y163.160 E2.60669 ; skirt
G1 X145.717 Y161.783 E2.61689 ; skirt
G1 X144.717 Y160.783 E2.62259 ; skirt
G1 X143.473 Y158.978 E2.63141 ; skirt
G1 X142.943 Y156.500 E2.64162 ; skirt
G1 X142.943 Y143.500 E2.69396 ; skirt
G1 X143.340 Y141.344 E2.70279 ; skirt
G1 X144.632 Y139.348 E2.71236 ; skirt
G1 E1.71236 F480.00000 ; retract
G92 E0 ; reset extrusion distance
G1 X175.434 Y148.393 F3600.000 ; move to first perimeter point
G1 E1.00000 F480.00000 ; unretract
G1 X172.893 Y148.393 E1.01023 F1800.000 ; perimeter
G1 X172.893 Y150.607 E1.01915 ; perimeter
G1 X175.893 Y150.607 E1.03122 ; perimeter
G1 X175.893 Y151.893 E1.03640 ; perimeter
G1 X175.107 Y151.893 E1.03957 ; perimeter
G1 X175.107 Y151.393 E1.04158 ; perimeter
G1 X172.893 Y151.393 E1.05049 ; perimeter
G1 X172.893 Y157.393 E1.07465 ; perimeter
G1 X172.044 Y157.393 E1.07807 ; perimeter
G1 X171.107 Y156.456 E1.08341 ; perimeter
G1 X171.107 Y143.544 E1.13539 ; perimeter
G1 X172.044 Y142.607 E1.14073 ; perimeter
G1 X172.893 Y142.607 E1.14415 ; perimeter
G1 X172.893 Y147.607 E1.16428 ; perimeter
G1 X175.107 Y147.607 E1.17319 F1800.000 ; perimeter
G1 X175.107 Y147.107 E1.17521 ; perimeter
G1 X175.893 Y147.107 E1.17837 ; perimeter
G1 X175.893 Y148.393 E1.18355 ; perimeter
G1 X175.494 Y148.393 E1.18515 ; perimeter
G1 X175.494 Y148.450 F3600.000 ; move to first perimeter point
G1 X172.950 Y148.450 E1.19540 F900.000 ; perimeter
G1 X172.950 Y150.550 E1.20385 ; perimeter
G1 X175.950 Y150.550 E1.21593 ; perimeter
G1 X175.950 Y151.950 E1.22157 ; perimeter
G1 X175.050 Y151.950 E1.22519 ; perimeter
G1 X175.050 Y151.450 E1.22720 ; perimeter
G1 X172.950 Y151.450 E1.23566 ; perimeter
G1 X172.950 Y157.450 E1.25982 ; perimeter
G1 X172.021 Y157.450 E1.26356 ; perimeter
G1 X171.050 Y156.479 E1.26909 ; perimeter
G1 X171.050 Y143.521 E1.32126 ; perimeter
G1 X172.021 Y142.550 E1.32679 ; perimeter
G1 X172.950 Y142.550 E1.33053 ; perimeter
G1 X172.950 Y147.550 E1.35066 ; perimeter
G1 X175.050 Y147.550 E1.35912 F900.000 ; perimeter
G1 X175.050 Y147.050 E1.36113 ; perimeter
G1 X175.950 Y147.050 E1.36476 ; perimeter
G1 X175.950 Y148.450 E1.37039 ; perimeter
G1 X175.554 Y148.450 E1.37199 ; perimeter
G1 X175.294 Y148.104 F3600.000 ; move inwards before travel
G1 X175.569 Y148.377 F3600.000 ; move to first infill point
G1 X174.816 Y147.623 E1.37629 F1800.000 ; infill
G1 X174.735 Y147.623 F3600.000 ; move to first infill point
G1 X175.488 Y148.377 E1.38059 F1800.000 ; infill
G1 X175.407 Y148.377 F3600.000 ; move to first infill point
G1 X174.654 Y147.623 E1.38490 F1800.000 ; infill
G1 X174.573 Y147.623 F3600.000 ; move to first infill point
G1 X175.326 Y148.377 E1.38920 F1800.000 ; infill
G1 X175.245 Y148.377 F3600.000 ; move to first infill point
G1 X174.492 Y147.623 E1.39350 F1800.000 ; infill
G1 X174.411 Y147.623 F3600.000 ; move to first infill point
G1 X175.164 Y148.377 E1.39780 F1800.000 ; infill
G1 X175.083 Y148.377 F3600.000 ; move to first infill point
G1 X174.330 Y147.623 E1.40210 F1800.000 ; infill
G1 X174.249 Y147.623 F3600.000 ; move to first infill point
G1 X175.002 Y148.377 E1.40641 F1800.000 ; infill
G1 X174.921 Y148.377 F3600.000 ; move to first infill point
G1 X174.168 Y147.623 E1.41071 F1800.000 ; infill
G1 X174.087 Y147.623 F3600.000 ; move to first infill point
G1 X174.840 Y148.377 E1.41501 F1800.000 ; infill
G1 X174.759 Y148.377 F3600.000 ; move to first infill point
G1 X174.006 Y147.623 E1.41931 F1800.000 ; infill
G1 X173.925 Y147.623 F3600.000 ; move to first infill point
G1 X174.678 Y148.377 E1.42362 F1800.000 ; infill
G1 X174.597 Y148.377 F3600.000 ; move to first infill point
G1 X173.844 Y147.623 E1.42792 F1800.000 ; infill
G1 X173.763 Y147.623 F3600.000 ; move to first infill point
G1 X174.516 Y148.377 E1.43222 F1800.000 ; infill
G1 X174.435 Y148.377 F3600.000 ; move to first infill point
G1 X173.682 Y147.623 E1.43652 F1800.000 ; infill
G1 X173.601 Y147.623 F3600.000 ; move to first infill point
G1 X174.354 Y148.377 E1.44082 F1800.000 ; infill
G1 X174.273 Y148.377 F3600.000 ; move to first infill point
G1 X173.520 Y147.623 E1.44513 F1800.000 ; infill
G1 X173.439 Y147.623 F3600.000 ; move to first infill point
G1 X174.192 Y148.377 E1.44943 F1800.000 ; infill
G1 X174.111 Y148.377 F3600.000 ; move to first infill point
G1 X173.358 Y147.623 E1.45373 F1800.000 ; infill
G1 X173.277 Y147.623 F3600.000 ; move to first infill point
G1 X174.030 Y148.377 E1.45803 F1800.000 ; infill
G1 X173.949 Y148.377 F3600.000 ; move to first infill point
G1 X173.196 Y147.623 E1.46234 F1800.000 ; infill
G1 X173.115 Y147.623 F3600.000 ; move to first infill point
G1 X173.868 Y148.377 E1.46664 F1800.000 ; infill
G1 X173.787 Y148.377 F3600.000 ; move to first infill point
G1 X173.034 Y147.623 E1.47094 F1800.000 ; infill
G1 X172.953 Y147.623 F3600.000 ; move to first infill point
G1 X173.706 Y148.377 E1.47524 F1800.000 ; infill
G1 X173.625 Y148.377 F3600.000 ; move to first infill point
G1 X172.872 Y147.623 E1.47954 F1800.000 ; infill
G1 X172.877 Y147.628 F3600.000 ; move to first infill point
G1 X171.123 Y145.875 E1.48956 F1800.000 ; infill
G1 X171.123 Y145.956 F3600.000 ; move to first infill point
G1 X173.544 Y148.377 E1.50339 F1800.000 ; infill
G1 X173.463 Y148.377 F3600.000 ; move to first infill point
G1 X171.123 Y146.037 E1.51675 F1800.000 ; infill
G1 X171.123 Y146.118 F3600.000 ; move to first infill point
G1 X173.382 Y148.377 E1.52966 F1800.000 ; infill
G1 X173.301 Y148.377 F3600.000 ; move to first infill point
G1 X171.123 Y146.199 E1.54210 F1800.000 ; infill
G1 X171.123 Y146.280 F3600.000 ; move to first infill point
G1 X173.220 Y148.377 E1.55408 F1800.000 ; infill
G1 X173.139 Y148.377 F3600.000 ; move to first infill point
G1 X171.123 Y146.361 E1.56559 F1800.000 ; infill
G1 X171.123 Y146.442 F3600.000 ; move to first infill point
G1 X173.058 Y148.377 E1.57664 F1800.000 ; infill
G1 X172.977 Y148.377 F3600.000 ; move to first infill point
G1 X171.123 Y146.523 E1.58723 F1800.000 ; infill
G1 X171.123 Y146.604 F3600.000 ; move to first infill point
G1 X172.896 Y148.377 E1.59736 F1800.000 ; infill
G1 X172.877 Y148.438 F3600.000 ; move to first infill point
G1 X171.123 Y146.685 E1.60738 F1800.000 ; infill
G1 X171.123 Y146.766 F3600.000 ; move to first infill point
G1 X172.877 Y148.519 E1.61739 F1800.000 ; infill
G1 X172.877 Y148.600 F3600.000 ; move to first infill point
G1 X171.123 Y146.847 E1.62741 F1800.000 ; infill
G1 X171.123 Y146.928 F3600.000 ; move to first infill point
G1 X172.877 Y148.681 E1.63742 F1800.000 ; infill
G1 X172.877 Y148.762 F3600.000 ; move to first infill point
G1 X171.123 Y147.009 E1.64744 F1800.000 ; infill
G1 X171.123 Y147.090 F3600.000 ; move to first infill point
G1 X172.877 Y148.843 E1.65745 F1800.000 ; infill
G1 X172.877 Y148.924 F3600.000 ; move to first infill point
G1 X171.123 Y147.171 E1.66747 F1800.000 ; infill
G1 X171.123 Y147.252 F3600.000 ; move to first infill point
G1 X172.877 Y149.005 E1.67748 F1800.000 ; infill
G1 X172.877 Y149.086 F3600.000 ; move to first infill point
G1 X171.123 Y147.333 E1.68750 F1800.000 ; infill
G1 X171.123 Y147.414 F3600.000 ; move to first infill point
G1 X172.877 Y149.167 E1.69751 F1800.000 ; infill
G1 X172.877 Y149.248 F3600.000 ; move to first infill point
G1 X171.123 Y147.495 E1.70753 F1800.000 ; infill
G1 X171.123 Y147.576 F3600.000 ; move to first infill point
G1 X172.877 Y149.329 E1.71754 F1800.000 ; infill
G1 X172.877 Y149.410 F3600.000 ; move to first infill point
G1 X171.123 Y147.657 E1.72756 F1800.000 ; infill
G1 X171.123 Y147.738 F3600.000 ; move to first infill point
G1 X172.877 Y149.491 E1.73757 F1800.000 ; infill
G1 X172.877 Y149.572 F3600.000 ; move to first infill point
G1 X171.123 Y147.819 E1.74759 F1800.000 ; infill
G1 X171.123 Y147.900 F3600.000 ; move to first infill point
G1 X172.877 Y149.653 E1.75760 F1800.000 ; infill
G1 X172.877 Y149.734 F3600.000 ; move to first infill point
G1 X171.123 Y147.981 E1.76762 F1800.000 ; infill
G1 X171.123 Y148.062 F3600.000 ; move to first infill point
G1 X172.877 Y149.815 E1.77763 F1800.000 ; infill
G1 X172.877 Y149.896 F3600.000 ; move to first infill point
G1 X171.123 Y148.143 E1.78765 F1800.000 ; infill
G1 X171.123 Y148.224 F3600.000 ; move to first infill point
G1 X172.877 Y149.977 E1.79766 F1800.000 ; infill
G1 X172.877 Y150.058 F3600.000 ; move to first infill point
G1 X171.123 Y148.305 E1.80768 F1800.000 ; infill
G1 X171.123 Y148.386 F3600.000 ; move to first infill point
G1 X172.877 Y150.139 E1.81769 F1800.000 ; infill
G1 X172.877 Y150.220 F3600.000 ; move to first infill point
G1 X171.123 Y148.467 E1.82771 F1800.000 ; infill
G1 X171.123 Y148.548 F3600.000 ; move to first infill point
G1 X172.877 Y150.301 E1.83772 F1800.000 ; infill
G1 X172.877 Y150.382 F3600.000 ; move to first infill point
G1 X171.123 Y148.629 E1.84774 F1800.000 ; infill
G1 X171.123 Y148.710 F3600.000 ; move to first infill point
G1 X172.877 Y150.463 E1.85775 F1800.000 ; infill
G1 X172.877 Y150.544 F3600.000 ; move to first infill point
G1 X171.123 Y148.791 E1.86777 F1800.000 ; infill
G1 X171.123 Y148.872 F3600.000 ; move to first infill point
G1 X172.877 Y150.625 E1.87779 F1800.000 ; infill
G1 X172.875 Y150.623 F3600.000 ; move to first infill point
G1 X173.628 Y151.377 E1.88209 F1800.000 ; infill
G1 X173.709 Y151.377 F3600.000 ; move to first infill point
G1 X172.956 Y150.623 E1.88639 F1800.000 ; infill
G1 X173.037 Y150.623 F3600.000 ; move to first infill point
G1 X173.790 Y151.377 E1.89069 F1800.000 ; infill
G1 X173.871 Y151.377 F3600.000 ; move to first infill point
G1 X173.118 Y150.623 E1.89499 F1800.000 ; infill
G1 X173.199 Y150.623 F3600.000 ; move to first infill point
G1 X173.952 Y151.377 E1.89930 F1800.000 ; infill
G1 X174.033 Y151.377 F3600.000 ; move to first infill point
G1 X173.280 Y150.623 E1.90360 F1800.000 ; infill
G1 X173.361 Y150.623 F3600.000 ; move to first infill point
G1 X174.114 Y151.377 E1.90790 F1800.000 ; infill
G1 X174.195 Y151.377 F3600.000 ; move to first infill point
G1 X173.442 Y150.623 E1.91220 F1800.000 ; infill
G1 X173.523 Y150.623 F3600.000 ; move to first infill point
G1 X174.276 Y151.377 E1.91651 F1800.000 ; infill
G1 X174.357 Y151.377 F3600.000 ; move to first infill point
G1 X173.604 Y150.623 E1.92081 F1800.000 ; infill
G1 X173.685 Y150.623 F3600.000 ; move to first infill point
G1 X174.438 Y151.377 E1.92511 F1800.000 ; infill
G1 X174.519 Y151.377 F3600.000 ; move to first infill point
G1 X173.766 Y150.623 E1.92941 F1800.000 ; infill
G1 X173.847 Y150.623 F3600.000 ; move to first infill point
G1 X174.600 Y151.377 E1.93371 F1800.000 ; infill
G1 X174.681 Y151.377 F3600.000 ; move to first infill point
G1 X173.928 Y150.623 E1.93802 F1800.000 ; infill
G1 X174.009 Y150.623 F3600.000 ; move to first infill point
G1 X174.762 Y151.377 E1.94232 F1800.000 ; infill
G1 X174.843 Y151.377 F3600.000 ; move to first infill point
G1 X174.090 Y150.623 E1.94662 F1800.000 ; infill
G1 X174.171 Y150.623 F3600.000 ; move to first infill point
G1 X174.924 Y151.377 E1.95092 F1800.000 ; infill
G1 X175.005 Y151.377 F3600.000 ; move to first infill point
G1 X174.252 Y150.623 E1.95523 F1800.000 ; infill
G1 X174.333 Y150.623 F3600.000 ; move to first infill point
G1 X175.086 Y151.377 E1.95953 F1800.000 ; infill
G1 X175.123 Y151.414 F3600.000 ; move to first infill point
G1 X175.586 Y151.877 E1.96217 F1800.000 ; infill
G1 X175.667 Y151.877 F3600.000 ; move to first infill point
G1 X174.414 Y150.623 E1.96933 F1800.000 ; infill
G1 X174.495 Y150.623 F3600.000 ; move to first infill point
G1 X175.748 Y151.877 E1.97649 F1800.000 ; infill
G1 X175.829 Y151.877 F3600.000 ; move to first infill point
G1 X174.576 Y150.623 E1.98365 F1800.000 ; infill
G1 X174.657 Y150.623 F3600.000 ; move to first infill point
G1 X175.877 Y151.843 E1.99061 F1800.000 ; infill
G1 X175.877 Y151.762 F3600.000 ; move to first infill point
G1 X174.738 Y150.623 E1.99712 F1800.000 ; infill
G1 X174.819 Y150.623 F3600.000 ; move to first infill point
G1 X175.877 Y151.681 E2.00316 F1800.000 ; infill
G1 X175.877 Y151.600 F3600.000 ; move to first infill point
G1 X174.900 Y150.623 E2.00874 F1800.000 ; infill
G1 X174.981 Y150.623 F3600.000 ; move to first infill point
G1 X175.877 Y151.519 E2.01385 F1800.000 ; infill
G1 X175.877 Y151.438 F3600.000 ; move to first infill point
G1 X175.062 Y150.623 E2.01851 F1800.000 ; infill
G1 X175.143 Y150.623 F3600.000 ; move to first infill point
G1 X175.877 Y151.357 E2.02270 F1800.000 ; infill
G1 X175.877 Y151.276 F3600.000 ; move to first infill point
G1 X175.224 Y150.623 E2.02642 F1800.000 ; infill
G1 X175.305 Y150.623 F3600.000 ; move to first infill point
G1 X175.877 Y151.195 E2.02969 F1800.000 ; infill
