; generated by Slic3r 1.2.9 on 2016-02-01 at 10:44:03

; external perimeters extrusion width = 0.40mm
; perimeters extrusion width = 0.67mm
; infill extrusion width = 0.67mm
; solid infill extrusion width = 0.67mm
; top infill extrusion width = 0.67mm

M107 ; disable fan
M104 S220 ; set temperature
M80 ; Power supply on
G28 ; home all axes

M109 S220 ; wait for temperature to be reached
G21 ; set units to millimeters
G90 ; use absolute coordinates
M82 ; use absolute distances for extrusion
G92 E0 ; reset extrusion distance
G1 E-1.00000 F480.00000 ; retract
G92 E0 ; reset extrusion distance
G1 Z0.200 F3600.000 ; move to next layer (0)
G1 X161.136 Y139.136 F3600.000 ; move to first skirt point
G1 E1.00000 F480.00000 ; unretract
G1 X162.136 Y138.136 E1.00569 F2014.672 ; skirt
G1 X163.956 Y136.877 E1.01460 ; skirt
G1 X166.500 Y136.329 E1.02508 ; skirt
G1 X167.500 Y136.329 E1.02911 ; skirt
G1 X169.677 Y136.726 E1.03802 ; skirt
G1 X172.186 Y138.484 E1.05035 F2014.672 ; skirt
G1 X175.186 Y141.984 E1.06891 ; skirt
G1 X176.301 Y143.895 E1.07782 ; skirt
G1 X176.671 Y146.000 E1.08643 ; skirt
G1 X176.671 Y153.000 E1.11461 ; skirt
G1 X176.274 Y155.177 E1.12352 ; skirt
G1 X175.635 Y156.423 E1.12916 ; skirt
G1 X172.635 Y160.923 E1.15094 ; skirt
G1 X171.097 Y162.515 E1.15985 ; skirt
G1 X169.097 Y163.461 E1.16876 ; skirt
G1 X167.500 Y163.671 E1.17524 ; skirt
G1 X166.500 Y163.671 E1.17927 ; skirt
G1 X164.323 Y163.274 E1.18818 ; skirt
G1 X162.136 Y161.864 E1.19866 ; skirt
G1 X161.136 Y160.864 E1.20435 ; skirt
G1 X159.877 Y159.044 E1.21326 ; skirt
G1 X159.329 Y156.500 E1.22374 ; skirt
G1 X159.329 Y143.500 E1.27608 ; skirt
G1 X159.726 Y141.323 E1.28499 ; skirt
G1 X161.104 Y139.187 E1.29523 ; skirt
G1 X161.151 Y139.217 F3600.000 ; move to first skirt point
G1 X162.177 Y138.177 E1.30111 F2014.672 ; skirt
G1 X163.989 Y136.925 E1.30998 ; skirt
G1 X166.500 Y136.386 E1.32032 ; skirt
G1 X167.500 Y136.386 E1.32435 ; skirt
G1 X169.667 Y136.783 E1.33322 ; skirt
G1 X172.142 Y138.521 E1.34540 F2014.672 ; skirt
G1 X175.142 Y142.021 E1.36396 ; skirt
G1 X176.251 Y143.924 E1.37282 ; skirt
G1 X176.614 Y146.000 E1.38131 ; skirt
G1 X176.614 Y153.000 E1.40949 ; skirt
G1 X176.217 Y155.167 E1.41836 ; skirt
G1 X175.587 Y156.392 E1.42391 ; skirt
G1 X172.587 Y160.892 E1.44569 ; skirt
G1 X171.055 Y162.474 E1.45455 ; skirt
G1 X169.062 Y163.411 E1.46342 ; skirt
G1 X167.500 Y163.614 E1.46976 ; skirt
G1 X166.500 Y163.614 E1.47379 ; skirt
G1 X164.333 Y163.217 E1.48266 ; skirt
G1 X162.177 Y161.823 E1.49300 ; skirt
G1 X161.177 Y160.823 E1.49869 ; skirt
G1 X159.925 Y159.011 E1.50756 ; skirt
G1 X159.386 Y156.500 E1.51790 ; skirt
G1 X159.386 Y143.500 E1.57025 ; skirt
G1 X159.783 Y141.333 E1.57911 ; skirt
G1 X161.118 Y139.267 E1.58902 ; skirt
G1 X161.165 Y139.298 F3600.000 ; move to first skirt point
G1 X161.217 Y139.217 E1.58941 F2014.672 ; skirt
G1 X162.217 Y138.217 E1.59510 ; skirt
G1 X164.022 Y136.973 E1.60393 ; skirt
G1 X166.500 Y136.443 E1.61413 ; skirt
G1 X167.500 Y136.443 E1.61816 ; skirt
G1 X169.656 Y136.840 E1.62698 ; skirt
G1 X172.099 Y138.558 E1.63901 F2014.672 ; skirt
G1 X175.099 Y142.058 E1.65757 ; skirt
G1 X176.201 Y143.953 E1.66640 ; skirt
G1 X176.557 Y146.000 E1.67476 ; skirt
G1 X176.557 Y153.000 E1.70295 ; skirt
G1 X176.160 Y155.156 E1.71177 ; skirt
G1 X175.540 Y156.360 E1.71723 ; skirt
G1 X172.540 Y160.860 E1.73900 ; skirt
G1 X171.014 Y162.434 E1.74783 ; skirt
G1 X169.028 Y163.361 E1.75665 ; skirt
G1 X167.500 Y163.557 E1.76285 ; skirt
G1 X166.500 Y163.557 E1.76688 ; skirt
G1 X164.344 Y163.160 E1.77571 ; skirt
G1 X162.217 Y161.783 E1.78591 ; skirt
G1 X161.217 Y160.783 E1.79160 ; skirt
G1 X159.973 Y158.978 E1.80043 ; skirt
G1 X159.443 Y156.500 E1.81063 ; skirt
G1 X159.443 Y143.500 E1.86298 ; skirt
G1 X159.840 Y141.344 E1.87180 ; skirt
G1 X161.132 Y139.348 E1.88138 ; skirt
G1 E0.88138 F480.00000 ; retract
G92 E0 ; reset extrusion distance
G1 X170.044 Y151.357 F3600.000 ; move to first perimeter point
G1 E1.00000 F480.00000 ; unretract
G1 X170.393 Y151.357 E1.00140 F1726.861 ; perimeter
G1 X170.393 Y152.893 E1.00759 ; perimeter
G1 X169.607 Y152.893 E1.01075 ; perimeter
G1 X169.607 Y152.143 E1.01377 ; perimeter
G1 X167.393 Y152.143 E1.02269 ; perimeter
G1 X167.393 Y157.393 E1.04383 ; perimeter
G1 X166.544 Y157.393 E1.04724 ; perimeter
G1 X165.607 Y156.456 E1.05258 ; perimeter
G1 X165.607 Y143.544 E1.10457 ; perimeter
G1 X166.544 Y142.607 E1.10990 ; perimeter
G1 X167.393 Y142.607 E1.11332 ; perimeter
G1 X167.393 Y146.857 E1.13043 ; perimeter
G1 X169.607 Y146.857 E1.13935 F1726.861 ; perimeter
G1 X169.607 Y146.107 E1.14237 ; perimeter
G1 X170.393 Y146.107 E1.14553 ; perimeter
G1 X170.393 Y147.643 E1.15171 ; perimeter
G1 X167.393 Y147.643 E1.16379 ; perimeter
G1 X167.393 Y151.357 E1.17875 ; perimeter
G1 X169.984 Y151.357 E1.18918 ; perimeter
G1 X169.984 Y151.300 F3600.000 ; move to first perimeter point
G1 X170.450 Y151.300 E1.19106 F863.431 ; perimeter
G1 X170.450 Y152.950 E1.19770 ; perimeter
G1 X169.550 Y152.950 E1.20132 ; perimeter
G1 X169.550 Y152.200 E1.20434 ; perimeter
G1 X167.450 Y152.200 E1.21280 ; perimeter
G1 X167.450 Y157.450 E1.23394 ; perimeter
G1 X166.521 Y157.450 E1.23768 ; perimeter
G1 X165.550 Y156.479 E1.24321 ; perimeter
G1 X165.550 Y143.521 E1.29538 ; perimeter
G1 X166.521 Y142.550 E1.30091 ; perimeter
G1 X167.450 Y142.550 E1.30465 ; perimeter
G1 X167.450 Y146.800 E1.32176 ; perimeter
G1 X169.550 Y146.800 E1.33022 F863.431 ; perimeter
G1 X169.550 Y146.050 E1.33324 ; perimeter
G1 X170.450 Y146.050 E1.33686 ; perimeter
G1 X170.450 Y147.700 E1.34351 ; perimeter
G1 X167.450 Y147.700 E1.35558 ; perimeter
G1 X167.450 Y151.300 E1.37008 ; perimeter
G1 X169.924 Y151.300 E1.38004 ; perimeter
G1 X170.184 Y151.646 F3600.000 ; move inwards before travel
G1 X169.907 Y151.373 F3600.000 ; move to first infill point
G1 X170.377 Y151.843 E1.38272 F1726.861 ; infill
G1 X170.377 Y151.924 F3600.000 ; move to first infill point
G1 X169.826 Y151.373 E1.38587 F1726.861 ; infill
G1 X169.745 Y151.373 F3600.000 ; move to first infill point
G1 X170.377 Y152.005 E1.38947 F1726.861 ; infill
G1 X170.377 Y152.086 F3600.000 ; move to first infill point
G1 X169.664 Y151.373 E1.39354 F1726.861 ; infill
G1 X169.583 Y151.373 F3600.000 ; move to first infill point
G1 X170.377 Y152.167 E1.39808 F1726.861 ; infill
G1 X170.377 Y152.248 F3600.000 ; move to first infill point
G1 X169.502 Y151.373 E1.40307 F1726.861 ; infill
G1 X169.421 Y151.373 F3600.000 ; move to first infill point
G1 X170.377 Y152.329 E1.40853 F1726.861 ; infill
G1 X170.377 Y152.410 F3600.000 ; move to first infill point
G1 X169.340 Y151.373 E1.41445 F1726.861 ; infill
G1 X169.259 Y151.373 F3600.000 ; move to first infill point
G1 X170.377 Y152.491 E1.42083 F1726.861 ; infill
G1 X170.377 Y152.572 F3600.000 ; move to first infill point
G1 X169.178 Y151.373 E1.42768 F1726.861 ; infill
G1 X169.097 Y151.373 F3600.000 ; move to first infill point
G1 X170.377 Y152.653 E1.43499 F1726.861 ; infill
G1 X170.377 Y152.734 F3600.000 ; move to first infill point
G1 X169.016 Y151.373 E1.44276 F1726.861 ; infill
G1 X168.935 Y151.373 F3600.000 ; move to first infill point
G1 X170.377 Y152.815 E1.45099 F1726.861 ; infill
G1 X170.357 Y152.877 F3600.000 ; move to first infill point
G1 X169.623 Y152.143 E1.45519 F1726.861 ; infill
G1 X169.607 Y152.127 F3600.000 ; move to first infill point
G1 X168.854 Y151.373 E1.45949 F1726.861 ; infill
G1 X168.773 Y151.373 F3600.000 ; move to first infill point
G1 X169.526 Y152.127 E1.46379 F1726.861 ; infill
G1 X169.445 Y152.127 F3600.000 ; move to first infill point
G1 X168.692 Y151.373 E1.46809 F1726.861 ; infill
G1 X168.611 Y151.373 F3600.000 ; move to first infill point
G1 X169.364 Y152.127 E1.47240 F1726.861 ; infill
G1 X169.283 Y152.127 F3600.000 ; move to first infill point
G1 X168.530 Y151.373 E1.47670 F1726.861 ; infill
G1 X168.449 Y151.373 F3600.000 ; move to first infill point
G1 X169.202 Y152.127 E1.48100 F1726.861 ; infill
G1 X169.121 Y152.127 F3600.000 ; move to first infill point
G1 X168.368 Y151.373 E1.48530 F1726.861 ; infill
G1 X168.287 Y151.373 F3600.000 ; move to first infill point
G1 X169.040 Y152.127 E1.48960 F1726.861 ; infill
G1 X168.959 Y152.127 F3600.000 ; move to first infill point
G1 X168.206 Y151.373 E1.49391 F1726.861 ; infill
G1 X168.125 Y151.373 F3600.000 ; move to first infill point
G1 X168.878 Y152.127 E1.49821 F1726.861 ; infill
G1 X168.797 Y152.127 F3600.000 ; move to first infill point
G1 X168.044 Y151.373 E1.50251 F1726.861 ; infill
G1 X167.963 Y151.373 F3600.000 ; move to first infill point
G1 X168.716 Y152.127 E1.50681 F1726.861 ; infill
G1 X168.635 Y152.127 F3600.000 ; move to first infill point
G1 X167.882 Y151.373 E1.51112 F1726.861 ; infill
G1 X167.801 Y151.373 F3600.000 ; move to first infill point
G1 X168.554 Y152.127 E1.51542 F1726.861 ; infill
G1 X168.473 Y152.127 F3600.000 ; move to first infill point
G1 X167.720 Y151.373 E1.51972 F1726.861 ; infill
G1 X167.639 Y151.373 F3600.000 ; move to first infill point
G1 X168.392 Y152.127 E1.52402 F1726.861 ; infill
G1 X168.311 Y152.127 F3600.000 ; move to first infill point
G1 X167.558 Y151.373 E1.52832 F1726.861 ; infill
G1 X167.477 Y151.373 F3600.000 ; move to first infill point
G1 X168.230 Y152.127 E1.53263 F1726.861 ; infill
G1 X168.149 Y152.127 F3600.000 ; move to first infill point
G1 X167.396 Y151.373 E1.53693 F1726.861 ; infill
G1 X167.377 Y151.354 F3600.000 ; move to first infill point
G1 X165.623 Y149.601 E1.54694 F1726.861 ; infill
G1 X165.623 Y149.681 F3600.000 ; move to first infill point
G1 X168.069 Y152.127 E1.56091 F1726.861 ; infill
G1 X167.988 Y152.127 F3600.000 ; move to first infill point
G1 X165.623 Y149.762 E1.57442 F1726.861 ; infill
G1 X165.623 Y149.843 F3600.000 ; move to first infill point
G1 X167.907 Y152.127 E1.58746 F1726.861 ; infill
G1 X167.826 Y152.127 F3600.000 ; move to first infill point
G1 X165.623 Y149.924 E1.60004 F1726.861 ; infill
G1 X165.623 Y150.005 F3600.000 ; move to first infill point
G1 X167.745 Y152.127 E1.61216 F1726.861 ; infill
G1 X167.664 Y152.127 F3600.000 ; move to first infill point
G1 X165.623 Y150.086 E1.62381 F1726.861 ; infill
G1 X165.623 Y150.167 F3600.000 ; move to first infill point
G1 X167.583 Y152.127 E1.63501 F1726.861 ; infill
G1 X167.502 Y152.127 F3600.000 ; move to first infill point
G1 X165.623 Y150.248 E1.64574 F1726.861 ; infill
G1 X165.623 Y150.329 F3600.000 ; move to first infill point
G1 X167.421 Y152.127 E1.65600 F1726.861 ; infill
G1 X167.377 Y152.163 F3600.000 ; move to first infill point
G1 X165.623 Y150.410 E1.66602 F1726.861 ; infill
G1 X165.623 Y150.491 F3600.000 ; move to first infill point
G1 X167.377 Y152.244 E1.67603 F1726.861 ; infill
G1 X167.377 Y152.325 F3600.000 ; move to first infill point
G1 X165.623 Y150.572 E1.68605 F1726.861 ; infill
G1 X165.623 Y150.653 F3600.000 ; move to first infill point
G1 X167.377 Y152.406 E1.69606 F1726.861 ; infill
G1 X167.377 Y152.487 F3600.000 ; move to first infill point
G1 X165.623 Y150.734 E1.70608 F1726.861 ; infill
G1 X165.623 Y150.815 F3600.000 ; move to first infill point
G1 X167.377 Y152.568 E1.71609 F1726.861 ; infill
G1 X167.377 Y152.649 F3600.000 ; move to first infill point
G1 X165.623 Y150.896 E1.72611 F1726.861 ; infill
G1 X165.623 Y150.977 F3600.000 ; move to first infill point
G1 X167.377 Y152.730 E1.73612 F1726.861 ; infill
G1 X167.377 Y152.811 F3600.000 ; move to first infill point
G1 X165.623 Y151.058 E1.74614 F1726.861 ; infill
G1 X165.623 Y151.139 F3600.000 ; move to first infill point
G1 X167.377 Y152.892 E1.75616 F1726.861 ; infill
G1 X167.377 Y152.973 F3600.000 ; move to first infill point
G1 X165.623 Y151.220 E1.76617 F1726.861 ; infill
G1 X165.623 Y151.301 F3600.000 ; move to first infill point
G1 X167.377 Y153.054 E1.77619 F1726.861 ; infill
G1 X167.377 Y153.135 F3600.000 ; move to first infill point
G1 X165.623 Y151.382 E1.78620 F1726.861 ; infill
G1 X165.623 Y151.463 F3600.000 ; move to first infill point
G1 X167.377 Y153.216 E1.79622 F1726.861 ; infill
G1 X167.377 Y153.297 F3600.000 ; move to first infill point
G1 X165.623 Y151.544 E1.80623 F1726.861 ; infill
G1 X165.623 Y151.625 F3600.000 ; move to first infill point
G1 X167.377 Y153.378 E1.81625 F1726.861 ; infill
G1 X167.377 Y153.459 F3600.000 ; move to first infill point
G1 X165.623 Y151.706 E1.82626 F1726.861 ; infill
G1 X165.623 Y151.787 F3600.000 ; move to first infill point
G1 X167.377 Y153.540 E1.83628 F1726.861 ; infill
G1 X167.377 Y153.621 F3600.000 ; move to first infill point
G1 X165.623 Y151.868 E1.84629 F1726.861 ; infill
G1 X165.623 Y151.949 F3600.000 ; move to first infill point
G1 X167.377 Y153.702 E1.85631 F1726.861 ; infill
G1 X167.377 Y153.783 F3600.000 ; move to first infill point
G1 X165.623 Y152.030 E1.86632 F1726.861 ; infill
G1 X165.623 Y152.111 F3600.000 ; move to first infill point
G1 X167.377 Y153.864 E1.87634 F1726.861 ; infill
G1 X167.377 Y153.945 F3600.000 ; move to first infill point
G1 X165.623 Y152.192 E1.88635 F1726.861 ; infill
G1 X165.623 Y152.273 F3600.000 ; move to first infill point
G1 X167.377 Y154.026 E1.89637 F1726.861 ; infill
G1 X167.377 Y154.107 F3600.000 ; move to first infill point
G1 X165.623 Y152.354 E1.90638 F1726.861 ; infill
G1 X165.623 Y152.435 F3600.000 ; move to first infill point
G1 X167.377 Y154.188 E1.91640 F1726.861 ; infill
G1 X167.377 Y154.269 F3600.000 ; move to first infill point
G1 X165.623 Y152.516 E1.92641 F1726.861 ; infill
G1 X165.623 Y152.597 F3600.000 ; move to first infill point
G1 X167.377 Y154.350 E1.93643 F1726.861 ; infill
G1 X167.377 Y154.431 F3600.000 ; move to first infill point
G1 X165.623 Y152.678 E1.94644 F1726.861 ; infill
G1 X165.623 Y152.759 F3600.000 ; move to first infill point
G1 X167.377 Y154.512 E1.95646 F1726.861 ; infill
G1 X167.377 Y154.593 F3600.000 ; move to first infill point
G1 X165.623 Y152.840 E1.96647 F1726.861 ; infill
G1 X165.623 Y152.921 F3600.000 ; move to first infill point
G1 X167.377 Y154.674 E1.97649 F1726.861 ; infill
G1 X167.377 Y154.755 F3600.000 ; move to first infill point
G1 X165.623 Y153.002 E1.98650 F1726.861 ; infill
G1 X165.623 Y153.083 F3600.000 ; move to first infill point
G1 X167.377 Y154.836 E1.99652 F1726.861 ; infill
G1 X167.377 Y154.917 F3600.000 ; move to first infill point
G1 X165.623 Y153.164 E2.00654 F1726.861 ; infill
G1 X165.623 Y153.245 F3600.000 ; move to first infill point
G1 X167.377 Y154.998 E2.01655 F1726.861 ; infill
G1 X167.377 Y155.079 F3600.000 ; move to first infill point
G1 X165.623 Y153.326 E2.02657 F1726.861 ; infill
G1 X165.623 Y153.407 F3600.000 ; move to first infill point
G1 X167.377 Y155.160 E2.03658 F1726.861 ; infill
G1 X167.377 Y155.241 F3600.000 ; move to first infill point
G1 X165.623 Y153.488 E2.04660 F1726.861 ; infill
G1 X165.623 Y153.569 F3600.000 ; move to first infill point
G1 X167.377 Y155.322 E2.05661 F1726.861 ; infill
G1 X167.377 Y155.403 F3600.000 ; move to first infill point
G1 X165.623 Y153.650 E2.06663 F1726.861 ; infill
G1 X165.623 Y153.731 F3600.000 ; move to first infill point
G1 X167.377 Y155.484 E2.07664 F1726.861 ; infill
G1 X167.377 Y155.565 F3600.000 ; move to first infill point
G1 X165.623 Y153.812 E2.08666 F1726.861 ; infill
G1 X165.623 Y153.893 F3600.000 ; move to first infill point
G1 X167.377 Y155.646 E2.09667 F1726.861 ; infill
G1 X167.377 Y155.727 F3600.000 ; move to first infill point
G1 X165.623 Y153.974 E2.10669 F1726.861 ; infill
G1 X165.623 Y154.055 F3600.000 ; move to first infill point
G1 X167.377 Y155.808 E2.11670 F1726.861 ; infill
G1 X167.377 Y155.889 F3600.000 ; move to first infill point
G1 X165.623 Y154.136 E2.12672 F1726.861 ; infill
G1 X165.623 Y154.217 F3600.000 ; move to first infill point
G1 X167.377 Y155.970 E2.13673 F1726.861 ; infill
G1 X167.377 Y156.051 F3600.000 ; move to first infill point
G1 X165.623 Y154.298 E2.14675 F1726.861 ; infill
G1 X165.623 Y154.379 F3600.000 ; move to first infill point
G1 X167.377 Y156.132 E2.15676 F1726.861 ; infill
G1 X167.377 Y156.213 F3600.000 ; move to first infill point
G1 X165.623 Y154.460 E2.16678 F1726.861 ; infill
