; generated by Slic3r 1.2.9 on 2016-02-01 at 12:03:26

; external perimeters extrusion width = 0.40mm
; perimeters extrusion width = 0.67mm
; infill extrusion width = 0.67mm
; solid infill extrusion width = 0.67mm
; top infill extrusion width = 0.67mm

M107 ; disable fan
M104 S220 ; set temperature
M80 ; Power supply on
G28 ; home all axes

M109 S220 ; wait for temperature to be reached
G21 ; set units to millimeters
G90 ; use absolute coordinates
M82 ; use absolute distances for extrusion
G92 E0 ; reset extrusion distance
G1 E-1.00000 F480.00000 ; retract
G92 E0 ; reset extrusion distance
G1 Z0.200 F3600.000 ; move to next layer (0)
G1 X133.136 Y138.136 F3600.000 ; move to first skirt point
G1 E1.00000 F480.00000 ; unretract
G1 X134.956 Y136.877 E1.00891 F2100.000 ; skirt
G1 X137.500 Y136.329 E1.01939 ; skirt
G1 X198.500 Y136.329 E1.26500 ; skirt
G1 X200.677 Y136.726 E1.27391 ; skirt
G1 X202.864 Y138.136 E1.28438 F2100.000 ; skirt
G1 X203.864 Y139.136 E1.29008 ; skirt
G1 X205.123 Y140.956 E1.29899 ; skirt
G1 X205.671 Y143.500 E1.30947 ; skirt
G1 X205.671 Y156.500 E1.36181 ; skirt
G1 X205.274 Y158.677 E1.37072 ; skirt
G1 X203.864 Y160.864 E1.38120 ; skirt
G1 X202.864 Y161.864 E1.38689 ; skirt
G1 X201.044 Y163.123 E1.39580 ; skirt
G1 X198.500 Y163.671 E1.40628 ; skirt
G1 X137.500 Y163.671 E1.65189 ; skirt
G1 X135.323 Y163.274 E1.66080 ; skirt
G1 X133.136 Y161.864 E1.67127 ; skirt
G1 X132.136 Y160.864 E1.67697 ; skirt
G1 X130.877 Y159.044 E1.68588 ; skirt
G1 X130.329 Y156.500 E1.69636 ; skirt
G1 X130.329 Y143.500 E1.74870 ; skirt
G1 X130.726 Y141.323 E1.75761 ; skirt
G1 X132.136 Y139.136 E1.76809 ; skirt
G1 X133.094 Y138.179 E1.77354 ; skirt
G1 X133.134 Y138.219 F3600.000 ; move to first skirt point
G1 X134.989 Y136.925 E1.78265 F2100.000 ; skirt
G1 X137.500 Y136.386 E1.79299 ; skirt
G1 X198.500 Y136.386 E2.03860 ; skirt
G1 X200.667 Y136.783 E2.04746 ; skirt
G1 X202.823 Y138.177 E2.05780 F2100.000 ; skirt
G1 X203.823 Y139.177 E2.06350 ; skirt
G1 X205.075 Y140.989 E2.07237 ; skirt
G1 X205.614 Y143.500 E2.08271 ; skirt
G1 X205.614 Y156.500 E2.13505 ; skirt
G1 X205.217 Y158.667 E2.14392 ; skirt
G1 X203.823 Y160.823 E2.15426 ; skirt
G1 X202.823 Y161.823 E2.15995 ; skirt
G1 X201.011 Y163.075 E2.16882 ; skirt
G1 X198.500 Y163.614 E2.17916 ; skirt
G1 X137.500 Y163.614 E2.42477 ; skirt
G1 X135.333 Y163.217 E2.43364 ; skirt
G1 X133.177 Y161.823 E2.44398 ; skirt
G1 X132.177 Y160.823 E2.44967 ; skirt
G1 X130.925 Y159.011 E2.45854 ; skirt
G1 X130.386 Y156.500 E2.46888 ; skirt
G1 X130.386 Y143.500 E2.52122 ; skirt
G1 X130.783 Y141.333 E2.53009 ; skirt
G1 X132.177 Y139.177 E2.54043 ; skirt
G1 X133.092 Y138.261 E2.54564 ; skirt
G1 X133.132 Y138.302 F3600.000 ; move to first skirt point
G1 X133.217 Y138.217 E2.54613 F2100.000 ; skirt
G1 X135.022 Y136.973 E2.55495 ; skirt
G1 X137.500 Y136.443 E2.56516 ; skirt
G1 X198.500 Y136.443 E2.81076 ; skirt
G1 X200.656 Y136.840 E2.81959 ; skirt
G1 X202.783 Y138.217 E2.82979 F2100.000 ; skirt
G1 X203.783 Y139.217 E2.83549 ; skirt
G1 X205.027 Y141.022 E2.84432 ; skirt
G1 X205.557 Y143.500 E2.85452 ; skirt
G1 X205.557 Y156.500 E2.90686 ; skirt
G1 X205.160 Y158.656 E2.91569 ; skirt
G1 X203.783 Y160.783 E2.92589 ; skirt
G1 X202.783 Y161.783 E2.93158 ; skirt
G1 X200.978 Y163.027 E2.94041 ; skirt
G1 X198.500 Y163.557 E2.95061 ; skirt
G1 X137.500 Y163.557 E3.19622 ; skirt
G1 X135.344 Y163.160 E3.20505 ; skirt
G1 X133.217 Y161.783 E3.21525 ; skirt
G1 X132.217 Y160.783 E3.22095 ; skirt
G1 X130.973 Y158.978 E3.22977 ; skirt
G1 X130.443 Y156.500 E3.23998 ; skirt
G1 X130.443 Y143.500 E3.29232 ; skirt
G1 X130.840 Y141.344 E3.30115 ; skirt
G1 X132.217 Y139.217 E3.31135 ; skirt
G1 X133.090 Y138.344 E3.31632 ; skirt
G1 E2.31632 F480.00000 ; retract
G92 E0 ; reset extrusion distance
G1 X166.607 Y147.893 F3600.000 ; move to first perimeter point
G1 E1.00000 F480.00000 ; unretract
G1 X163.147 Y147.893 E1.01393 F1800.000 ; perimeter
G1 X163.147 Y151.107 E1.02687 ; perimeter
G1 X166.647 Y151.107 E1.04096 ; perimeter
G1 X166.647 Y152.643 E1.04715 ; perimeter
G1 X165.861 Y152.643 E1.05031 ; perimeter
G1 X165.861 Y151.893 E1.05333 ; perimeter
G1 X163.147 Y151.893 E1.06426 ; perimeter
G1 X163.147 Y157.393 E1.08640 ; perimeter
G1 X162.299 Y157.393 E1.08982 ; perimeter
G1 X161.361 Y156.456 E1.09516 ; perimeter
G1 X161.361 Y143.544 E1.14714 ; perimeter
G1 X162.299 Y142.607 E1.15248 ; perimeter
G1 X163.147 Y142.607 E1.15590 ; perimeter
G1 X163.147 Y147.107 E1.17401 ; perimeter
G1 X165.861 Y147.107 E1.18494 F1800.000 ; perimeter
G1 X165.861 Y146.357 E1.18796 ; perimeter
G1 X166.647 Y146.357 E1.19113 ; perimeter
G1 X166.647 Y147.874 E1.19723 ; perimeter
G1 X166.704 Y147.874 F3600.000 ; move to first perimeter point
G1 X166.704 Y147.950 E1.19754 F900.000 ; perimeter
G1 X163.204 Y147.950 E1.21163 ; perimeter
G1 X163.204 Y151.050 E1.22411 ; perimeter
G1 X166.704 Y151.050 E1.23821 ; perimeter
G1 X166.704 Y152.700 E1.24485 ; perimeter
G1 X165.804 Y152.700 E1.24847 ; perimeter
G1 X165.804 Y151.950 E1.25149 ; perimeter
G1 X163.204 Y151.950 E1.26196 ; perimeter
G1 X163.204 Y157.450 E1.28411 ; perimeter
G1 X162.275 Y157.450 E1.28785 ; perimeter
G1 X161.304 Y156.479 E1.29338 ; perimeter
G1 X161.304 Y143.521 E1.34555 ; perimeter
G1 X162.275 Y142.550 E1.35108 ; perimeter
G1 X163.204 Y142.550 E1.35482 ; perimeter
G1 X163.204 Y147.050 E1.37294 ; perimeter
G1 X165.804 Y147.050 E1.38341 F900.000 ; perimeter
G1 X165.804 Y146.300 E1.38643 ; perimeter
G1 X166.704 Y146.300 E1.39005 ; perimeter
G1 X166.704 Y147.814 E1.39615 ; perimeter
G1 X166.638 Y147.912 F3600.000 ; move inwards before travel
G1 X166.631 Y147.807 F3600.000 ; move to first infill point
G1 X165.878 Y147.054 E1.40045 F1800.000 ; infill
G1 X165.866 Y147.123 F3600.000 ; move to first infill point
G1 X166.619 Y147.877 E1.40475 F1800.000 ; infill
G1 X166.538 Y147.877 F3600.000 ; move to first infill point
G1 X165.785 Y147.123 E1.40905 F1800.000 ; infill
G1 X165.704 Y147.123 F3600.000 ; move to first infill point
G1 X166.457 Y147.877 E1.41336 F1800.000 ; infill
G1 X166.376 Y147.877 F3600.000 ; move to first infill point
G1 X165.623 Y147.123 E1.41766 F1800.000 ; infill
G1 X165.542 Y147.123 F3600.000 ; move to first infill point
G1 X166.295 Y147.877 E1.42196 F1800.000 ; infill
G1 X166.214 Y147.877 F3600.000 ; move to first infill point
G1 X165.461 Y147.123 E1.42626 F1800.000 ; infill
G1 X165.380 Y147.123 F3600.000 ; move to first infill point
G1 X166.133 Y147.877 E1.43056 F1800.000 ; infill
G1 X166.052 Y147.877 F3600.000 ; move to first infill point
G1 X165.299 Y147.123 E1.43487 F1800.000 ; infill
G1 X165.218 Y147.123 F3600.000 ; move to first infill point
G1 X165.971 Y147.877 E1.43917 F1800.000 ; infill
G1 X165.890 Y147.877 F3600.000 ; move to first infill point
G1 X165.137 Y147.123 E1.44347 F1800.000 ; infill
G1 X165.056 Y147.123 F3600.000 ; move to first infill point
G1 X165.809 Y147.877 E1.44777 F1800.000 ; infill
G1 X165.728 Y147.877 F3600.000 ; move to first infill point
G1 X164.975 Y147.123 E1.45208 F1800.000 ; infill
G1 X164.894 Y147.123 F3600.000 ; move to first infill point
G1 X165.647 Y147.877 E1.45638 F1800.000 ; infill
G1 X165.566 Y147.877 F3600.000 ; move to first infill point
G1 X164.813 Y147.123 E1.46068 F1800.000 ; infill
G1 X164.732 Y147.123 F3600.000 ; move to first infill point
G1 X165.485 Y147.877 E1.46498 F1800.000 ; infill
G1 X165.404 Y147.877 F3600.000 ; move to first infill point
G1 X164.651 Y147.123 E1.46928 F1800.000 ; infill
G1 X164.570 Y147.123 F3600.000 ; move to first infill point
G1 X165.323 Y147.877 E1.47359 F1800.000 ; infill
G1 X165.242 Y147.877 F3600.000 ; move to first infill point
G1 X164.489 Y147.123 E1.47789 F1800.000 ; infill
G1 X164.408 Y147.123 F3600.000 ; move to first infill point
G1 X165.161 Y147.877 E1.48219 F1800.000 ; infill
G1 X165.080 Y147.877 F3600.000 ; move to first infill point
G1 X164.327 Y147.123 E1.48649 F1800.000 ; infill
G1 X164.246 Y147.123 F3600.000 ; move to first infill point
G1 X164.999 Y147.877 E1.49080 F1800.000 ; infill
G1 X164.918 Y147.877 F3600.000 ; move to first infill point
G1 X164.165 Y147.123 E1.49510 F1800.000 ; infill
G1 X164.084 Y147.123 F3600.000 ; move to first infill point
G1 X164.837 Y147.877 E1.49940 F1800.000 ; infill
G1 X164.756 Y147.877 F3600.000 ; move to first infill point
G1 X164.003 Y147.123 E1.50370 F1800.000 ; infill
G1 X163.922 Y147.123 F3600.000 ; move to first infill point
G1 X164.675 Y147.877 E1.50800 F1800.000 ; infill
G1 X164.594 Y147.877 F3600.000 ; move to first infill point
G1 X163.841 Y147.123 E1.51231 F1800.000 ; infill
G1 X163.760 Y147.123 F3600.000 ; move to first infill point
G1 X164.513 Y147.877 E1.51661 F1800.000 ; infill
G1 X164.432 Y147.877 F3600.000 ; move to first infill point
G1 X163.679 Y147.123 E1.52091 F1800.000 ; infill
G1 X163.598 Y147.123 F3600.000 ; move to first infill point
G1 X164.351 Y147.877 E1.52521 F1800.000 ; infill
G1 X164.270 Y147.877 F3600.000 ; move to first infill point
G1 X163.517 Y147.123 E1.52952 F1800.000 ; infill
G1 X163.436 Y147.123 F3600.000 ; move to first infill point
G1 X164.189 Y147.877 E1.53382 F1800.000 ; infill
G1 X164.108 Y147.877 F3600.000 ; move to first infill point
G1 X163.355 Y147.123 E1.53812 F1800.000 ; infill
G1 X163.274 Y147.123 F3600.000 ; move to first infill point
G1 X164.027 Y147.877 E1.54242 F1800.000 ; infill
G1 X163.946 Y147.877 F3600.000 ; move to first infill point
G1 X163.193 Y147.123 E1.54672 F1800.000 ; infill
G1 X163.131 Y147.061 F3600.000 ; move to first infill point
G1 X161.378 Y145.308 E1.55674 F1800.000 ; infill
G1 X161.378 Y145.227 F3600.000 ; move to first infill point
G1 X163.131 Y146.980 E1.56676 F1800.000 ; infill
G1 X163.131 Y146.899 F3600.000 ; move to first infill point
G1 X161.378 Y145.146 E1.57677 F1800.000 ; infill
G1 X161.378 Y145.065 F3600.000 ; move to first infill point
G1 X163.131 Y146.818 E1.58679 F1800.000 ; infill
G1 X163.131 Y146.737 F3600.000 ; move to first infill point
G1 X161.378 Y144.984 E1.59680 F1800.000 ; infill
G1 X161.378 Y144.903 F3600.000 ; move to first infill point
G1 X163.131 Y146.656 E1.60682 F1800.000 ; infill
G1 X163.131 Y146.575 F3600.000 ; move to first infill point
G1 X161.378 Y144.822 E1.61683 F1800.000 ; infill
G1 X161.378 Y144.741 F3600.000 ; move to first infill point
G1 X163.131 Y146.494 E1.62685 F1800.000 ; infill
G1 X163.131 Y146.413 F3600.000 ; move to first infill point
G1 X161.378 Y144.660 E1.63686 F1800.000 ; infill
G1 X161.378 Y144.579 F3600.000 ; move to first infill point
G1 X163.131 Y146.332 E1.64688 F1800.000 ; infill
G1 X163.131 Y146.251 F3600.000 ; move to first infill point
G1 X161.378 Y144.498 E1.65689 F1800.000 ; infill
G1 X161.378 Y144.417 F3600.000 ; move to first infill point
G1 X163.131 Y146.170 E1.66691 F1800.000 ; infill
G1 X163.131 Y146.089 F3600.000 ; move to first infill point
G1 X161.378 Y144.336 E1.67692 F1800.000 ; infill
G1 X161.378 Y144.255 F3600.000 ; move to first infill point
G1 X163.131 Y146.008 E1.68694 F1800.000 ; infill
G1 X163.131 Y145.927 F3600.000 ; move to first infill point
G1 X161.378 Y144.174 E1.69695 F1800.000 ; infill
G1 X161.378 Y144.093 F3600.000 ; move to first infill point
G1 X163.131 Y145.846 E1.70697 F1800.000 ; infill
G1 X163.131 Y145.765 F3600.000 ; move to first infill point
G1 X161.378 Y144.012 E1.71698 F1800.000 ; infill
G1 X161.378 Y143.931 F3600.000 ; move to first infill point
G1 X163.131 Y145.684 E1.72700 F1800.000 ; infill
G1 X163.131 Y145.603 F3600.000 ; move to first infill point
G1 X161.378 Y143.850 E1.73701 F1800.000 ; infill
G1 X161.378 Y143.769 F3600.000 ; move to first infill point
G1 X163.131 Y145.522 E1.74703 F1800.000 ; infill
G1 X163.131 Y145.441 F3600.000 ; move to first infill point
G1 X161.378 Y143.688 E1.75704 F1800.000 ; infill
G1 X161.378 Y143.607 F3600.000 ; move to first infill point
G1 X163.131 Y145.360 E1.76706 F1800.000 ; infill
G1 X163.131 Y145.279 F3600.000 ; move to first infill point
G1 X161.401 Y143.549 E1.77694 F1800.000 ; infill
G1 X162.338 Y142.623 F3600.000 ; move to first infill point
G1 X163.131 Y143.417 E1.78147 F1800.000 ; infill
G1 X163.131 Y143.336 F3600.000 ; move to first infill point
G1 X162.419 Y142.623 E1.78554 F1800.000 ; infill
G1 X162.500 Y142.623 F3600.000 ; move to first infill point
G1 X163.131 Y143.255 E1.78915 F1800.000 ; infill
G1 X163.131 Y143.174 F3600.000 ; move to first infill point
G1 X162.581 Y142.623 E1.79229 F1800.000 ; infill
G1 X162.662 Y142.623 F3600.000 ; move to first infill point
G1 X163.131 Y143.093 E1.79497 F1800.000 ; infill
G1 X163.131 Y143.012 F3600.000 ; move to first infill point
G1 X162.743 Y142.623 E1.79719 F1800.000 ; infill
G1 X162.824 Y142.623 F3600.000 ; move to first infill point
G1 X163.131 Y142.931 E1.79894 F1800.000 ; infill
G1 X163.131 Y142.850 F3600.000 ; move to first infill point
G1 X162.905 Y142.623 E1.80024 F1800.000 ; infill
G1 X162.986 Y142.623 F3600.000 ; move to first infill point
G1 X163.131 Y142.769 E1.80107 F1800.000 ; infill
G1 X163.131 Y142.688 F3600.000 ; move to first infill point
G1 X163.067 Y142.623 E1.80143 F1800.000 ; infill
G1 X163.131 Y143.498 F3600.000 ; move to first infill point
G1 X162.292 Y142.658 E1.80623 F1800.000 ; infill
G1 X162.251 Y142.699 E1.80646 ; infill
G1 X163.131 Y143.579 E1.81148 ; infill
G1 X163.131 Y143.660 F3600.000 ; move to first infill point
G1 X162.211 Y142.739 E1.81674 F1800.000 ; infill
G1 X162.170 Y142.780 E1.81697 ; infill
G1 X163.131 Y143.741 E1.82246 ; infill
G1 X163.131 Y143.822 F3600.000 ; move to first infill point
G1 X162.130 Y142.820 E1.82818 F1800.000 ; infill
G1 X162.089 Y142.861 E1.82841 ; infill
G1 X163.131 Y143.903 E1.83436 ; infill
G1 X163.131 Y143.984 F3600.000 ; move to first infill point
G1 X162.049 Y142.901 E1.84054 F1800.000 ; infill
G1 X162.008 Y142.942 E1.84077 ; infill
G1 X163.131 Y144.065 E1.84719 ; infill
G1 X163.131 Y144.145 F3600.000 ; move to first infill point
G1 X161.968 Y142.982 E1.85383 F1800.000 ; infill
G1 X161.927 Y143.023 E1.85406 ; infill
G1 X163.131 Y144.226 E1.86094 ; infill
G1 X163.131 Y144.307 F3600.000 ; move to first infill point
G1 X161.887 Y143.063 E1.86805 F1800.000 ; infill
G1 X161.846 Y143.104 E1.86828 ; infill
G1 X163.131 Y144.388 E1.87562 ; infill
G1 X163.131 Y144.469 F3600.000 ; move to first infill point
G1 X161.806 Y143.144 E1.88319 F1800.000 ; infill
G1 X161.765 Y143.185 E1.88342 ; infill
G1 X163.131 Y144.550 E1.89122 ; infill
G1 X163.131 Y144.631 F3600.000 ; move to first infill point
G1 X161.725 Y143.225 E1.89925 F1800.000 ; infill
G1 X161.684 Y143.266 E1.89949 ; infill
G1 X163.131 Y144.712 E1.90775 ; infill
G1 X163.131 Y144.793 F3600.000 ; move to first infill point
G1 X161.644 Y143.306 E1.91625 F1800.000 ; infill
G1 X161.603 Y143.347 E1.91648 ; infill
G1 X163.131 Y144.874 E1.92520 ; infill
G1 X163.131 Y144.955 F3600.000 ; move to first infill point
G1 X161.563 Y143.387 E1.93416 F1800.000 ; infill
G1 X161.522 Y143.428 E1.93439 ; infill
G1 X163.131 Y145.036 E1.94358 ; infill
G1 X163.131 Y145.117 F3600.000 ; move to first infill point
G1 X161.482 Y143.468 E1.95300 F1800.000 ; infill
G1 X161.441 Y143.509 E1.95324 ; infill
G1 X163.131 Y145.198 E1.96289 ; infill
G1 X161.378 Y145.389 F3600.000 ; move to first infill point
G1 X163.865 Y147.877 E1.97710 F1800.000 ; infill
G1 X163.784 Y147.877 F3600.000 ; move to first infill point
G1 X161.378 Y145.470 E1.99085 F1800.000 ; infill
G1 X161.378 Y145.551 F3600.000 ; move to first infill point
G1 X163.703 Y147.877 E2.00413 F1800.000 ; infill
G1 X163.622 Y147.877 F3600.000 ; move to first infill point
G1 X161.378 Y145.632 E2.01695 F1800.000 ; infill
G1 X161.378 Y145.713 F3600.000 ; move to first infill point
G1 X163.541 Y147.877 E2.02932 F1800.000 ; infill
G1 X163.460 Y147.877 F3600.000 ; move to first infill point
G1 X161.378 Y145.794 E2.04121 F1800.000 ; infill
G1 X161.378 Y145.875 F3600.000 ; move to first infill point
G1 X163.379 Y147.877 E2.05265 F1800.000 ; infill
G1 X163.298 Y147.877 F3600.000 ; move to first infill point
G1 X161.378 Y145.956 E2.06362 F1800.000 ; infill
G1 X161.378 Y146.037 F3600.000 ; move to first infill point
